assets/luts/kodak/UVSR_Kodak_Portra_400.cube
TITLE "Kodak Portra 400 (UVSR)"
LUT_3D_SIZE 5
DOMAIN_MIN 0.0 0.0 0.0
DOMAIN_MAX 1.0 1.0 1.0
0.0000000 0.0000000 0.0000000
0.2528947 0.0000000 0.0000000
0.5190995 0.0000000 0.0000000
0.7849712 0.0000000 0.0000000
1.0000000 0.0000000 0.0000000
0.0019587 0.2481648 0.0000000
0.2538442 0.2468502 0.0000000
0.5189854 0.2453720 0.0000000
0.7837934 0.2437986 0.0000000
1.0000000 0.2422177 0.0000000
0.0003484 0.5086596 0.0000000
0.2511703 0.5070411 0.0000000
0.5151905 0.5052426 0.0000000
0.7788776 0.5033490 0.0000000
1.0000000 0.5014642 0.0000000
0.0000000 0.7680769 0.0000000
0.2447254 0.7661546 0.0000000
0.5076246 0.7640358 0.0000000
0.7701907 0.7618219 0.0000000
1.0000000 0.7596331 0.0000000
0.0000000 1.0000000 0.0000000
0.2351236 1.0000000 0.0000000
0.4969592 1.0000000 0.0000000
0.7584616 1.0000000 0.0000000
1.0000000 1.0000000 0.0000000
0.0003518 0.0000000 0.2507210
0.2531446 0.0000000 0.2472084
0.5192421 0.0000000 0.2437150
0.7850063 0.0000000 0.2404359
1.0000000 0.0000000 0.2375226
0.0019678 0.2477280 0.2396711
0.2537513 0.2463843 0.2368072
0.5187852 0.2448754 0.2339976
0.7834858 0.2432714 0.2314023
1.0000000 0.2416613 0.2291377
0.0000000 0.5081195 0.2303876
0.2507162 0.5064720 0.2282074
0.5146291 0.5046428 0.2261185
0.7782088 0.5027185 0.2242438
1.0000000 0.5008046 0.2226630
0.0000000 0.7674337 0.2235283
0.2439101 0.7654822 0.2220319
0.5067020 0.7633328 0.2206636
0.7691607 0.7610882 0.2195095
1.0000000 0.7588704 0.2186125
0.0000000 1.0000000 0.2192613
0.2339656 1.0000000 0.2184137
0.4956939 1.0000000 0.2177292
0.7570889 1.0000000 0.2172588
1.0000000 1.0000000 0.2170106
0.0006851 0.0000000 0.5149838
0.2533705 0.0000000 0.5115402
0.5193548 0.0000000 0.5081196
0.7850059 0.0000000 0.5049132
1.0000000 0.0000000 0.5020690
0.0019399 0.2472569 0.5041661
0.2536161 0.2458826 0.5013712
0.5185368 0.2443414 0.4986344
0.7831242 0.2427050 0.4961118
1.0000000 0.2410642 0.4939163
0.0000000 0.5075397 0.4951273
0.2502003 0.5058615 0.4930162
0.5140000 0.5040000 0.4910000
0.7774665 0.5020433 0.4891980
1.0000000 0.5000987 0.4876863
0.0000000 0.7667451 0.4885127
0.2430135 0.7647630 0.4870854
0.5056922 0.7625812 0.4857898
0.7680377 0.7603042 0.4847085
1.0000000 0.7580557 0.4838805
0.0000000 1.0000000 0.4844780
0.2327077 1.0000000 0.4836994
0.4943228 1.0000000 0.4830876
0.7556047 1.0000000 0.4826900
1.0000000 1.0000000 0.4825108
0.0009800 0.0000000 0.7792713
0.2535580 0.0000000 0.7758967
0.5194292 0.0000000 0.7725489
0.7849671 0.0000000 0.7694153
1.0000000 0.0000000 0.7666400
0.0018736 0.2467749 0.7686858
0.2534424 0.2453698 0.7659599
0.5182499 0.2437963 0.7632959
0.7827242 0.2421276 0.7608460
1.0000000 0.2404562 0.7587195
0.0000000 0.5069489 0.7598917
0.2496459 0.5052400 0.7578496
0.5133325 0.5033462 0.7559062
0.7766858 0.5013572 0.7541770
1.0000000 0.4993819 0.7527343
0.0000000 0.7660455 0.7535219
0.2420784 0.7640327 0.7521636
0.5046440 0.7618186 0.7509408
0.7668763 0.7595093 0.7499322
1.0000000 0.7572301 0.7491732
0.0000000 1.0000000 0.7497193
0.2314114 1.0000000 0.7490098
0.4929134 1.0000000 0.7484707
0.7540821 1.0000000 0.7481459
1.0000000 1.0000000 0.7480357
0.0012243 0.0000000 1.0000000
0.2537004 0.0000000 1.0000000
0.5194642 0.0000000 1.0000000
0.7848948 0.0000000 1.0000000
1.0000000 0.0000000 1.0000000
0.0017751 0.2463073 1.0000000
0.2532420 0.2448732 1.0000000
0.5179422 0.2432690 1.0000000
0.7823091 0.2415696 1.0000000
1.0000000 0.2398691 1.0000000
0.0000000 0.5063782 1.0000000
0.2490843 0.5046401 1.0000000
0.5126635 0.5027156 1.0000000
0.7759095 0.5006960 1.0000000
1.0000000 0.4986916 1.0000000
0.0000000 0.7653715 1.0000000
0.2411556 0.7633296 1.0000000
0.5036138 0.7610849 1.0000000
0.7657388 0.7587449 1.0000000
1.0000000 0.7564366 1.0000000
0.0000000 1.0000000 1.0000000
0.2301459 1.0000000 1.0000000
0.4915405 1.0000000 1.0000000
0.7526019 1.0000000 1.0000000
1.0000000 1.0000000 1.0000000
