assets/luts/kodak/UVSR_Kodak_Ektar_100.cube
TITLE "Kodak Ektar 100 (UVSR)"
LUT_3D_SIZE 9
DOMAIN_MIN 0.0 0.0 0.0
DOMAIN_MAX 1.0 1.0 1.0
0.0000000 0.0000000 0.0000000
0.1270154 0.0000000 0.0000000
0.2661834 0.0000000 0.0000000
0.4135676 0.0000000 0.0000000
0.5651960 0.0000000 0.0000000
0.7170649 0.0000000 0.0000000
0.8651456 0.0000000 0.0000000
1.0000000 0.0000000 0.0000000
1.0000000 0.0000000 0.0000000
0.0000000 0.1178306 0.0000000
0.1139972 0.1139972 0.0000000
0.2534159 0.1098050 0.0000000
0.4010203 0.1053736 0.0000000
0.5528271 0.1008226 0.0000000
0.7048259 0.0962716 0.0000000
0.8529864 0.0918403 0.0000000
0.9932665 0.0876481 0.0000000
1.0000000 0.0838146 0.0000000
0.0000000 0.2466887 0.0000000
0.0990047 0.2428553 0.0000000
0.2386630 0.2386630 0.0000000
0.3864719 0.2342317 0.0000000
0.5384363 0.2296807 0.0000000
0.6905397 0.2251297 0.0000000
0.8387512 0.2206983 0.0000000
0.9790332 0.2165061 0.0000000
1.0000000 0.2126727 0.0000000
0.0000000 0.3828984 0.0000000
0.0825854 0.3790650 0.0000000
0.2224579 0.3748728 0.0000000
0.3704414 0.3704414 0.0000000
0.5225299 0.3658904 0.0000000
0.6747014 0.3613395 0.0000000
0.8229253 0.3569081 0.0000000
0.9631702 0.3527159 0.0000000
1.0000000 0.3488824 0.0000000
0.0000000 0.5227840 0.0000000
0.0654365 0.5189506 0.0000000
0.2054870 0.5147584 0.0000000
0.3536056 0.5103270 0.0000000
0.5057760 0.5057760 0.0000000
0.6579719 0.5012250 0.0000000
0.8061644 0.4967937 0.0000000
0.9463292 0.4926014 0.0000000
1.0000000 0.4887680 0.0000000
0.0000000 0.6626696 0.0000000
0.0483352 0.6588361 0.0000000
0.1885212 0.6546439 0.0000000
0.3367300 0.6502125 0.0000000
0.4889363 0.6456616 0.0000000
0.6411106 0.6411106 0.0000000
0.7892266 0.6366792 0.0000000
0.9292690 0.6324870 0.0000000
1.0000000 0.6286536 0.0000000
0.0000000 0.7988793 0.0000000
0.0320539 0.7950459 0.0000000
0.1723312 0.7908536 0.0000000
0.3205847 0.7864223 0.0000000
0.4727816 0.7818713 0.0000000
0.6248904 0.7773203 0.0000000
0.7728890 0.7728890 0.0000000
0.9127712 0.7686967 0.0000000
1.0000000 0.7648633 0.0000000
0.0000000 0.9277374 0.0000000
0.0172752 0.9239039 0.0000000
0.1576017 0.9197117 0.0000000
0.3058583 0.9152804 0.0000000
0.4580061 0.9107294 0.0000000
0.6100129 0.9061784 0.0000000
0.7578610 0.9017470 0.0000000
0.8975548 0.8975548 0.0000000
1.0000000 0.8937214 0.0000000
0.0000000 1.0000000 0.0000000
0.0045232 1.0000000 0.0000000
0.1448632 1.0000000 0.0000000
0.2930893 1.0000000 0.0000000
0.4451580 1.0000000 0.0000000
0.5970372 1.0000000 0.0000000
0.7447145 1.0000000 0.0000000
0.8842044 1.0000000 0.0000000
1.0000000 1.0000000 0.0000000
0.0000000 0.0000000 0.1294585
0.1257537 0.0000000 0.1257212
0.2649610 0.0000000 0.1216287
0.4123814 0.0000000 0.1172965
0.5640413 0.0000000 0.1128406
0.7159359 0.0000000 0.1083780
0.8640361 0.0000000 0.1040262
1.0000000 0.0000000 0.0999033
1.0000000 0.0000000 0.0961283
0.0000000 0.1165288 0.1165288
0.1126953 0.1126953 0.1126953
0.2521480 0.1085031 0.1085031
0.3997830 0.1040717 0.1040717
0.5516156 0.0995208 0.0995208
0.7036344 0.0949698 0.0949698
0.8518090 0.0905384 0.0905384
0.9920972 0.0863462 0.0863462
1.0000000 0.0825128 0.0825128
0.0000000 0.2453868 0.1017599
0.0976746 0.2415534 0.0978582
0.2373612 0.2373612 0.0935974
0.3851946 0.2329298 0.0891004
0.5371785 0.2283788 0.0844893
0.6892957 0.2238279 0.0798856
0.8375151 0.2193965 0.0754100
0.9777995 0.2152043 0.0711824
1.0000000 0.2113708 0.0673221
0.0000000 0.3815966 0.0856634
0.0812434 0.3777631 0.0817317
0.2211380 0.3735709 0.0774444
0.3691395 0.3691395 0.0729265
0.5212409 0.3645886 0.0683017
0.6734196 0.3600376 0.0636922
0.8216450 0.3556062 0.0592184
0.9618862 0.3514140 0.0549993
1.0000000 0.3475806 0.0511527
0.0000000 0.5214821 0.0688737
0.0641012 0.5176487 0.0649560
0.2041675 0.5134565 0.0606906
0.3522976 0.5090251 0.0562032
0.5044741 0.5044741 0.0516178
0.6566704 0.4999232 0.0470556
0.8048577 0.4954918 0.0426356
0.9450126 0.4912996 0.0384745
1.0000000 0.4874661 0.0346867
0.0000000 0.6613677 0.0520920
0.0470260 0.6575343 0.0482339
0.1872216 0.6533421 0.0440402
0.3354353 0.6489107 0.0396360
0.4876409 0.6443597 0.0351439
0.6398087 0.6398087 0.0306831
0.7879130 0.6353774 0.0263696
0.9279392 0.6311851 0.0223162
1.0000000 0.6273517 0.0186330
0.0000000 0.7975774 0.0360189
0.0307887 0.7937440 0.0322626
0.1710694 0.7895518 0.0281865
0.3193214 0.7851204 0.0239140
0.4715110 0.7805694 0.0195647
0.6236068 0.7760185 0.0152546
0.7715871 0.7715871 0.0110954
0.9114471 0.7673949 0.0071948
1.0000000 0.7635614 0.0036570
0.0000000 0.9264355 0.0212861
0.0160685 0.9226021 0.0176658
0.1563927 0.9184099 0.0137445
0.3046416 0.9139785 0.0096424
0.4567759 0.9094275 0.0054756
0.6087634 0.9048766 0.0013552
0.7565872 0.9004452 0.0000000
0.8962530 0.8962530 0.0000000
1.0000000 0.8924195 0.0000000
0.0000000 1.0000000 0.0084014
0.0033843 1.0000000 0.0049393
0.1437167 1.0000000 0.0011966
0.2919296 1.0000000 0.0000000
0.4439791 1.0000000 0.0000000
0.5958332 1.0000000 0.0000000
0.7434807 1.0000000 0.0000000
0.8829373 1.0000000 0.0000000
1.0000000 1.0000000 0.0000000
0.0000000 0.0000000 0.2711086
0.1243731 0.0000000 0.2674728
0.2636225 0.0000000 0.2634852
0.4110815 0.0000000 0.2592571
0.5627749 0.0000000 0.2549009
0.7146968 0.0000000 0.2505305
0.8628175 0.0000000 0.2462613
1.0000000 0.0000000 0.2422102
1.0000000 0.0000000 0.2384953
0.0000000 0.1151051 0.2584690
0.1112716 0.1112716 0.2547212
0.2507606 0.1070794 0.2506165
0.3984282 0.1026480 0.2462709
0.5502880 0.0980971 0.2418007
0.7023278 0.0935461 0.2373231
0.8505167 0.0891147 0.2329560
0.9908131 0.0849225 0.2288182
1.0000000 0.0810891 0.2250289
0.0000000 0.2439631 0.2439631
0.0962210 0.2401297 0.2401297
0.2359375 0.2359375 0.2359375
0.3837968 0.2315061 0.2315061
0.5358011 0.2269551 0.2269551
0.6879324 0.2224042 0.2224042
0.8361595 0.2179728 0.2179728
0.9764457 0.2137806 0.2137806
1.0000000 0.2099471 0.2099471
0.0000000 0.3801729 0.2280831
0.0797775 0.3763394 0.2242012
0.2196954 0.3721472 0.2199623
0.3677159 0.3677159 0.2154889
0.5198304 0.3631649 0.2109024
0.6720160 0.3586139 0.2063238
0.8202420 0.3541825 0.2018730
0.9604784 0.3499903 0.1976693
1.0000000 0.3461569 0.1938311
0.0000000 0.5200585 0.2114495
0.0626436 0.5162250 0.2075628
0.2027265 0.5120328 0.2033252
0.3508682 0.5076014 0.1988605
0.5030505 0.5030505 0.1942910
0.6552462 0.4984995 0.1897373
0.8034269 0.4940681 0.1853186
0.9435701 0.4898759 0.1811521
1.0000000 0.4860425 0.1773540
0.0000000 0.6599440 0.1947571
0.0455979 0.6561106 0.1909112
0.1858032 0.6519184 0.1867247
0.3340213 0.6474870 0.1823214
0.4862252 0.6429360 0.1778228
0.6383850 0.6383850 0.1733482
0.7864755 0.6339537 0.1690141
0.9264831 0.6297615 0.1649348
1.0000000 0.6259280 0.1612223
0.0000000 0.7961537 0.1787068
0.0294096 0.7923203 0.1749442
0.1696934 0.7881281 0.1708553
0.3179427 0.7836967 0.1665624
0.4701234 0.7791457 0.1621849
0.6222040 0.7745948 0.1578392
0.7701634 0.7701634 0.1536381
0.9099982 0.7659712 0.1496914
1.0000000 0.7621377 0.1461061
0.0000000 0.9250118 0.1639372
0.0147543 0.9211784 0.1602933
0.1550751 0.9169862 0.1563402
0.3033148 0.9125548 0.1521976
0.4554333 0.9080038 0.1479818
0.6073987 0.9034529 0.1438052
0.7551950 0.8990215 0.1397759
0.8948293 0.8948293 0.1359983
1.0000000 0.8909958 0.1325729
0.0000000 1.0000000 0.1509691
0.0021451 1.0000000 0.1474676
0.1424684 1.0000000 0.1436756
0.2906659 1.0000000 0.1397096
0.4426933 1.0000000 0.1356819
0.5945191 1.0000000 0.1317001
0.7421330 1.0000000 0.1278670
0.8815523 1.0000000 0.1242808
1.0000000 1.0000000 0.1210357
0.0000000 0.0000000 0.4209241
0.1229129 0.0000000 0.4173914
0.2622057 0.0000000 0.4135101
0.4097046 0.0000000 0.4093871
0.5614323 0.0000000 0.4051311
0.7133819 0.0000000 0.4008532
0.8615232 0.0000000 0.3966665
1.0000000 0.0000000 0.3926866
1.0000000 0.0000000 0.3890309
0.0000000 0.1136001 0.4085777
0.1097667 0.1097667 0.4049161
0.2492931 0.1055745 0.4008994
0.3969941 0.1011431 0.3966395
0.5488816 0.0965921 0.3922496
0.7009425 0.0920412 0.3878445
0.8491455 0.0876098 0.3835405
0.9894495 0.0834176 0.3794555
1.0000000 0.0795841 0.3757088
0.0000000 0.2424582 0.3943351
0.0946853 0.2386248 0.3905695
0.2344326 0.2344326 0.3864451
0.3823182 0.2300012 0.3820782
0.5343430 0.2254502 0.3775858
0.6864882 0.2208993 0.3730855
0.8347224 0.2164679 0.3686960
0.9750095 0.2122757 0.3645365
1.0000000 0.2084422 0.3607272
0.0000000 0.3786680 0.3786680
0.0782300 0.3748345 0.3748345
0.2181716 0.3706423 0.3706423
0.3662109 0.3662109 0.3662109
0.5183383 0.3616600 0.3616600
0.6705301 0.3571090 0.3571090
0.8187558 0.3526776 0.3526776
0.9589861 0.3484854 0.3484854
1.0000000 0.3446520 0.3446520
0.0000000 0.5185535 0.3621834
0.0611060 0.5147201 0.3583252
0.2012053 0.5105279 0.3541125
0.3493582 0.5060965 0.3496668
0.5015455 0.5015455 0.3451091
0.6537396 0.4969946 0.3405594
0.8019123 0.4925632 0.3361370
0.9420422 0.4883710 0.3319603
1.0000000 0.4845375 0.3281470
0.0000000 0.6584391 0.3455694
0.0440925 0.6546057 0.3417320
0.1843070 0.6504134 0.3375486
0.3325287 0.6459821 0.3331412
0.4847298 0.6414311 0.3286308
0.6368801 0.6368801 0.3241365
0.7849549 0.6324487 0.3197757
0.9249420 0.6282565 0.3156643
1.0000000 0.6244231 0.3119167
0.0000000 0.7946488 0.3295274
0.0279571 0.7908154 0.3257541
0.1682430 0.7866232 0.3216469
0.3164885 0.7821918 0.3173276
0.4686587 0.7776408 0.3129152
0.6207221 0.7730899 0.3085267
0.7686585 0.7686585 0.3042765
0.9084657 0.7644663 0.3002766
1.0000000 0.7606328 0.2966367
0.0000000 0.9235069 0.3147041
0.0133712 0.9196735 0.3110310
0.1536876 0.9154813 0.3070396
0.3019164 0.9110499 0.3028493
0.4540171 0.9064989 0.2985769
0.6059582 0.9019480 0.2943357
0.7537244 0.8975166 0.2902361
0.8933244 0.8933244 0.2863851
1.0000000 0.8894909 0.2828868
0.0000000 1.0000000 0.3016344
0.0008422 1.0000000 0.2980868
0.1411550 1.0000000 0.2942382
0.2893351 1.0000000 0.2902051
0.4413382 1.0000000 0.2861008
0.5931330 1.0000000 0.2820345
0.7407103 1.0000000 0.2781117
0.8800893 1.0000000 0.2744338
1.0000000 1.0000000 0.2710989
0.0000000 0.0000000 0.5748698
0.1214123 0.0000000 0.5714383
0.2607487 0.0000000 0.5676612
0.4082874 0.0000000 0.5636410
0.5600492 0.0000000 0.5594826
0.7120261 0.0000000 0.5552942
0.8601874 0.0000000 0.5511869
1.0000000 0.0000000 0.5472752
1.0000000 0.0000000 0.5436759
0.0000000 0.1120546 0.5628100
0.1082212 0.1082212 0.5592324
0.2477849 0.1040290 0.5553010
0.3955190 0.0995976 0.5511239
0.5474339 0.0950466 0.5468111
0.6995153 0.0904956 0.5424751
0.8477318 0.0860643 0.5382306
0.9880425 0.0818721 0.5341949
1.0000000 0.0780386 0.5304873
0.0000000 0.2409127 0.5488218
0.0931093 0.2370793 0.5451213
0.2328870 0.2328870 0.5410617
0.3807986 0.2284557 0.5367558
0.5328433 0.2239047 0.5323181
0.6850016 0.2193537 0.5278645
0.8332420 0.2149224 0.5235127
0.9735290 0.2107301 0.5193819
1.0000000 0.2068967 0.5155929
0.0000000 0.3771224 0.5333567
0.0766429 0.3732890 0.5295685
0.2166078 0.3690968 0.5254192
0.3646654 0.3646654 0.5210258
0.5168049 0.3601144 0.5165058
0.6690019 0.3555635 0.5119779
0.8172261 0.3511321 0.5075612
0.9574490 0.3469399 0.5033759
1.0000000 0.3431064 0.4995428
0.0000000 0.5170080 0.5170080
0.0595302 0.5131746 0.5131746
0.1996453 0.5089824 0.5089824
0.3478087 0.5045510 0.5045510
0.5000000 0.5000000 0.5000000
0.6521913 0.4954490 0.4954490
0.8003547 0.4910177 0.4910177
0.9404698 0.4868254 0.4868254
1.0000000 0.4829920 0.4829920
0.0000000 0.6568936 0.5004572
0.0425510 0.6530601 0.4966241
0.1827739 0.6488679 0.4924388
0.3309981 0.6444365 0.4880221
0.4831951 0.6398856 0.4834942
0.6353346 0.6353346 0.4789742
0.7833922 0.6309032 0.4745808
0.9233571 0.6267110 0.4704315
1.0000000 0.6228776 0.4666433
0.0000000 0.7931033 0.4844071
0.0264710 0.7892699 0.4806181
0.1667580 0.7850776 0.4764873
0.3149984 0.7806463 0.4721355
0.4671567 0.7760953 0.4676819
0.6192014 0.7715443 0.4632442
0.7671130 0.7671130 0.4589383
0.9068907 0.7629207 0.4548787
1.0000000 0.7590873 0.4511782
0.0000000 0.9219614 0.4695127
0.0119575 0.9181279 0.4658051
0.1522682 0.9139357 0.4617694
0.3004847 0.9095044 0.4575249
0.4525661 0.9049534 0.4531889
0.6044810 0.9004024 0.4488761
0.7522151 0.8959710 0.4446990
0.8917788 0.8917788 0.4407676
1.0000000 0.8879454 0.4371900
0.0000000 1.0000000 0.4563241
0.0000000 1.0000000 0.4527248
0.1398126 1.0000000 0.4488131
0.2879739 1.0000000 0.4447058
0.4399508 1.0000000 0.4405174
0.5917126 1.0000000 0.4363590
0.7392513 1.0000000 0.4323388
0.8785877 1.0000000 0.4285617
1.0000000 1.0000000 0.4251302
0.0000000 0.0000000 0.7289011
0.1199107 0.0000000 0.7255662
0.2592897 0.0000000 0.7218883
0.4068670 0.0000000 0.7179655
0.5586618 0.0000000 0.7138992
0.7106649 0.0000000 0.7097949
0.8588450 0.0000000 0.7057618
0.9991578 0.0000000 0.7019132
1.0000000 0.0000000 0.6983656
0.0000000 0.1105091 0.7171132
0.1066756 0.1066756 0.7136149
0.2462756 0.1024834 0.7097639
0.3940418 0.0980521 0.7056643
0.5459829 0.0935011 0.7014231
0.6980836 0.0889501 0.6971507
0.8463124 0.0845187 0.6929604
0.9866288 0.0803265 0.6889690
1.0000000 0.0764931 0.6852959
0.0000000 0.2393672 0.7033633
0.0915343 0.2355337 0.6997234
0.2313415 0.2313415 0.6957235
0.3792779 0.2269101 0.6914733
0.5313413 0.2223592 0.6870848
0.6835115 0.2178082 0.6826724
0.8317570 0.2133768 0.6783531
0.9720429 0.2091846 0.6742459
1.0000000 0.2053512 0.6704726
0.0000000 0.3755769 0.6880833
0.0750580 0.3717435 0.6843357
0.2150451 0.3675513 0.6802243
0.3631199 0.3631199 0.6758635
0.5152702 0.3585689 0.6713692
0.6674713 0.3540179 0.6668588
0.8156930 0.3495866 0.6624514
0.9559075 0.3453944 0.6582680
1.0000000 0.3415609 0.6544306
0.0000000 0.5154625 0.6718530
0.0579578 0.5116290 0.6680397
0.1980877 0.5074368 0.6638630
0.3462604 0.5030054 0.6594406
0.4984545 0.4984545 0.6548909
0.6506418 0.4939035 0.6503332
0.7987947 0.4894721 0.6458875
0.9388940 0.4852799 0.6416748
1.0000000 0.4814465 0.6378166
0.0000000 0.6553480 0.6553480
0.0410139 0.6515146 0.6515146
0.1812442 0.6473224 0.6473224
0.3294699 0.6428910 0.6428910
0.4816617 0.6383400 0.6383400
0.6337891 0.6337891 0.6337891
0.7818284 0.6293577 0.6293577
0.9217700 0.6251655 0.6251655
1.0000000 0.6213320 0.6213320
0.0000000 0.7915578 0.6392728
0.0249905 0.7877243 0.6354635
0.1652776 0.7835321 0.6313040
0.3135118 0.7791007 0.6269145
0.4656570 0.7745498 0.6224142
0.6176818 0.7699988 0.6179218
0.7655674 0.7655674 0.6135549
0.9053147 0.7613752 0.6094305
1.0000000 0.7575418 0.6056649
0.0000000 0.9204159 0.6242912
0.0105505 0.9165824 0.6205445
0.1508545 0.9123902 0.6164595
0.2990575 0.9079588 0.6121555
0.4511184 0.9034079 0.6077504
0.6030059 0.8988569 0.6033605
0.7507069 0.8944255 0.5991006
0.8902333 0.8902333 0.5950839
1.0000000 0.8863999 0.5914223
0.0000000 1.0000000 0.6109691
0.0000000 1.0000000 0.6073134
0.1384768 1.0000000 0.6033335
0.2866181 1.0000000 0.5991468
0.4385677 1.0000000 0.5948689
0.5902954 1.0000000 0.5906129
0.7377943 1.0000000 0.5864899
0.8770871 1.0000000 0.5826086
1.0000000 1.0000000 0.5790759
0.0000000 0.0000000 0.8789643
0.1184477 0.0000000 0.8757192
0.2578670 0.0000000 0.8721330
0.4054809 0.0000000 0.8682999
0.5573067 0.0000000 0.8643181
0.7093341 0.0000000 0.8602904
0.8575316 0.0000000 0.8563244
0.9978549 0.0000000 0.8525324
1.0000000 0.0000000 0.8490309
0.0000000 0.1090042 0.8674271
0.1051707 0.1051707 0.8640017
0.2448050 0.1009785 0.8602241
0.3926013 0.0965471 0.8561948
0.5445667 0.0919962 0.8520182
0.6966852 0.0874452 0.8478024
0.8449249 0.0830138 0.8436598
0.9852457 0.0788216 0.8397067
1.0000000 0.0749882 0.8360628
0.0000000 0.2378622 0.8538939
0.0900018 0.2340288 0.8503086
0.2298366 0.2298366 0.8463619
0.3777960 0.2254052 0.8421608
0.5298766 0.2208543 0.8378151
0.6820573 0.2163033 0.8334376
0.8303066 0.2118719 0.8291447
0.9705904 0.2076797 0.8250558
1.0000000 0.2038463 0.8212932
0.0000000 0.3740720 0.8387777
0.0735169 0.3702385 0.8350652
0.2135245 0.3660463 0.8309859
0.3616150 0.3616150 0.8266518
0.5137748 0.3570640 0.8221772
0.6659787 0.3525130 0.8176786
0.8141968 0.3480816 0.8132753
0.9544021 0.3438894 0.8090888
1.0000000 0.3400560 0.8052429
0.0000000 0.5139575 0.8226460
0.0564299 0.5101241 0.8188479
0.1965731 0.5059319 0.8146814
0.3447538 0.5015005 0.8102627
0.4969496 0.4969496 0.8057090
0.6491318 0.4923986 0.8011395
0.7972735 0.4879672 0.7966748
0.9373564 0.4837750 0.7924372
1.0000000 0.4799415 0.7885505
0.0000000 0.6538431 0.8061689
0.0395216 0.6500097 0.8023307
0.1797580 0.6458175 0.7981270
0.3279840 0.6413861 0.7936762
0.4801696 0.6368351 0.7890976
0.6322841 0.6322841 0.7845111
0.7803046 0.6278528 0.7800377
0.9202225 0.6236606 0.7757988
1.0000000 0.6198271 0.7719169
0.0000000 0.7900528 0.7900528
0.0235543 0.7862194 0.7862194
0.1638405 0.7820272 0.7820272
0.3120676 0.7775958 0.7775958
0.4641989 0.7730449 0.7730449
0.6162032 0.7684939 0.7684939
0.7640625 0.7640625 0.7640625
0.9037790 0.7598703 0.7598703
1.0000000 0.7560368 0.7560368
0.0000000 0.9189109 0.7749711
0.0091869 0.9150775 0.7711818
0.1494833 0.9108853 0.7670440
0.2976722 0.9064539 0.7626769
0.4497120 0.9019029 0.7581993
0.6015718 0.8973520 0.7537291
0.7492394 0.8929206 0.7493835
0.8887284 0.8887284 0.7452788
1.0000000 0.8848949 0.7415310
0.0000000 1.0000000 0.7615047
0.0000000 1.0000000 0.7577898
0.1371825 1.0000000 0.7537387
0.2853032 1.0000000 0.7494695
0.4372251 1.0000000 0.7450991
0.5889185 1.0000000 0.7407429
0.7363775 1.0000000 0.7365148
0.8756269 1.0000000 0.7325272
1.0000000 1.0000000 0.7288914
0.0000000 0.0000000 1.0000000
0.1170627 0.0000000 1.0000000
0.2565193 0.0000000 1.0000000
0.4041668 0.0000000 1.0000000
0.5560209 0.0000000 1.0000000
0.7080704 0.0000000 1.0000000
0.8562833 0.0000000 0.9988034
0.9966157 0.0000000 0.9950607
1.0000000 0.0000000 0.9915986
0.0000000 0.1075805 1.0000000
0.1037470 0.1037470 1.0000000
0.2434128 0.0995548 1.0000000
0.3912366 0.0951234 0.9986448
0.5432241 0.0905725 0.9945244
0.6953584 0.0860215 0.9903576
0.8436073 0.0815901 0.9862555
0.9839315 0.0773979 0.9823342
1.0000000 0.0735645 0.9787139
0.0000000 0.2364386 0.9963430
0.0885529 0.2326051 0.9928052
0.2284129 0.2284129 0.9889046
0.3763932 0.2239815 0.9847454
0.5284890 0.2194306 0.9804353
0.6806786 0.2148796 0.9760860
0.8289306 0.2104482 0.9718135
0.9692113 0.2062560 0.9677374
1.0000000 0.2024226 0.9639811
0.0000000 0.3726483 0.9813670
0.0720608 0.3688148 0.9776838
0.2120870 0.3646226 0.9736304
0.3601913 0.3601913 0.9693169
0.5123591 0.3556403 0.9648561
0.6645647 0.3510893 0.9603640
0.8127784 0.3466579 0.9559598
0.9529740 0.3424657 0.9517661
1.0000000 0.3386323 0.9479080
0.0000000 0.5125339 0.9653133
0.0549874 0.5087004 0.9615255
0.1951423 0.5045082 0.9573644
0.3433296 0.5000768 0.9529444
0.4955259 0.4955259 0.9483822
0.6477024 0.4909749 0.9437968
0.7958325 0.4865435 0.9393094
0.9358988 0.4823513 0.9350440
1.0000000 0.4785179 0.9311263
0.0000000 0.6524194 0.9488473
0.0381138 0.6485860 0.9450007
0.1783550 0.6443938 0.9407816
0.3265804 0.6399624 0.9363078
0.4787591 0.6354114 0.9316983
0.6308605 0.6308605 0.9270735
0.7788620 0.6264291 0.9225556
0.9187566 0.6222369 0.9182683
1.0000000 0.6184034 0.9143366
0.0000000 0.7886292 0.9326779
0.0222005 0.7847957 0.9288176
0.1624849 0.7806035 0.9245900
0.3107043 0.7761721 0.9201144
0.4628215 0.7716212 0.9155107
0.6148054 0.7670702 0.9108996
0.7626388 0.7626388 0.9064026
0.9023254 0.7584466 0.9021418
1.0000000 0.7546132 0.8982401
0.0000000 0.9174872 0.9174872
0.0079028 0.9136538 0.9136538
0.1481910 0.9094616 0.9094616
0.2963656 0.9050302 0.9050302
0.4483844 0.9004792 0.9004792
0.6002170 0.8959283 0.8959283
0.7478520 0.8914969 0.8914969
0.8873047 0.8873047 0.8873047
1.0000000 0.8834712 0.8834712
0.0000000 1.0000000 0.9038717
0.0000000 1.0000000 0.9000967
0.1359639 1.0000000 0.8959738
0.2840641 1.0000000 0.8916220
0.4359587 1.0000000 0.8871594
0.5876186 1.0000000 0.8827035
0.7350390 1.0000000 0.8783713
0.8742463 1.0000000 0.8742788
1.0000000 1.0000000 0.8705415
0.0000000 0.0000000 1.0000000
0.1157956 0.0000000 1.0000000
0.2552855 0.0000000 1.0000000
0.4029628 0.0000000 1.0000000
0.5548420 0.0000000 1.0000000
0.7069107 0.0000000 1.0000000
0.8551368 0.0000000 1.0000000
0.9954768 0.0000000 1.0000000
1.0000000 0.0000000 1.0000000
0.0000000 0.1062786 1.0000000
0.1024452 0.1024452 1.0000000
0.2421390 0.0982530 1.0000000
0.3899871 0.0938216 1.0000000
0.5419939 0.0892706 1.0000000
0.6941417 0.0847196 1.0000000
0.8423983 0.0802883 1.0000000
0.9827248 0.0760961 1.0000000
1.0000000 0.0722626 1.0000000
0.0000000 0.2351367 1.0000000
0.0872288 0.2313033 1.0000000
0.2271111 0.2271111 1.0000000
0.3751096 0.2226797 1.0000000
0.5272184 0.2181287 1.0000000
0.6794153 0.2135777 1.0000000
0.8276688 0.2091464 1.0000000
0.9679461 0.2049541 1.0000000
1.0000000 0.2011207 1.0000000
0.0000000 0.3713464 1.0000000
0.0707310 0.3675130 1.0000000
0.2107734 0.3633208 1.0000000
0.3588894 0.3588894 1.0000000
0.5110637 0.3543384 1.0000000
0.6632700 0.3497875 1.0000000
0.8114788 0.3453561 1.0000000
0.9516648 0.3411639 1.0000000
1.0000000 0.3373304 1.0000000
0.0000000 0.5112320 1.0000000
0.0536708 0.5073986 1.0000000
0.1938356 0.5032064 1.0000000
0.3420281 0.4987750 1.0000000
0.4942240 0.4942240 1.0000000
0.6463944 0.4896730 1.0000000
0.7945130 0.4852417 1.0000000
0.9345635 0.4810494 1.0000000
1.0000000 0.4772160 1.0000000
0.0000000 0.6511176 1.0000000
0.0368298 0.6472841 1.0000000
0.1770747 0.6430919 1.0000000
0.3252986 0.6386605 1.0000000
0.4774701 0.6341096 1.0000000
0.6295586 0.6295586 1.0000000
0.7775421 0.6251272 1.0000000
0.9174146 0.6209350 1.0000000
1.0000000 0.6171016 1.0000000
0.0000000 0.7873273 1.0000000
0.0209668 0.7834939 1.0000000
0.1612488 0.7793016 1.0000000
0.3094603 0.7748703 1.0000000
0.4615637 0.7703193 1.0000000
0.6135281 0.7657683 1.0000000
0.7613370 0.7613370 1.0000000
0.9009953 0.7571447 1.0000000
1.0000000 0.7533113 1.0000000
0.0000000 0.9161854 1.0000000
0.0067335 0.9123519 1.0000000
0.1470136 0.9081597 1.0000000
0.2951741 0.9037284 1.0000000
0.4471729 0.8991774 1.0000000
0.5989797 0.8946264 1.0000000
0.7465841 0.8901950 1.0000000
0.8860028 0.8860028 1.0000000
1.0000000 0.8821694 1.0000000
0.0000000 1.0000000 1.0000000
0.0000000 1.0000000 1.0000000
0.1348544 1.0000000 1.0000000
0.2829351 1.0000000 1.0000000
0.4348040 1.0000000 1.0000000
0.5864324 1.0000000 1.0000000
0.7338166 1.0000000 1.0000000
0.8729846 1.0000000 1.0000000
1.0000000 1.0000000 1.0000000
