assets/luts/kodak/UVSR_Kodak_2383_Print.cube
TITLE "Kodak 2383 Print (UVSR)"
LUT_3D_SIZE 9
DOMAIN_MIN 0.0 0.0 0.0
DOMAIN_MAX 1.0 1.0 1.0
0.0000000 0.0000000 0.0060000
0.1085830 0.0000000 0.0040349
0.2383258 0.0000000 0.0017653
0.3795117 0.0000000 0.0000000
0.5264231 0.0000000 0.0000000
0.6733414 0.0000000 0.0000000
0.8145470 0.0000000 0.0000000
0.9443193 0.0000000 0.0000000
1.0000000 0.0000000 0.0000000
0.0000000 0.1084113 0.0000000
0.1035341 0.1067269 0.0000000
0.2332927 0.1047884 0.0000000
0.3744957 0.1026820 0.0000000
0.5214250 0.1004937 0.0000000
0.6683612 0.0983089 0.0000000
0.8095840 0.0962124 0.0000000
0.9393720 0.0942885 0.0000000
1.0000000 0.0926213 0.0000000
0.0000000 0.2333703 0.0000000
0.0977729 0.2316938 0.0000000
0.2275497 0.2297643 0.0000000
0.3687726 0.2276679 0.0000000
0.5157224 0.2254899 0.0000000
0.6626792 0.2233154 0.0000000
0.8039218 0.2212288 0.0000000
0.9337281 0.2193140 0.0000000
1.0000000 0.2176546 0.0000000
0.0000000 0.3693793 0.0000000
0.0915735 0.3677114 0.0000000
0.2213701 0.3657918 0.0000000
0.3626145 0.3637061 0.0000000
0.5095868 0.3615393 0.0000000
0.6565660 0.3593760 0.0000000
0.7978301 0.3573002 0.0000000
0.9276561 0.3553953 0.0000000
1.0000000 0.3537446 0.0000000
0.0000000 0.5109358 0.0000000
0.0851999 0.5092768 0.0000000
0.2150171 0.5073675 0.0000000
0.3562839 0.5052930 0.0000000
0.5032795 0.5031379 0.0000000
0.6502821 0.5009863 0.0000000
0.7915686 0.4989216 0.0000000
0.9214152 0.4970271 0.0000000
1.0000000 0.4953853 0.0000000
0.0000000 0.6525315 0.0000000
0.0789048 0.6508814 0.0000000
0.2087426 0.6489824 0.0000000
0.3500318 0.6469192 0.0000000
0.4970507 0.6447757 0.0000000
0.6440766 0.6426357 0.0000000
0.7853856 0.6405823 0.0000000
0.9152528 0.6386981 0.0000000
1.0000000 0.6370652 0.0000000
0.0000000 0.7886521 0.0000000
0.0729286 0.7870106 0.0000000
0.2027862 0.7851216 0.0000000
0.3440970 0.7830691 0.0000000
0.4911384 0.7809368 0.0000000
0.6381866 0.7788080 0.0000000
0.7795172 0.7767654 0.0000000
0.9094042 0.7748911 0.0000000
1.0000000 0.7732668 0.0000000
0.0000000 0.9137776 0.0000000
0.0675005 0.9121440 0.0000000
0.1973763 0.9102641 0.0000000
0.3387069 0.9082215 0.0000000
0.4857689 0.9060995 0.0000000
0.6328377 0.9039810 0.0000000
0.7741881 0.9019483 0.0000000
0.9040933 0.9000831 0.0000000
1.0000000 0.8984666 0.0000000
0.0000000 1.0000000 0.0000000
0.0628398 1.0000000 0.0000000
0.1927314 1.0000000 0.0000000
0.3340791 1.0000000 0.0000000
0.4811589 1.0000000 0.0000000
0.6282457 1.0000000 0.0000000
0.7696132 1.0000000 0.0000000
0.8995342 1.0000000 0.0000000
1.0000000 1.0000000 0.0000000
0.0000000 0.0000000 0.1194259
0.1080712 0.0000000 0.1174594
0.2378156 0.0000000 0.1151882
0.3790033 0.0000000 0.1127107
0.5259164 0.0000000 0.1101261
0.6728366 0.0000000 0.1075345
0.8140439 0.0000000 0.1050372
0.9438177 0.0000000 0.1027366
1.0000000 0.0000000 0.1007358
0.0000000 0.1078391 0.1127943
0.1030269 0.1061553 0.1108142
0.2327871 0.1042176 0.1085272
0.3739919 0.1021121 0.1060325
0.5209230 0.0999247 0.1034300
0.6678610 0.0977408 0.1008205
0.8090855 0.0956452 0.0983061
0.9388751 0.0937221 0.0959897
1.0000000 0.0920555 0.0939752
0.0000000 0.2328007 0.1050952
0.0972712 0.2311249 0.1030992
0.2270495 0.2291962 0.1007940
0.3682741 0.2271006 0.0982796
0.5152258 0.2249236 0.0956564
0.6621844 0.2227499 0.0930263
0.8034287 0.2206642 0.0904921
0.9332365 0.2187503 0.0881575
1.0000000 0.2170916 0.0861273
0.0000000 0.3688126 0.0966478
0.0910776 0.3671454 0.0946346
0.2208757 0.3652266 0.0923097
0.3621219 0.3631418 0.0897736
0.5090960 0.3609759 0.0871281
0.6560770 0.3588135 0.0844756
0.7973429 0.3567385 0.0819198
0.9271705 0.3548345 0.0795654
1.0000000 0.3531844 0.0775180
0.0000000 0.5103721 0.0877812
0.0847100 0.5087138 0.0857502
0.2145288 0.5068054 0.0834047
0.3557974 0.5047317 0.0808462
0.5027948 0.5025775 0.0781773
0.6497991 0.5004268 0.0755015
0.7910874 0.4983630 0.0729233
0.9209356 0.4964693 0.0705483
1.0000000 0.4948281 0.0684830
0.0000000 0.6519709 0.0788363
0.0784210 0.6503215 0.0767874
0.2082604 0.6484233 0.0744212
0.3495513 0.6463609 0.0718403
0.4965721 0.6442184 0.0691481
0.6435997 0.6420793 0.0664490
0.7849104 0.6400268 0.0638484
0.9147793 0.6381433 0.0614528
1.0000000 0.6365111 0.0593696
0.0000000 0.7880944 0.0701655
0.0724507 0.7864536 0.0680995
0.2023099 0.7845654 0.0657135
0.3436224 0.7825137 0.0631111
0.4906655 0.7803824 0.0603965
0.6377156 0.7782545 0.0576749
0.7790479 0.7762128 0.0550528
0.9089365 0.7743392 0.0526374
1.0000000 0.7727156 0.0505370
0.0000000 0.9132226 0.0621333
0.0670279 0.9115897 0.0600515
0.1969053 0.9097105 0.0576473
0.3382376 0.9076688 0.0550251
0.4853014 0.9055478 0.0522899
0.6323721 0.9034302 0.0495477
0.7737241 0.9013983 0.0469058
0.9036309 0.8995339 0.0444722
1.0000000 0.8979182 0.0423560
0.0000000 1.0000000 0.0551136
0.0623718 1.0000000 0.0530180
0.1922650 1.0000000 0.0505981
0.3336145 1.0000000 0.0479587
0.4806961 1.0000000 0.0452056
0.6277847 1.0000000 0.0424455
0.7691539 1.0000000 0.0397864
0.8990765 1.0000000 0.0373370
1.0000000 1.0000000 0.0352071
0.0000000 0.0000000 0.2501343
0.1074821 0.0000000 0.2481662
0.2372283 0.0000000 0.2458932
0.3784179 0.0000000 0.2434137
0.5253332 0.0000000 0.2408270
0.6722554 0.0000000 0.2382333
0.8134647 0.0000000 0.2357341
0.9432404 0.0000000 0.2334316
1.0000000 0.0000000 0.2314293
0.0000000 0.1071799 0.2434974
0.1024431 0.1054970 0.2415156
0.2322051 0.1035601 0.2392269
0.3734119 0.1014556 0.2367302
0.5203451 0.0992693 0.2341255
0.6672851 0.0970864 0.2315140
0.8085117 0.0949918 0.2289976
0.9383031 0.0930696 0.2266793
1.0000000 0.0914039 0.2246633
0.0000000 0.2321446 0.2357921
0.0966935 0.2304696 0.2337945
0.2264737 0.2285419 0.2314875
0.3677003 0.2264473 0.2289710
0.5146541 0.2242712 0.2263458
0.6616148 0.2220986 0.2237136
0.8028611 0.2200139 0.2211774
0.9326707 0.2181009 0.2188410
1.0000000 0.2164430 0.2168091
0.0000000 0.3681599 0.2273379
0.0905066 0.3664935 0.2253232
0.2203067 0.3645756 0.2229964
0.3615548 0.3624918 0.2204584
0.5085310 0.3603270 0.2178107
0.6555141 0.3581656 0.2151561
0.7967819 0.3560916 0.2125984
0.9266114 0.3541885 0.2102422
1.0000000 0.3525392 0.2081931
0.0000000 0.5097229 0.2184644
0.0841461 0.5080654 0.2164318
0.2139667 0.5061579 0.2140844
0.3552373 0.5040852 0.2115240
0.5022368 0.5019321 0.2088530
0.6492432 0.4997824 0.2061751
0.7905335 0.4977196 0.2035949
0.9203835 0.4958268 0.2012181
1.0000000 0.4941864 0.1991512
0.0000000 0.6513251 0.2095124
0.0778640 0.6496766 0.2074620
0.2077053 0.6477793 0.2050940
0.3489982 0.6457179 0.2025111
0.4960210 0.6435764 0.1998168
0.6430508 0.6414384 0.1971156
0.7843635 0.6393868 0.1945130
0.9142342 0.6375043 0.1921155
1.0000000 0.6358729 0.1900307
0.0000000 0.7874520 0.2008350
0.0719005 0.7858121 0.1987673
0.2017615 0.7839247 0.1963795
0.3430760 0.7818741 0.1937751
0.4901212 0.7797438 0.1910584
0.6371734 0.7776170 0.1883348
0.7785077 0.7755762 0.1857106
0.9083981 0.7737036 0.1832934
1.0000000 0.7720807 0.1811914
0.0000000 0.9125833 0.1927966
0.0664839 0.9109512 0.1907132
0.1963631 0.9090730 0.1883072
0.3376974 0.9070323 0.1856829
0.4847633 0.9049123 0.1829456
0.6318360 0.9027957 0.1802014
0.7731901 0.9007649 0.1775574
0.9030987 0.8989013 0.1751220
1.0000000 0.8972864 0.1730043
0.0000000 1.0000000 0.1857715
0.0618332 1.0000000 0.1836743
0.1917282 1.0000000 0.1812526
0.3330797 1.0000000 0.1786112
0.4801634 1.0000000 0.1758560
0.6272540 1.0000000 0.1730939
0.7686253 1.0000000 0.1704327
0.8985497 1.0000000 0.1679815
1.0000000 1.0000000 0.1658500
0.0000000 0.0000000 0.3923641
0.1068416 0.0000000 0.3903943
0.2365899 0.0000000 0.3881193
0.3777817 0.0000000 0.3856376
0.5246992 0.0000000 0.3830486
0.6716237 0.0000000 0.3804527
0.8128352 0.0000000 0.3779512
0.9426128 0.0000000 0.3756468
1.0000000 0.0000000 0.3736427
0.0000000 0.1064630 0.3857214
0.1018085 0.1047809 0.3837379
0.2315725 0.1028451 0.3814471
0.3727815 0.1007417 0.3789482
0.5197169 0.0985564 0.3763413
0.6666593 0.0963747 0.3737275
0.8078880 0.0942812 0.3712089
0.9376814 0.0923600 0.3688887
1.0000000 0.0906951 0.3668709
0.0000000 0.2314311 0.3780093
0.0960657 0.2297569 0.3760100
0.2258479 0.2278302 0.3737010
0.3670766 0.2257367 0.3711823
0.5140327 0.2235617 0.3685548
0.6609956 0.2213903 0.3659204
0.8022441 0.2193067 0.3633820
0.9320557 0.2173946 0.3610436
1.0000000 0.2157376 0.3590100
0.0000000 0.3674500 0.3695478
0.0898861 0.3657844 0.3675314
0.2196881 0.3638676 0.3652026
0.3609384 0.3617848 0.3626624
0.5079169 0.3596211 0.3600125
0.6549022 0.3574609 0.3573556
0.7961723 0.3553880 0.3547957
0.9260037 0.3534859 0.3524375
1.0000000 0.3518375 0.3503867
0.0000000 0.5090168 0.3606667
0.0835332 0.5073602 0.3586324
0.2133558 0.5054536 0.3562830
0.3546285 0.5033821 0.3537203
0.5016303 0.5012301 0.3510471
0.6486390 0.4990815 0.3483670
0.7899314 0.4970198 0.3457846
0.9197835 0.4951280 0.3434058
1.0000000 0.4934885 0.3413371
0.0000000 0.6506228 0.3517071
0.0772587 0.6489751 0.3496549
0.2071019 0.6470789 0.3472849
0.3483971 0.6450186 0.3446999
0.4954222 0.6428782 0.3420033
0.6424542 0.6407413 0.3392998
0.7837691 0.6386908 0.3366950
0.9136417 0.6368093 0.3342956
1.0000000 0.6351788 0.3322091
0.0000000 0.7867534 0.3430224
0.0713025 0.7851143 0.3409530
0.2011655 0.7832280 0.3385632
0.3424822 0.7811784 0.3359566
0.4895297 0.7790492 0.3332376
0.6365841 0.7769235 0.3305117
0.7779205 0.7748839 0.3278854
0.9078130 0.7730122 0.3254662
1.0000000 0.7713903 0.3233624
0.0000000 0.9118880 0.3349773
0.0658926 0.9102568 0.3328921
0.1957738 0.9083796 0.3304841
0.3371103 0.9063399 0.3278577
0.4841784 0.9042211 0.3251181
0.6312535 0.9021057 0.3223716
0.7726097 0.9000759 0.3197255
0.9025203 0.8982134 0.3172881
1.0000000 0.8965993 0.3151686
0.0000000 1.0000000 0.3279463
0.0612477 1.0000000 0.3258474
0.1911447 1.0000000 0.3234236
0.3324984 1.0000000 0.3207801
0.4795844 1.0000000 0.3180226
0.6266773 1.0000000 0.3152582
0.7680507 1.0000000 0.3125949
0.8979771 1.0000000 0.3101417
1.0000000 1.0000000 0.3080085
0.0000000 0.0000000 0.5403541
0.1061761 0.0000000 0.5383825
0.2359264 0.0000000 0.5361054
0.3771204 0.0000000 0.5336215
0.5240403 0.0000000 0.5310301
0.6709671 0.0000000 0.5284318
0.8121809 0.0000000 0.5259281
0.9419607 0.0000000 0.5236216
1.0000000 0.0000000 0.5216157
0.0000000 0.1057174 0.5337053
0.1011490 0.1040362 0.5317200
0.2309151 0.1021014 0.5294271
0.3721264 0.0999992 0.5269260
0.5190641 0.0978151 0.5243167
0.6660088 0.0956346 0.5217006
0.8072398 0.0935421 0.5191797
0.9370353 0.0916221 0.5168574
1.0000000 0.0899580 0.5148378
0.0000000 0.2306890 0.5259862
0.0954131 0.2290157 0.5239851
0.2251974 0.2270900 0.5216740
0.3664285 0.2249977 0.5191531
0.5133868 0.2228239 0.5165233
0.6603521 0.2206537 0.5138865
0.8016029 0.2185711 0.5113458
0.9314166 0.2166602 0.5090053
1.0000000 0.2150040 0.5069699
0.0000000 0.3667117 0.5175171
0.0892412 0.3650471 0.5154989
0.2190453 0.3631313 0.5131680
0.3602979 0.3610496 0.5106255
0.5072787 0.3588871 0.5079733
0.6542664 0.3567281 0.5053141
0.7955387 0.3546563 0.5027519
0.9253722 0.3527552 0.5003916
1.0000000 0.3511077 0.4983390
0.0000000 0.5082825 0.5086281
0.0828962 0.5066268 0.5065919
0.2127209 0.5047213 0.5042405
0.3539959 0.5026509 0.5016756
0.5010000 0.5005000 0.4990000
0.6480110 0.4983526 0.4963175
0.7893058 0.4962921 0.4937329
0.9191599 0.4944013 0.4913520
1.0000000 0.4927627 0.4892815
0.0000000 0.6498925 0.4996606
0.0766297 0.6482457 0.4976066
0.2064750 0.6463505 0.4952345
0.3477724 0.6442913 0.4926472
0.4947998 0.6421521 0.4899483
0.6418342 0.6400164 0.4872424
0.7831513 0.6379671 0.4846354
0.9130261 0.6360866 0.4822339
1.0000000 0.6344569 0.4801455
0.0000000 0.7860269 0.4909682
0.0706810 0.7843887 0.4888970
0.2005461 0.7825034 0.4865051
0.3418651 0.7804550 0.4838963
0.4889149 0.7783270 0.4811750
0.6359717 0.7762024 0.4784467
0.7773104 0.7741639 0.4758181
0.9072049 0.7722933 0.4733968
1.0000000 0.7706722 0.4712913
0.0000000 0.9111650 0.4829161
0.0652782 0.9095347 0.4808291
0.1951615 0.9076585 0.4784190
0.3365002 0.9056200 0.4757904
0.4835707 0.9035023 0.4730485
0.6306481 0.9013881 0.4702996
0.7720066 0.8993594 0.4676512
0.9019193 0.8974979 0.4652117
1.0000000 0.8958848 0.4630904
0.0000000 1.0000000 0.4758791
0.0606394 1.0000000 0.4737784
0.1905384 1.0000000 0.4713525
0.3318944 1.0000000 0.4687067
0.4789827 1.0000000 0.4659469
0.6260780 1.0000000 0.4631801
0.7674536 1.0000000 0.4605146
0.8973822 1.0000000 0.4580593
1.0000000 1.0000000 0.4559243
0.0000000 0.0000000 0.6883433
0.1055113 0.0000000 0.6863699
0.2352637 0.0000000 0.6840907
0.3764600 0.0000000 0.6816045
0.5233822 0.0000000 0.6790108
0.6703114 0.0000000 0.6764101
0.8115275 0.0000000 0.6739042
0.9413093 0.0000000 0.6715956
1.0000000 0.0000000 0.6695879
0.0000000 0.1049722 0.6816884
0.1004903 0.1032920 0.6797013
0.2302585 0.1013582 0.6774063
0.3714720 0.0992571 0.6749029
0.5184121 0.0970742 0.6722913
0.6653592 0.0948948 0.6696728
0.8065924 0.0928035 0.6671497
0.9363900 0.0908845 0.6648253
1.0000000 0.0892214 0.6628039
0.0000000 0.2299473 0.6739623
0.0947614 0.2282750 0.6719594
0.2245478 0.2263503 0.6696463
0.3657811 0.2242591 0.6671231
0.5127418 0.2220865 0.6644909
0.6597095 0.2199174 0.6618518
0.8009625 0.2178360 0.6593088
0.9307783 0.2159261 0.6569663
1.0000000 0.2142709 0.6549291
0.0000000 0.3659739 0.6654857
0.0885971 0.3643101 0.6634656
0.2184033 0.3623953 0.6611326
0.3596581 0.3603149 0.6585879
0.5066413 0.3581535 0.6559333
0.6536313 0.3559956 0.6532717
0.7949059 0.3539250 0.6507073
0.9247415 0.3520250 0.6483449
1.0000000 0.3503783 0.6462905
0.0000000 0.5075486 0.6565887
0.0822600 0.5058938 0.6545507
0.2120868 0.5039893 0.6521972
0.3533641 0.5019200 0.6496300
0.5003705 0.4997703 0.6469521
0.6473839 0.4976241 0.6442672
0.7886809 0.4955647 0.6416803
0.9185371 0.4936750 0.6392974
1.0000000 0.4920373 0.6372251
0.0000000 0.6491626 0.6476133
0.0760014 0.6475167 0.6455574
0.2058488 0.6456225 0.6431833
0.3471485 0.6435644 0.6405937
0.4941783 0.6414264 0.6378924
0.6412150 0.6392919 0.6351842
0.7825344 0.6372437 0.6325749
0.9124112 0.6353642 0.6301714
1.0000000 0.6337355 0.6280812
0.0000000 0.7853007 0.6389133
0.0700604 0.7836634 0.6368403
0.1999276 0.7817792 0.6344463
0.3412488 0.7797319 0.6318352
0.4883010 0.7776051 0.6291115
0.6353601 0.7754817 0.6263809
0.7767011 0.7734443 0.6237500
0.9065977 0.7715748 0.6213267
1.0000000 0.7699546 0.6192193
0.0000000 0.9104424 0.6308542
0.0646645 0.9088130 0.6287654
0.1945499 0.9069378 0.6263532
0.3358909 0.9049004 0.6237223
0.4829638 0.9027839 0.6209780
0.6300435 0.9006708 0.6182268
0.7714042 0.8986433 0.6155761
0.9013190 0.8967829 0.6131346
1.0000000 0.8951706 0.6110115
0.0000000 1.0000000 0.6238111
0.0600318 1.0000000 0.6217086
0.1899330 1.0000000 0.6192806
0.3312912 1.0000000 0.6166325
0.4783818 1.0000000 0.6138704
0.6254795 1.0000000 0.6111013
0.7668574 1.0000000 0.6084334
0.8967880 1.0000000 0.6059761
1.0000000 1.0000000 0.6038393
0.0000000 0.0000000 0.8305708
0.1048731 0.0000000 0.8285956
0.2346275 0.0000000 0.8263145
0.3758260 0.0000000 0.8238261
0.5227505 0.0000000 0.8212301
0.6696820 0.0000000 0.8186272
0.8109002 0.0000000 0.8161191
0.9406840 0.0000000 0.8138085
1.0000000 0.0000000 0.8117990
0.0000000 0.1042564 0.8239101
0.0998580 0.1025771 0.8219212
0.2296282 0.1006443 0.8196243
0.3708439 0.0985442 0.8171187
0.5177862 0.0963625 0.8145048
0.6647356 0.0941842 0.8118841
0.8059710 0.0920940 0.8093588
0.9357706 0.0901760 0.8070324
1.0000000 0.0885138 0.8050092
0.0000000 0.2292349 0.8161773
0.0941359 0.2275634 0.8141726
0.2239242 0.2256398 0.8118575
0.3651597 0.2235496 0.8093321
0.5121227 0.2213782 0.8066977
0.6590926 0.2192102 0.8040563
0.8003478 0.2171299 0.8015112
0.9301656 0.2152210 0.7991666
1.0000000 0.2135666 0.7971277
0.0000000 0.3652651 0.8076933
0.0879788 0.3636022 0.8056715
0.2177870 0.3616884 0.8033365
0.3590440 0.3596090 0.8007896
0.5060294 0.3574488 0.7981327
0.6530218 0.3552921 0.7954689
0.7942985 0.3532225 0.7929023
0.9241361 0.3513235 0.7905379
1.0000000 0.3496777 0.7884818
0.0000000 0.5068436 0.7987887
0.0816494 0.5051897 0.7967490
0.2114782 0.5032862 0.7943935
0.3527576 0.5012180 0.7918241
0.4997663 0.4990695 0.7891439
0.6467820 0.4969244 0.7864568
0.7880811 0.4948661 0.7838677
0.9179393 0.4929773 0.7814828
1.0000000 0.4913405 0.7794088
0.0000000 0.6484614 0.7898057
0.0753984 0.6468164 0.7877481
0.2052478 0.6449232 0.7853719
0.3465496 0.6428662 0.7827802
0.4935817 0.6407294 0.7800767
0.6406206 0.6385959 0.7773662
0.7819422 0.6365488 0.7747547
0.9118210 0.6346704 0.7723491
1.0000000 0.6330425 0.7702573
0.0000000 0.7846032 0.7810984
0.0694647 0.7829668 0.7790236
0.1993338 0.7810835 0.7766277
0.3406572 0.7790373 0.7740144
0.4877117 0.7769117 0.7712884
0.6347731 0.7747895 0.7685555
0.7761162 0.7727531 0.7659225
0.9060148 0.7708846 0.7634971
1.0000000 0.7692653 0.7613881
0.0000000 0.9097482 0.7730325
0.0640755 0.9081197 0.7709420
0.1939629 0.9062455 0.7685278
0.3353061 0.9042092 0.7658947
0.4823812 0.9020938 0.7631482
0.6294632 0.8999819 0.7603947
0.7708261 0.8979555 0.7577419
0.9007429 0.8960960 0.7552983
1.0000000 0.8944847 0.7531735
0.0000000 1.0000000 0.7659836
0.0594486 1.0000000 0.7638794
0.1893518 1.0000000 0.7614494
0.3307122 1.0000000 0.7587992
0.4778051 1.0000000 0.7560347
0.6249050 1.0000000 0.7532634
0.7662851 1.0000000 0.7505934
0.8962177 1.0000000 0.7481340
1.0000000 1.0000000 0.7459955
0.0000000 0.0000000 0.9612758
0.1042873 0.0000000 0.9592991
0.2340436 0.0000000 0.9570161
0.3752441 0.0000000 0.9545257
0.5221706 0.0000000 0.9519276
0.6691042 0.0000000 0.9493227
0.8103244 0.0000000 0.9468125
0.9401100 0.0000000 0.9445001
1.0000000 0.0000000 0.9424891
0.0000000 0.1035990 0.9546098
0.0992776 0.1019204 0.9526193
0.2290496 0.0999885 0.9503205
0.3702673 0.0978895 0.9478130
0.5172117 0.0957088 0.9451970
0.6641631 0.0935316 0.9425742
0.8054005 0.0914424 0.9400469
0.9352020 0.0895252 0.9377186
1.0000000 0.0878638 0.9356939
0.0000000 0.2285805 0.9468708
0.0935616 0.2269098 0.9448645
0.2233518 0.2249871 0.9425476
0.3645893 0.2228979 0.9400202
0.5115543 0.2207275 0.9373837
0.6585263 0.2185606 0.9347402
0.7997835 0.2164813 0.9321931
0.9296032 0.2145733 0.9298467
1.0000000 0.2129197 0.9278061
0.0000000 0.3646141 0.9383801
0.0874113 0.3629520 0.9363566
0.2172213 0.3610391 0.9340199
0.3584803 0.3589607 0.9314710
0.5054678 0.3568016 0.9288120
0.6524622 0.3546458 0.9261461
0.7937410 0.3525773 0.9235775
0.9235804 0.3506792 0.9212113
1.0000000 0.3490342 0.9191535
0.0000000 0.5061961 0.9294685
0.0810888 0.5045429 0.9274272
0.2109195 0.5026404 0.9250698
0.3522009 0.5005732 0.9224985
0.4992117 0.4984257 0.9198162
0.6462294 0.4962817 0.9171270
0.7875306 0.4942243 0.9145359
0.9173906 0.4923365 0.9121491
1.0000000 0.4907005 0.9100735
0.0000000 0.6478174 0.9204784
0.0748448 0.6461731 0.9184193
0.2046961 0.6442809 0.9160413
0.3459999 0.6422249 0.9134475
0.4930340 0.6400891 0.9107419
0.6400751 0.6379567 0.9080294
0.7813987 0.6359106 0.9054159
0.9112793 0.6340331 0.9030085
1.0000000 0.6324060 0.9009150
0.0000000 0.7839626 0.9117644
0.0689179 0.7823269 0.9096881
0.1987889 0.7804446 0.9072903
0.3401143 0.7783994 0.9046750
0.4871708 0.7762748 0.9019470
0.6342343 0.7741536 0.8992120
0.7755794 0.7721182 0.8965770
0.9054799 0.7702506 0.8941498
1.0000000 0.7686321 0.8920391
0.0000000 0.9091107 0.9036924
0.0635349 0.9074829 0.9016003
0.1934241 0.9056097 0.8991843
0.3347693 0.9035744 0.8965492
0.4818465 0.9014600 0.8938006
0.6289306 0.8993492 0.8910450
0.7702955 0.8973237 0.8883902
0.9002141 0.8954652 0.8859448
1.0000000 0.8938546 0.8838183
0.0000000 1.0000000 0.8966381
0.0589134 1.0000000 0.8945323
0.1888184 1.0000000 0.8921005
0.3301807 1.0000000 0.8894482
0.4772758 1.0000000 0.8866817
0.6243777 1.0000000 0.8839083
0.7657598 1.0000000 0.8812363
0.8956943 1.0000000 0.8787751
1.0000000 1.0000000 0.8766350
0.0000000 0.0000000 1.0000000
0.1037795 0.0000000 1.0000000
0.2335373 0.0000000 1.0000000
0.3747396 0.0000000 1.0000000
0.5216679 0.0000000 1.0000000
0.6686033 0.0000000 1.0000000
0.8098252 0.0000000 1.0000000
0.9396125 0.0000000 1.0000000
1.0000000 0.0000000 1.0000000
0.0000000 0.1030287 1.0000000
0.0987744 0.1013508 1.0000000
0.2285480 0.0994197 1.0000000
0.3697674 0.0973215 1.0000000
0.5167137 0.0951418 1.0000000
0.6636669 0.0929654 1.0000000
0.8049060 0.0908771 1.0000000
0.9347091 0.0889608 1.0000000
1.0000000 0.0873000 1.0000000
0.0000000 0.2280129 1.0000000
0.0930638 0.2263429 1.0000000
0.2228556 0.2244210 1.0000000
0.3640948 0.2223327 1.0000000
0.5110617 0.2201632 1.0000000
0.6580355 0.2179972 1.0000000
0.7992944 0.2159187 1.0000000
0.9291156 0.2140115 1.0000000
1.0000000 0.2123587 1.0000000
0.0000000 0.3640494 1.0000000
0.0869193 0.3623880 1.0000000
0.2167309 0.3604759 1.0000000
0.3579917 0.3583984 1.0000000
0.5049810 0.3562401 1.0000000
0.6519772 0.3540853 1.0000000
0.7932577 0.3520177 1.0000000
0.9230987 0.3501203 1.0000000
1.0000000 0.3484761 1.0000000
0.0000000 0.5056345 1.0000000
0.0806029 0.5039820 1.0000000
0.2104351 0.5020802 1.0000000
0.3517183 0.5000139 1.0000000
0.4987309 0.4978673 1.0000000
0.6457505 0.4957242 1.0000000
0.7870534 0.4936677 1.0000000
0.9169150 0.4917807 1.0000000
1.0000000 0.4901454 1.0000000
0.0000000 0.6472588 1.0000000
0.0743650 0.6456152 1.0000000
0.2042178 0.6437238 1.0000000
0.3455234 0.6416687 1.0000000
0.4925593 0.6395337 1.0000000
0.6396022 0.6374022 1.0000000
0.7809275 0.6353570 1.0000000
0.9108098 0.6334803 1.0000000
1.0000000 0.6318539 1.0000000
0.0000000 0.7834069 1.0000000
0.0684438 0.7817719 1.0000000
0.1983165 0.7798904 1.0000000
0.3396436 0.7778461 1.0000000
0.4867019 0.7757223 1.0000000
0.6337672 0.7736020 1.0000000
0.7751141 0.7715676 1.0000000
0.9050161 0.7697007 1.0000000
1.0000000 0.7680829 1.0000000
0.0000000 0.9085576 1.0000000
0.0630663 0.9069306 1.0000000
0.1929571 0.9050581 1.0000000
0.3343040 0.9030237 1.0000000
0.4813830 0.9009103 1.0000000
0.6284689 0.8988003 1.0000000
0.7698355 0.8967757 1.0000000
0.8997557 0.8949180 0.9993159
1.0000000 0.8933081 0.9971880
0.0000000 1.0000000 1.0000000
0.0584494 1.0000000 1.0000000
0.1883560 1.0000000 1.0000000
0.3297201 1.0000000 1.0000000
0.4768169 1.0000000 1.0000000
0.6239207 1.0000000 0.9972781
0.7653045 1.0000000 0.9946043
0.8952405 1.0000000 0.9921415
1.0000000 1.0000000 0.9900000
