assets/luts/kodak/UVSR_Kodak_2383_Print.cube
TITLE "Kodak 2383 Print (UVSR)"
LUT_3D_SIZE 5
DOMAIN_MIN 0.0 0.0 0.0
DOMAIN_MAX 1.0 1.0 1.0
0.0000000 0.0000000 0.0060000
0.2383258 0.0000000 0.0017653
0.5264231 0.0000000 0.0000000
0.8145470 0.0000000 0.0000000
1.0000000 0.0000000 0.0000000
0.0000000 0.2333703 0.0000000
0.2275497 0.2297643 0.0000000
0.5157224 0.2254899 0.0000000
0.8039218 0.2212288 0.0000000
1.0000000 0.2176546 0.0000000
0.0000000 0.5109358 0.0000000
0.2150171 0.5073675 0.0000000
0.5032795 0.5031379 0.0000000
0.7915686 0.4989216 0.0000000
1.0000000 0.4953853 0.0000000
0.0000000 0.7886521 0.0000000
0.2027862 0.7851216 0.0000000
0.4911384 0.7809368 0.0000000
0.7795172 0.7767654 0.0000000
1.0000000 0.7732668 0.0000000
0.0000000 1.0000000 0.0000000
0.1927314 1.0000000 0.0000000
0.4811589 1.0000000 0.0000000
0.7696132 1.0000000 0.0000000
1.0000000 1.0000000 0.0000000
0.0000000 0.0000000 0.2501343
0.2372283 0.0000000 0.2458932
0.5253332 0.0000000 0.2408270
0.8134647 0.0000000 0.2357341
1.0000000 0.0000000 0.2314293
0.0000000 0.2321446 0.2357921
0.2264737 0.2285419 0.2314875
0.5146541 0.2242712 0.2263458
0.8028611 0.2200139 0.2211774
1.0000000 0.2164430 0.2168091
0.0000000 0.5097229 0.2184644
0.2139667 0.5061579 0.2140844
0.5022368 0.5019321 0.2088530
0.7905335 0.4977196 0.2035949
1.0000000 0.4941864 0.1991512
0.0000000 0.7874520 0.2008350
0.2017615 0.7839247 0.1963795
0.4901212 0.7797438 0.1910584
0.7785077 0.7755762 0.1857106
1.0000000 0.7720807 0.1811914
0.0000000 1.0000000 0.1857715
0.1917282 1.0000000 0.1812526
0.4801634 1.0000000 0.1758560
0.7686253 1.0000000 0.1704327
1.0000000 1.0000000 0.1658500
0.0000000 0.0000000 0.5403541
0.2359264 0.0000000 0.5361054
0.5240403 0.0000000 0.5310301
0.8121809 0.0000000 0.5259281
1.0000000 0.0000000 0.5216157
0.0000000 0.2306890 0.5259862
0.2251974 0.2270900 0.5216740
0.5133868 0.2228239 0.5165233
0.8016029 0.2185711 0.5113458
1.0000000 0.2150040 0.5069699
0.0000000 0.5082825 0.5086281
0.2127209 0.5047213 0.5042405
0.5010000 0.5005000 0.4990000
0.7893058 0.4962921 0.4937329
1.0000000 0.4927627 0.4892815
0.0000000 0.7860269 0.4909682
0.2005461 0.7825034 0.4865051
0.4889149 0.7783270 0.4811750
0.7773104 0.7741639 0.4758181
1.0000000 0.7706722 0.4712913
0.0000000 1.0000000 0.4758791
0.1905384 1.0000000 0.4713525
0.4789827 1.0000000 0.4659469
0.7674536 1.0000000 0.4605146
1.0000000 1.0000000 0.4559243
0.0000000 0.0000000 0.8305708
0.2346275 0.0000000 0.8263145
0.5227505 0.0000000 0.8212301
0.8109002 0.0000000 0.8161191
1.0000000 0.0000000 0.8117990
0.0000000 0.2292349 0.8161773
0.2239242 0.2256398 0.8118575
0.5121227 0.2213782 0.8066977
0.8003478 0.2171299 0.8015112
1.0000000 0.2135666 0.7971277
0.0000000 0.5068436 0.7987887
0.2114782 0.5032862 0.7943935
0.4997663 0.4990695 0.7891439
0.7880811 0.4948661 0.7838677
1.0000000 0.4913405 0.7794088
0.0000000 0.7846032 0.7810984
0.1993338 0.7810835 0.7766277
0.4877117 0.7769117 0.7712884
0.7761162 0.7727531 0.7659225
1.0000000 0.7692653 0.7613881
0.0000000 1.0000000 0.7659836
0.1893518 1.0000000 0.7614494
0.4778051 1.0000000 0.7560347
0.7662851 1.0000000 0.7505934
1.0000000 1.0000000 0.7459955
0.0000000 0.0000000 1.0000000
0.2335373 0.0000000 1.0000000
0.5216679 0.0000000 1.0000000
0.8098252 0.0000000 1.0000000
1.0000000 0.0000000 1.0000000
0.0000000 0.2280129 1.0000000
0.2228556 0.2244210 1.0000000
0.5110617 0.2201632 1.0000000
0.7992944 0.2159187 1.0000000
1.0000000 0.2123587 1.0000000
0.0000000 0.5056345 1.0000000
0.2104351 0.5020802 1.0000000
0.4987309 0.4978673 1.0000000
0.7870534 0.4936677 1.0000000
1.0000000 0.4901454 1.0000000
0.0000000 0.7834069 1.0000000
0.1983165 0.7798904 1.0000000
0.4867019 0.7757223 1.0000000
0.7751141 0.7715676 1.0000000
1.0000000 0.7680829 1.0000000
0.0000000 1.0000000 1.0000000
0.1883560 1.0000000 1.0000000
0.4768169 1.0000000 1.0000000
0.7653045 1.0000000 0.9946043
1.0000000 1.0000000 0.9900000
