assets/luts/kodak/UVSR_Kodak_Portra_400.cube
TITLE "Kodak Portra 400 (UVSR)"
LUT_3D_SIZE 17
DOMAIN_MIN 0.0 0.0 0.0
DOMAIN_MAX 1.0 1.0 1.0
0.0000000 0.0000000 0.0000000
0.0612273 0.0000000 0.0000000
0.1239283 0.0000000 0.0000000
0.1878888 0.0000000 0.0000000
0.2528947 0.0000000 0.0000000
0.3187321 0.0000000 0.0000000
0.3851876 0.0000000 0.0000000
0.4520477 0.0000000 0.0000000
0.5190995 0.0000000 0.0000000
0.5861301 0.0000000 0.0000000
0.6529271 0.0000000 0.0000000
0.7192781 0.0000000 0.0000000
0.7849712 0.0000000 0.0000000
0.8497946 0.0000000 0.0000000
0.9135369 0.0000000 0.0000000
0.9759869 0.0000000 0.0000000
1.0000000 0.0000000 0.0000000
0.0007854 0.0601441 0.0000000
0.0619535 0.0598867 0.0000000
0.1245940 0.0596179 0.0000000
0.1884927 0.0593381 0.0000000
0.2534358 0.0590481 0.0000000
0.3192097 0.0587485 0.0000000
0.3856009 0.0584401 0.0000000
0.4523964 0.0581237 0.0000000
0.5193833 0.0578003 0.0000000
0.5863490 0.0574708 0.0000000
0.6530813 0.0571364 0.0000000
0.7193681 0.0567981 0.0000000
0.7849975 0.0564572 0.0000000
0.8497582 0.0561151 0.0000000
0.9134387 0.0557730 0.0000000
0.9758281 0.0554324 0.0000000
1.0000000 0.0550949 0.0000000
0.0013838 0.1216949 0.0000000
0.0624914 0.1214202 0.0000000
0.1250698 0.1211336 0.0000000
0.1889053 0.1208358 0.0000000
0.2537840 0.1205274 0.0000000
0.3194927 0.1202092 0.0000000
0.3858181 0.1198820 0.0000000
0.4525473 0.1195466 0.0000000
0.5194678 0.1192042 0.0000000
0.5863671 0.1188558 0.0000000
0.6530332 0.1185024 0.0000000
0.7192541 0.1181453 0.0000000
0.7848184 0.1177859 0.0000000
0.8495147 0.1174253 0.0000000
0.9131319 0.1170652 0.0000000
0.9754593 0.1167069 0.0000000
1.0000000 0.1163520 0.0000000
0.0017793 0.1844392 0.0000000
0.0628251 0.1841469 0.0000000
0.1253403 0.1838423 0.0000000
0.1891112 0.1835260 0.0000000
0.2539243 0.1831988 0.0000000
0.3195664 0.1828616 0.0000000
0.3858247 0.1825152 0.0000000
0.4524863 0.1821606 0.0000000
0.5193390 0.1817988 0.0000000
0.5861705 0.1814310 0.0000000
0.6527690 0.1810583 0.0000000
0.7189228 0.1806820 0.0000000
0.7844205 0.1803035 0.0000000
0.8490512 0.1799242 0.0000000
0.9126039 0.1795456 0.0000000
0.9748680 0.1791693 0.0000000
1.0000000 0.1787968 0.0000000
0.0019587 0.2481648 0.0000000
0.0629417 0.2478545 0.0000000
0.1253926 0.2475315 0.0000000
0.1890978 0.2471965 0.0000000
0.2538442 0.2468502 0.0000000
0.3194187 0.2464937 0.0000000
0.3856087 0.2461278 0.0000000
0.4522016 0.2457535 0.0000000
0.5189854 0.2453720 0.0000000
0.5857480 0.2449845 0.0000000
0.6522777 0.2445922 0.0000000
0.7183632 0.2441965 0.0000000
0.7837934 0.2437986 0.0000000
0.8483573 0.2434003 0.0000000
0.9118443 0.2430029 0.0000000
0.9740441 0.2426082 0.0000000
1.0000000 0.2422177 0.0000000
0.0019115 0.3126600 0.0000000
0.0628309 0.3123315 0.0000000
0.1252166 0.3119899 0.0000000
0.1888553 0.3116358 0.0000000
0.2535340 0.3112703 0.0000000
0.3190401 0.3108942 0.0000000
0.3851609 0.3105085 0.0000000
0.4516843 0.3101143 0.0000000
0.5183982 0.3097129 0.0000000
0.5850909 0.3093054 0.0000000
0.6515511 0.3088933 0.0000000
0.7175674 0.3084777 0.0000000
0.7829291 0.3080603 0.0000000
0.8474254 0.3076427 0.0000000
0.9108459 0.3072263 0.0000000
0.9729805 0.3068129 0.0000000
1.0000000 0.3064043 0.0000000
0.0016301 0.3777140 0.0000000
0.0624852 0.3773672 0.0000000
0.1248051 0.3770067 0.0000000
0.1883766 0.3766335 0.0000000
0.2529871 0.3762484 0.0000000
0.3184240 0.3758525 0.0000000
0.3844750 0.3754469 0.0000000
0.4509280 0.3750327 0.0000000
0.5175714 0.3746111 0.0000000
0.5841937 0.3741835 0.0000000
0.6505835 0.3737512 0.0000000
0.7165301 0.3733158 0.0000000
0.7818225 0.3728786 0.0000000
0.8462506 0.3724414 0.0000000
0.9096039 0.3720059 0.0000000
0.9716727 0.3715737 0.0000000
1.0000000 0.3711467 0.0000000
0.0011096 0.4431169 0.0000000
0.0619001 0.4427516 0.0000000
0.1241538 0.4423722 0.0000000
0.1876577 0.4419797 0.0000000
0.2521995 0.4415750 0.0000000
0.3175668 0.4411592 0.0000000
0.3835475 0.4407335 0.0000000
0.4499298 0.4402991 0.0000000
0.5165022 0.4398572 0.0000000
0.5830535 0.4394093 0.0000000
0.6493726 0.4389569 0.0000000
0.7152489 0.4385013 0.0000000
0.7804717 0.4380443 0.0000000
0.8448311 0.4375875 0.0000000
0.9081169 0.4371326 0.0000000
0.9701194 0.4366815 0.0000000
1.0000000 0.4362360 0.0000000
0.0003484 0.5086596 0.0000000
0.0610741 0.5082758 0.0000000
0.1232613 0.5078774 0.0000000
0.1866974 0.5074655 0.0000000
0.2511703 0.5070411 0.0000000
0.3164677 0.5066054 0.0000000
0.3823779 0.5061595 0.0000000
0.4486893 0.5057048 0.0000000
0.5151905 0.5052426 0.0000000
0.5816706 0.5047744 0.0000000
0.6479188 0.5043017 0.0000000
0.7137245 0.5038260 0.0000000
0.7788776 0.5033490 0.0000000
0.8431679 0.5028725 0.0000000
0.9063859 0.5023982 0.0000000
0.9683221 0.5019281 0.0000000
1.0000000 0.5014642 0.0000000
0.0000000 0.5741338 0.0000000
0.0600085 0.5737315 0.0000000
0.1221293 0.5733142 0.0000000
0.1854977 0.5728829 0.0000000
0.2499016 0.5724388 0.0000000
0.3151292 0.5719831 0.0000000
0.3809689 0.5715171 0.0000000
0.4472093 0.5710422 0.0000000
0.5136393 0.5705596 0.0000000
0.5800483 0.5700711 0.0000000
0.6462255 0.5695780 0.0000000
0.7119607 0.5690822 0.0000000
0.7770439 0.5685853 0.0000000
0.8412654 0.5680890 0.0000000
0.9044155 0.5675954 0.0000000
0.9662852 0.5671064 0.0000000
1.0000000 0.5666239 0.0000000
0.0000000 0.6393323 0.0000000
0.0587081 0.6389115 0.0000000
0.1207626 0.6384753 0.0000000
0.1840634 0.6380247 0.0000000
0.2483986 0.6375610 0.0000000
0.3135566 0.6370854 0.0000000
0.3793260 0.6365993 0.0000000
0.4454956 0.6361041 0.0000000
0.5118547 0.6356014 0.0000000
0.5781927 0.6350925 0.0000000
0.6442992 0.6345793 0.0000000
0.7099641 0.6340633 0.0000000
0.7749777 0.6335465 0.0000000
0.8391305 0.6330307 0.0000000
0.9022131 0.6325178 0.0000000
0.9640165 0.6320098 0.0000000
1.0000000 0.6315088 0.0000000
0.0000000 0.7040486 0.0000000
0.0571802 0.7036094 0.0000000
0.1191689 0.7031544 0.0000000
0.1824025 0.7026846 0.0000000
0.2466694 0.7022014 0.0000000
0.3117583 0.7017060 0.0000000
0.3774578 0.7012000 0.0000000
0.4435572 0.7006847 0.0000000
0.5098458 0.7001618 0.0000000
0.5761133 0.6996328 0.0000000
0.6421495 0.6990995 0.0000000
0.7077445 0.6985636 0.0000000
0.7726890 0.6980270 0.0000000
0.8367735 0.6974917 0.0000000
0.8997889 0.6969596 0.0000000
0.9615266 0.6964328 0.0000000
1.0000000 0.6959134 0.0000000
0.0000000 0.7680769 0.0000000
0.0554354 0.7676196 0.0000000
0.1173589 0.7671459 0.0000000
0.1805260 0.7666571 0.0000000
0.2447254 0.7661546 0.0000000
0.3097457 0.7656397 0.0000000
0.3753761 0.7651139 0.0000000
0.4414059 0.7645787 0.0000000
0.5076246 0.7640358 0.0000000
0.5738222 0.7634869 0.0000000
0.6397888 0.7629337 0.0000000
0.7053148 0.7623780 0.0000000
0.7701907 0.7618219 0.0000000
0.8342076 0.7612672 0.0000000
0.8971565 0.7607161 0.0000000
0.9588290 0.7601707 0.0000000
1.0000000 0.7596331 0.0000000
0.0000000 0.8312125 0.0000000
0.0534872 0.8307372 0.0000000
0.1153464 0.8302452 0.0000000
0.1784479 0.8297376 0.0000000
0.2425804 0.8292160 0.0000000
0.3075331 0.8286818 0.0000000
0.3730953 0.8281365 0.0000000
0.4390563 0.8275817 0.0000000
0.5052062 0.8270191 0.0000000
0.5713349 0.8264505 0.0000000
0.6372327 0.8258776 0.0000000
0.7026904 0.8253025 0.0000000
0.7674987 0.8247270 0.0000000
0.8314488 0.8241533 0.0000000
0.8943322 0.8235834 0.0000000
0.9559403 0.8230196 0.0000000
1.0000000 0.8224642 0.0000000
0.0000000 0.8932514 0.0000000
0.0513519 0.8927585 0.0000000
0.1131478 0.8922483 0.0000000
0.1761847 0.8917224 0.0000000
0.2402516 0.8911820 0.0000000
0.3051378 0.8906288 0.0000000
0.3706328 0.8900643 0.0000000
0.4365263 0.8894902 0.0000000
0.5026083 0.8889082 0.0000000
0.5686692 0.8883202 0.0000000
0.6344995 0.8877281 0.0000000
0.6998900 0.8871337 0.0000000
0.7646318 0.8865393 0.0000000
0.8285163 0.8859468 0.0000000
0.8913350 0.8853585 0.0000000
0.9528799 0.8847766 0.0000000
1.0000000 0.8842035 0.0000000
0.0000000 0.9539904 0.0000000
0.0490485 0.9534802 0.0000000
0.1107823 0.9529523 0.0000000
0.1737560 0.9524082 0.0000000
0.2377586 0.9518495 0.0000000
0.3025796 0.9512777 0.0000000
0.3680087 0.9506944 0.0000000
0.4338360 0.9501014 0.0000000
0.4998516 0.9495004 0.0000000
0.5658460 0.9488934 0.0000000
0.6316101 0.9482823 0.0000000
0.6969348 0.9476692 0.0000000
0.7616114 0.9470561 0.0000000
0.8254316 0.9464452 0.0000000
0.8881870 0.9458388 0.0000000
0.9496698 0.9452392 0.0000000
1.0000000 0.9446488 0.0000000
0.0000000 1.0000000 0.0000000
0.0465986 1.0000000 0.0000000
0.1082719 1.0000000 0.0000000
0.1711838 1.0000000 0.0000000
0.2351236 1.0000000 0.0000000
0.2998810 1.0000000 0.0000000
0.3652459 1.0000000 0.0000000
0.4310085 1.0000000 0.0000000
0.4969592 1.0000000 0.0000000
0.5628888 1.0000000 0.0000000
0.6285882 1.0000000 0.0000000
0.6938486 1.0000000 0.0000000
0.7584616 1.0000000 0.0000000
0.8222190 1.0000000 0.0000000
0.8849127 1.0000000 0.0000000
0.9463349 1.0000000 0.0000000
1.0000000 1.0000000 0.0000000
0.0000883 0.0000000 0.0606717
0.0613096 0.0000000 0.0597919
0.1240045 0.0000000 0.0589024
0.1879588 0.0000000 0.0580070
0.2529583 0.0000000 0.0571094
0.3187894 0.0000000 0.0562129
0.3852383 0.0000000 0.0553211
0.4520920 0.0000000 0.0544370
0.5191372 0.0000000 0.0535637
0.5861612 0.0000000 0.0527040
0.6529517 0.0000000 0.0518606
0.7192962 0.0000000 0.0510359
0.7849828 0.0000000 0.0502323
0.8497999 0.0000000 0.0494519
0.9135360 0.0000000 0.0486968
0.9759799 0.0000000 0.0479687
1.0000000 0.0000000 0.0472693
0.0008536 0.0600572 0.0577570
0.0620158 0.0597982 0.0569153
0.1246502 0.0595276 0.0560647
0.1885427 0.0592461 0.0552090
0.2534794 0.0589542 0.0543517
0.3192468 0.0586528 0.0534962
0.3856316 0.0583425 0.0526457
0.4524205 0.0580243 0.0518032
0.5194009 0.0576990 0.0509715
0.5863601 0.0573676 0.0501535
0.6530858 0.0570313 0.0493517
0.7193661 0.0566912 0.0485683
0.7849891 0.0563485 0.0478056
0.8497434 0.0560045 0.0470656
0.9134177 0.0556607 0.0463501
0.9758010 0.0553183 0.0456610
1.0000000 0.0549791 0.0449996
0.0014314 0.1216022 0.0549039
0.0625331 0.1213258 0.0541010
0.1251054 0.1210375 0.0532903
0.1889346 0.1207379 0.0524753
0.2538070 0.1204277 0.0516594
0.3195093 0.1201076 0.0508458
0.3858282 0.1197785 0.0500376
0.4525509 0.1194413 0.0492376
0.5194648 0.1190971 0.0484487
0.5863576 0.1187467 0.0476734
0.6530171 0.1183915 0.0469141
0.7192316 0.1180326 0.0461731
0.7847894 0.1176713 0.0454523
0.8494794 0.1173089 0.0447536
0.9130904 0.1169470 0.0440789
0.9754117 0.1165869 0.0434296
1.0000000 0.1162304 0.0428071
0.0018060 0.1843405 0.0521308
0.0628458 0.1840465 0.0513677
0.1253549 0.1837401 0.0505977
0.1891195 0.1834221 0.0498242
0.2539263 0.1830931 0.0490504
0.3195620 0.1827540 0.0482796
0.3858138 0.1824057 0.0475145
0.4524689 0.1820493 0.0467580
0.5193151 0.1816856 0.0460127
0.5861400 0.1813159 0.0452810
0.6527320 0.1809414 0.0445652
0.7188793 0.1805633 0.0438673
0.7843706 0.1801829 0.0431892
0.8489949 0.1798018 0.0425328
0.9125414 0.1794214 0.0418995
0.9747994 0.1790433 0.0412909
1.0000000 0.1786691 0.0407082
0.0019641 0.2480600 0.0494547
0.0629411 0.2477480 0.0487320
0.1253859 0.2474233 0.0480033
0.1890848 0.2470864 0.0472720
0.2538249 0.2467384 0.0465412
0.3193930 0.2463800 0.0458138
0.3855765 0.2460122 0.0450926
0.4521629 0.2456361 0.0443803
0.5189401 0.2452528 0.0436793
0.5856961 0.2448634 0.0429919
0.6522194 0.2444692 0.0423202
0.7182984 0.2440716 0.0416662
0.7837221 0.2436720 0.0410316
0.8482797 0.2432718 0.0404181
0.9117605 0.2428726 0.0398270
0.9739542 0.2424761 0.0392598
1.0000000 0.2420840 0.0387175
0.0018953 0.3125490 0.0468907
0.0628087 0.3122188 0.0462089
0.1251883 0.3118754 0.0455221
0.1888207 0.3115196 0.0448336
0.2534931 0.3111523 0.0441462
0.3189928 0.3107743 0.0434629
0.3851071 0.3103868 0.0427862
0.4516239 0.3099908 0.0421186
0.5183313 0.3095875 0.0414625
0.5850175 0.3091781 0.0408200
0.6514711 0.3087641 0.0401930
0.7174810 0.3083467 0.0395835
0.7828362 0.3079275 0.0389930
0.8473262 0.3075080 0.0384229
0.9107404 0.3070898 0.0378746
0.9728689 0.3066747 0.0373492
1.0000000 0.3062644 0.0368478
0.0015920 0.3775967 0.0444522
0.0624412 0.3772483 0.0438116
0.1247550 0.3768861 0.0431672
0.1883203 0.3765111 0.0425218
0.2529244 0.3761242 0.0418783
0.3183549 0.3757265 0.0412394
0.3843993 0.3753190 0.0406076
0.4508459 0.3749029 0.0399853
0.5174827 0.3744795 0.0393745
0.5840984 0.3740500 0.0387773
0.6504818 0.3736158 0.0381955
0.7164218 0.3731785 0.0376309
0.7817079 0.3727395 0.0370848
0.8461295 0.3723005 0.0365586
0.9094767 0.3718632 0.0360535
0.9715394 0.3714293 0.0355705
1.0000000 0.3710006 0.0351103
0.0010496 0.4429934 0.0421505
0.0618341 0.4426264 0.0415515
0.1240817 0.4422453 0.0409496
0.1875794 0.4418510 0.0403477
0.2521148 0.4414445 0.0397484
0.3174757 0.4410269 0.0391543
0.3834499 0.4405993 0.0385676
0.4498257 0.4401630 0.0379907
0.5163916 0.4397193 0.0374256
0.5829363 0.4392695 0.0368740
0.6492489 0.4388152 0.0363377
0.7151186 0.4383578 0.0358183
0.7803351 0.4378989 0.0353169
0.8446881 0.4374403 0.0348349
0.9079676 0.4369836 0.0343732
0.9699641 0.4365308 0.0339328
1.0000000 0.4360836 0.0335142
0.0002664 0.5085298 0.0399952
0.0609861 0.5081443 0.0394379
0.1231671 0.5077442 0.0388788
0.1865971 0.5073305 0.0383204
0.2510636 0.5069043 0.0377654
0.3163546 0.5064667 0.0372162
0.3822583 0.5060190 0.0366749
0.4485631 0.5055625 0.0361436
0.5150578 0.5050984 0.0356242
0.5815314 0.5046283 0.0351184
0.6477730 0.5041537 0.0346277
0.7135723 0.5036761 0.0341536
0.7787189 0.5031973 0.0336971
0.8430029 0.5027190 0.0332594
0.9062147 0.5022430 0.0328413
0.9681447 0.5017711 0.0324436
1.0000000 0.5013054 0.0320667
0.0000000 0.5739978 0.0379938
0.0598985 0.5735937 0.0374782
0.1220131 0.5731747 0.0369618
0.1853753 0.5727416 0.0364471
0.2497728 0.5722957 0.0359364
0.3149940 0.5718382 0.0354320
0.3808272 0.5713703 0.0349360
0.4470611 0.5708935 0.0344504
0.5134846 0.5704091 0.0339767
0.5798870 0.5699187 0.0335167
0.6460577 0.5694238 0.0330716
0.7117864 0.5689261 0.0326428
0.7768632 0.5684273 0.0322313
0.8410783 0.5679293 0.0318379
0.9042223 0.5674339 0.0314634
0.9660858 0.5669431 0.0311083
1.0000000 0.5664588 0.0307732
0.0000000 0.6391900 0.0361520
0.0585761 0.6387675 0.0356780
0.1206245 0.6383295 0.0352042
0.1839190 0.6378771 0.0347328
0.2482479 0.6374116 0.0342663
0.3133994 0.6369342 0.0338067
0.3791624 0.6364463 0.0333559
0.4453255 0.6359492 0.0329157
0.5116781 0.6354445 0.0324877
0.5780095 0.6349338 0.0320733
0.6441094 0.6344187 0.0316737
0.7097679 0.6339009 0.0312901
0.7747751 0.6333823 0.0309233
0.8389215 0.6328646 0.0305741
0.9019978 0.6323499 0.0302430
0.9637952 0.6318402 0.0299305
1.0000000 0.6313375 0.0296369
0.0000000 0.7039000 0.0344735
0.0570264 0.7034591 0.0340408
0.1190089 0.7030023 0.0336092
0.1822363 0.7025308 0.0331811
0.2464969 0.7020457 0.0327584
0.3115793 0.7015486 0.0323433
0.3772724 0.7010407 0.0319374
0.4433653 0.7005236 0.0315424
0.5096473 0.6999987 0.0311597
0.5759082 0.6994679 0.0307906
0.6419379 0.6989327 0.0304362
0.7075265 0.6983950 0.0300974
0.7724645 0.6978565 0.0297751
0.8365427 0.6973194 0.0294698
0.8995519 0.6967855 0.0291819
0.9612834 0.6962570 0.0289117
1.0000000 0.6957359 0.0286594
0.0000000 0.7679221 0.0329599
0.0552600 0.7674631 0.0325681
0.1171774 0.7669877 0.0321784
0.1803383 0.7664971 0.0317931
0.2445312 0.7659928 0.0314139
0.3095451 0.7654760 0.0310428
0.3751691 0.7649484 0.0306813
0.4411923 0.7644114 0.0303311
0.5074045 0.7638666 0.0299933
0.5735956 0.7633158 0.0296691
0.6395557 0.7627607 0.0293594
0.7050751 0.7622032 0.0290651
0.7699446 0.7616452 0.0287868
0.8339551 0.7610887 0.0285250
0.8968979 0.7605359 0.0282799
0.9585642 0.7599887 0.0280516
1.0000000 0.7594495 0.0278402
0.0000000 0.8310517 0.0316112
0.0532904 0.8305747 0.0312598
0.1151435 0.8300809 0.0309115
0.1782388 0.8295715 0.0305683
0.2423650 0.8290481 0.0302320
0.3073113 0.8285121 0.0299044
0.3728669 0.8279649 0.0295868
0.4388215 0.8274083 0.0292807
0.5049648 0.8268438 0.0289872
0.5710869 0.8262733 0.0287073
0.6369782 0.8256986 0.0284419
0.7024294 0.8251216 0.0281915
0.7672313 0.8245443 0.0279566
0.8311751 0.8239687 0.0277377
0.8940522 0.8233971 0.0275348
0.9556542 0.8228315 0.0273479
1.0000000 0.8222744 0.0271768
0.0000000 0.8930846 0.0304254
0.0511341 0.8925899 0.0301136
0.1129239 0.8920780 0.0298060
0.1759546 0.8915503 0.0295044
0.2400152 0.8910081 0.0292103
0.3048950 0.8904531 0.0289254
0.3703834 0.8898867 0.0286510
0.4362704 0.8893107 0.0283884
0.5023459 0.8887269 0.0281385
0.5684003 0.8881370 0.0279022
0.6342240 0.8875430 0.0276801
0.6996080 0.8869468 0.0274729
0.7643434 0.8863505 0.0272808
0.8282216 0.8857562 0.0271041
0.8910341 0.8851661 0.0269427
0.9525728 0.8845825 0.0267965
1.0000000 0.8840077 0.0266652
0.0000000 0.9538177 0.0293987
0.0488102 0.9533058 0.0291259
0.1105379 0.9527761 0.0288582
0.1735053 0.9522303 0.0285972
0.2375016 0.9516697 0.0283445
0.3023162 0.9510961 0.0281015
0.3677388 0.9505109 0.0278695
0.4335596 0.9499160 0.0276494
0.4995686 0.9493132 0.0274422
0.5655565 0.9487044 0.0272486
0.6313141 0.9480914 0.0270691
0.6966323 0.9474764 0.0269042
0.7613025 0.9468615 0.0267540
0.8251163 0.9462488 0.0266186
0.8878655 0.9456406 0.0264979
0.9493422 0.9450393 0.0263916
1.0000000 0.9444472 0.0262992
0.0000000 1.0000000 0.0285259
0.0463402 1.0000000 0.0282911
0.1080074 1.0000000 0.0280623
0.1709131 1.0000000 0.0278410
0.2348465 1.0000000 0.0276287
0.2995975 1.0000000 0.0274266
0.3649559 1.0000000 0.0272358
0.4307120 1.0000000 0.0270573
0.4966562 1.0000000 0.0268918
0.5625792 1.0000000 0.0267399
0.6282721 1.0000000 0.0266020
0.6935260 1.0000000 0.0264784
0.7581326 1.0000000 0.0263691
0.8218836 1.0000000 0.0262741
0.8845711 1.0000000 0.0261931
0.9459872 1.0000000 0.0261257
1.0000000 1.0000000 0.0260713
0.0001767 0.0000000 0.1228232
0.0613918 0.0000000 0.1219473
0.1240805 0.0000000 0.1210619
0.1880284 0.0000000 0.1201706
0.2530214 0.0000000 0.1192771
0.3188459 0.0000000 0.1183849
0.3852882 0.0000000 0.1174973
0.4521352 0.0000000 0.1166176
0.5191737 0.0000000 0.1157486
0.5861910 0.0000000 0.1148932
0.6529747 0.0000000 0.1140540
0.7193126 0.0000000 0.1132336
0.7849927 0.0000000 0.1124342
0.8498033 0.0000000 0.1116580
0.9135330 0.0000000 0.1109070
0.9759706 0.0000000 0.1101829
1.0000000 0.0000000 0.1094875
0.0009214 0.0599677 0.1199217
0.0620775 0.0597069 0.1190839
0.1247056 0.0594345 0.1182374
0.1885917 0.0591512 0.1173858
0.2535219 0.0588575 0.1165327
0.3192828 0.0585541 0.1156814
0.3856609 0.0582420 0.1148351
0.4524432 0.0579218 0.1139969
0.5194168 0.0575946 0.1131696
0.5863693 0.0572613 0.1123559
0.6530884 0.0569231 0.1115583
0.7193620 0.0565811 0.1107792
0.7849784 0.0562365 0.1100207
0.8497262 0.0558907 0.1092849
0.9133942 0.0555450 0.1085736
0.9757712 0.0552009 0.1078884
1.0000000 0.0548599 0.1072310
0.0014782 0.1215066 0.1170821
0.0625737 0.1212285 0.1162832
0.1251398 0.1209384 0.1154765
0.1889626 0.1206369 0.1146656
0.2538285 0.1203249 0.1138539
0.3195242 0.1200029 0.1130445
0.3858365 0.1196719 0.1122405
0.4525525 0.1193329 0.1114449
0.5194597 0.1189867 0.1106603
0.5863458 0.1186344 0.1098893
0.6529986 0.1182773 0.1091343
0.7192064 0.1179165 0.1083975
0.7847577 0.1175533 0.1076810
0.8494411 0.1171891 0.1069865
0.9130458 0.1168253 0.1063158
0.9753608 0.1164635 0.1056706
1.0000000 0.1161052 0.1050521
0.0018312 0.1842388 0.1143229
0.0628650 0.1839430 0.1135637
0.1253678 0.1836349 0.1127977
0.1891260 0.1833150 0.1120283
0.2539263 0.1829841 0.1112587
0.3195554 0.1826432 0.1104921
0.3858006 0.1822930 0.1097313
0.4524490 0.1819346 0.1089791
0.5192884 0.1815691 0.1082381
0.5861067 0.1811975 0.1075107
0.6526919 0.1808210 0.1067992
0.7188326 0.1804410 0.1061055
0.7843174 0.1800588 0.1054317
0.8489352 0.1796758 0.1047795
0.9124752 0.1792936 0.1041503
0.9747270 0.1789137 0.1035457
1.0000000 0.1785378 0.1029670
0.0019675 0.2479520 0.1116608
0.0629384 0.2476383 0.1109420
0.1253769 0.2473118 0.1102174
0.1890695 0.2469731 0.1094902
0.2538030 0.2466232 0.1087635
0.3193645 0.2462629 0.1080403
0.3855414 0.2458933 0.1073234
0.4521211 0.2455153 0.1066154
0.5188916 0.2451300 0.1059187
0.5856410 0.2447387 0.1052357
0.6521575 0.2443426 0.1045683
0.7182299 0.2439431 0.1039185
0.7836470 0.2435416 0.1032882
0.8481981 0.2431395 0.1026788
0.9116725 0.2427386 0.1020919
0.9738599 0.2423403 0.1015287
1.0000000 0.2419464 0.1009903
0.0018765 0.3124347 0.1091111
0.0627839 0.3121028 0.1084331
0.1251572 0.3117576 0.1077504
0.1887832 0.3114000 0.1070660
0.2534492 0.3110308 0.1063828
0.3189422 0.3106509 0.1057037
0.3850499 0.3102615 0.1050312
0.4515600 0.3098636 0.1043680
0.5182607 0.3094584 0.1037162
0.5849402 0.3090471 0.1030780
0.6513871 0.3086311 0.1024553
0.7173903 0.3082119 0.1018501
0.7827390 0.3077908 0.1012637
0.8472224 0.3073694 0.1006978
0.9106303 0.3069494 0.1001537
0.9727526 0.3065325 0.0996323
1.0000000 0.3061205 0.0991348
0.0015509 0.3774761 0.1066869
0.0623940 0.3771258 0.1060503
0.1247015 0.3767619 0.1054098
0.1882604 0.3763850 0.1047686
0.2528581 0.3759963 0.1041293
0.3182819 0.3755967 0.1034946
0.3843198 0.3751873 0.1028671
0.4507596 0.3747693 0.1022490
0.5173898 0.3743440 0.1016425
0.5839988 0.3739126 0.1010496
0.6503754 0.3734765 0.1004722
0.7163088 0.3730373 0.0999118
0.7815883 0.3725964 0.0993700
0.8460035 0.3721556 0.0988480
0.9093442 0.3717164 0.0983470
0.9714006 0.3712807 0.0978679
1.0000000 0.3708503 0.0974117
0.0009860 0.4428663 0.1043997
0.0617645 0.4424976 0.1038046
0.1240057 0.4421147 0.1032068
0.1874970 0.4417185 0.1026089
0.2520260 0.4413102 0.1020138
0.3173802 0.4408907 0.1014239
0.3833478 0.4404612 0.1008415
0.4497169 0.4400230 0.1002689
0.5162761 0.4395774 0.0997081
0.5828141 0.4391257 0.0991608
0.6491201 0.4386694 0.0986288
0.7149832 0.4382101 0.0981136
0.7801930 0.4377494 0.0976165
0.8445395 0.4372889 0.0971387
0.9078127 0.4368304 0.0966811
0.9698029 0.4363758 0.0962447
1.0000000 0.4359269 0.0958301
0.0001803 0.5083962 0.1022589
0.0608938 0.5080090 0.1017055
0.1230686 0.5076071 0.1011504
0.1864922 0.5071916 0.1005961
0.2509522 0.5067635 0.1000453
0.3162366 0.5063241 0.0995003
0.3821337 0.5058745 0.0989633
0.4484318 0.5054160 0.0984363
0.5149198 0.5049500 0.0979212
0.5813867 0.5044780 0.0974197
0.6476216 0.5040015 0.0969333
0.7134142 0.5035220 0.0964635
0.7785542 0.5030413 0.0960112
0.8428318 0.5025612 0.0955777
0.9060372 0.5020833 0.0951637
0.9679609 0.5016097 0.0947700
1.0000000 0.5011423 0.0943971
0.0000000 0.5738578 0.1002720
0.0597837 0.5734520 0.0997603
0.1218920 0.5730311 0.0992479
0.1852478 0.5725962 0.0987373
0.2496389 0.5721485 0.0982308
0.3148535 0.5716891 0.0977306
0.3806800 0.5712194 0.0972389
0.4469072 0.5707406 0.0967576
0.5133240 0.5702543 0.0962882
0.5797197 0.5697619 0.0958325
0.6458837 0.5692651 0.0953918
0.7116058 0.5687655 0.0949672
0.7766760 0.5682649 0.0945599
0.8408846 0.5677650 0.0941707
0.9040222 0.5672678 0.0938003
0.9658795 0.5667752 0.0934493
1.0000000 0.5662892 0.0931180
0.0000000 0.6390436 0.0984447
0.0584388 0.6386193 0.0979746
0.1204809 0.6381795 0.0975047
0.1837690 0.6377253 0.0970375
0.2480914 0.6372580 0.0965752
0.3132364 0.6367787 0.0961198
0.3789927 0.6362889 0.0956733
0.4451491 0.6357899 0.0952374
0.5114950 0.6352833 0.0948137
0.5778197 0.6347707 0.0944036
0.6439130 0.6342537 0.0940083
0.7095648 0.6337340 0.0936289
0.7745654 0.6332134 0.0932664
0.8387053 0.6326939 0.0929213
0.9017753 0.6321774 0.0925944
0.9635663 0.6316659 0.0922859
1.0000000 0.6311614 0.0919962
0.0000000 0.7037472 0.0967805
0.0568667 0.7033046 0.0963517
0.1188430 0.7028460 0.0959242
0.1820640 0.7023726 0.0955001
0.2463181 0.7018857 0.0950817
0.3113939 0.7013867 0.0946708
0.3770804 0.7008769 0.0942691
0.4431666 0.7003579 0.0938784
0.5094419 0.6998311 0.0935000
0.5756961 0.6992984 0.0931352
0.6417191 0.6987612 0.0927851
0.7073010 0.6982216 0.0924507
0.7722325 0.6976813 0.0921326
0.8363041 0.6971423 0.0918314
0.8993070 0.6966066 0.0915476
0.9610322 0.6960763 0.0912815
1.0000000 0.6955535 0.0910331
0.0000000 0.7677630 0.0952811
0.0550782 0.7673022 0.0948932
0.1169893 0.7668250 0.0945076
0.1801438 0.7663326 0.0941263
0.2443303 0.7658264 0.0937514
0.3093376 0.7653078 0.0933845
0.3749549 0.7647783 0.0930273
0.4409715 0.7642393 0.0926813
0.5071770 0.7636927 0.0923478
0.5733613 0.7631399 0.0920279
0.6393147 0.7625829 0.0917226
0.7048275 0.7620235 0.0914326
0.7696904 0.7614637 0.0911585
0.8336945 0.7609053 0.0909008
