assets/luts/kodak/UVSR_Kodak_2383_Print.cube
TITLE "Kodak 2383 Print (UVSR)"
LUT_3D_SIZE 17
DOMAIN_MIN 0.0 0.0 0.0
DOMAIN_MAX 1.0 1.0 1.0
0.0000000 0.0000000 0.0060000
0.0497893 0.0000000 0.0050616
0.1085830 0.0000000 0.0040349
0.1716667 0.0000000 0.0029321
0.2383258 0.0000000 0.0017653
0.3078457 0.0000000 0.0005471
0.3795117 0.0000000 0.0000000
0.4526091 0.0000000 0.0000000
0.5264231 0.0000000 0.0000000
0.6002388 0.0000000 0.0000000
0.6733414 0.0000000 0.0000000
0.7450158 0.0000000 0.0000000
0.8145470 0.0000000 0.0000000
0.8812199 0.0000000 0.0000000
0.9443193 0.0000000 0.0000000
1.0000000 0.0000000 0.0000000
1.0000000 0.0000000 0.0000000
0.0000000 0.0517938 0.0028396
0.0473678 0.0509870 0.0018981
0.1061650 0.0501058 0.0008679
0.1692524 0.0491608 0.0000000
0.2359153 0.0481631 0.0000000
0.3054393 0.0471233 0.0000000
0.3771094 0.0460522 0.0000000
0.4502111 0.0449607 0.0000000
0.5240294 0.0438593 0.0000000
0.5978494 0.0427588 0.0000000
0.6709562 0.0416698 0.0000000
0.7426348 0.0406029 0.0000000
0.8121700 0.0395688 0.0000000
0.8788468 0.0385779 0.0000000
0.9419498 0.0376408 0.0000000
1.0000000 0.0367680 0.0000000
1.0000000 0.0359700 0.0000000
0.0000000 0.1084113 0.0000000
0.0447332 0.1076063 0.0000000
0.1035341 0.1067269 0.0000000
0.1666255 0.1057840 0.0000000
0.2332927 0.1047884 0.0000000
0.3028210 0.1037508 0.0000000
0.3744957 0.1026820 0.0000000
0.4476020 0.1015927 0.0000000
0.5214250 0.1004937 0.0000000
0.5952497 0.0993955 0.0000000
0.6683612 0.0983089 0.0000000
0.7400443 0.0972443 0.0000000
0.8095840 0.0962124 0.0000000
0.8762649 0.0952236 0.0000000
0.9393720 0.0942885 0.0000000
0.9981898 0.0934176 0.0000000
1.0000000 0.0926213 0.0000000
0.0000000 0.1691659 0.0000000
0.0419203 0.1683627 0.0000000
0.1007252 0.1674853 0.0000000
0.1638209 0.1665445 0.0000000
0.2304926 0.1655512 0.0000000
0.3000257 0.1645159 0.0000000
0.3717053 0.1634496 0.0000000
0.4448166 0.1623628 0.0000000
0.5186446 0.1612663 0.0000000
0.5924744 0.1601707 0.0000000
0.6655908 0.1590865 0.0000000
0.7372788 0.1580244 0.0000000
0.8068232 0.1569948 0.0000000
0.8735088 0.1560083 0.0000000
0.9366201 0.1550754 0.0000000
0.9954419 0.1542065 0.0000000
1.0000000 0.1534120 0.0000000
0.0000000 0.2333703 0.0000000
0.0389638 0.2325690 0.0000000
0.0977729 0.2316938 0.0000000
0.1608732 0.2307553 0.0000000
0.2275497 0.2297643 0.0000000
0.2970878 0.2287316 0.0000000
0.3687726 0.2276679 0.0000000
0.4418891 0.2265837 0.0000000
0.5157224 0.2254899 0.0000000
0.5895575 0.2243969 0.0000000
0.6626792 0.2233154 0.0000000
0.7343724 0.2222558 0.0000000
0.8039218 0.2212288 0.0000000
0.8706122 0.2202447 0.0000000
0.9337281 0.2193140 0.0000000
0.9925541 0.2184472 0.0000000
1.0000000 0.2176546 0.0000000
0.0000000 0.3003373 0.0000000
0.0358977 0.2995381 0.0000000
0.0947112 0.2986650 0.0000000
0.1578162 0.2977289 0.0000000
0.2244978 0.2967405 0.0000000
0.2940411 0.2957104 0.0000000
0.3657312 0.2946493 0.0000000
0.4388533 0.2935679 0.0000000
0.5126921 0.2924768 0.0000000
0.5865328 0.2913866 0.0000000
0.6596600 0.2903078 0.0000000
0.7313586 0.2892510 0.0000000
0.8009132 0.2882265 0.0000000
0.8676085 0.2872450 0.0000000
0.9307292 0.2863167 0.0000000
0.9895596 0.2854521 0.0000000
1.0000000 0.2846615 0.0000000
0.0000000 0.3693793 0.0000000
0.0327554 0.3685821 0.0000000
0.0915735 0.3677114 0.0000000
0.1546834 0.3667777 0.0000000
0.2213701 0.3657918 0.0000000
0.2909188 0.3647644 0.0000000
0.3626145 0.3637061 0.0000000
0.4357422 0.3626276 0.0000000
0.5095868 0.3615393 0.0000000
0.5834331 0.3604520 0.0000000
0.6565660 0.3593760 0.0000000
0.7282701 0.3583219 0.0000000
0.7978301 0.3573002 0.0000000
0.8645306 0.3563212 0.0000000
0.9276561 0.3553953 0.0000000
0.9864912 0.3545330 0.0000000
1.0000000 0.3537446 0.0000000
0.0000000 0.4398082 0.0000000
0.0295696 0.4390132 0.0000000
0.0883924 0.4381447 0.0000000
0.1515072 0.4372135 0.0000000
0.2181992 0.4362303 0.0000000
0.2877534 0.4352056 0.0000000
0.3594548 0.4341502 0.0000000
0.4325883 0.4330745 0.0000000
0.5064387 0.4319892 0.0000000
0.5802909 0.4309048 0.0000000
0.6534295 0.4298317 0.0000000
0.7251393 0.4287804 0.0000000
0.7947048 0.4277614 0.0000000
0.8614106 0.4267851 0.0000000
0.9245411 0.4258617 0.0000000
0.9833807 0.4250017 0.0000000
1.0000000 0.4242154 0.0000000
0.0000000 0.5109358 0.0000000
0.0263724 0.5101429 0.0000000
0.0851999 0.5092768 0.0000000
0.1483198 0.5083481 0.0000000
0.2150171 0.5073675 0.0000000
0.2845768 0.5063456 0.0000000
0.3562839 0.5052930 0.0000000
0.4294232 0.5042203 0.0000000
0.5032795 0.5031379 0.0000000
0.5771376 0.5020564 0.0000000
0.6502821 0.5009863 0.0000000
0.7219976 0.4999379 0.0000000
0.7915686 0.4989216 0.0000000
0.8582797 0.4979479 0.0000000
0.9214152 0.4970271 0.0000000
0.9802596 0.4961694 0.0000000
1.0000000 0.4953853 0.0000000
0.0000000 0.5820732 0.0000000
0.0231950 0.5812825 0.0000000
0.0820272 0.5804187 0.0000000
0.1451521 0.5794926 0.0000000
0.2118547 0.5785146 0.0000000
0.2814200 0.5774955 0.0000000
0.3531328 0.5764458 0.0000000
0.4262780 0.5753759 0.0000000
0.5001402 0.5742965 0.0000000
0.5740041 0.5732180 0.0000000
0.6471544 0.5721507 0.0000000
0.7188756 0.5711052 0.0000000
0.7884522 0.5700917 0.0000000
0.8551686 0.5691207 0.0000000
0.9183092 0.5682024 0.0000000
0.9771583 0.5673471 0.0000000
1.0000000 0.5665650 0.0000000
0.0000000 0.6525315 0.0000000
0.0200680 0.6517428 0.0000000
0.0789048 0.6508814 0.0000000
0.1420347 0.6499577 0.0000000
0.2087426 0.6489824 0.0000000
0.2783133 0.6479661 0.0000000
0.3500318 0.6469192 0.0000000
0.4231827 0.6458522 0.0000000
0.4970507 0.6447757 0.0000000
0.5709205 0.6437001 0.0000000
0.6440766 0.6426357 0.0000000
0.7158035 0.6415930 0.0000000
0.7853856 0.6405823 0.0000000
0.8521072 0.6396139 0.0000000
0.9152528 0.6386981 0.0000000
0.9741065 0.6378451 0.0000000
1.0000000 0.6370652 0.0000000
0.0000000 0.7216210 0.0000000
0.0170209 0.7208345 0.0000000
0.0758623 0.7199753 0.0000000
0.1389970 0.7190541 0.0000000
0.2057101 0.7180814 0.0000000
0.2752863 0.7170677 0.0000000
0.3470103 0.7160236 0.0000000
0.4201668 0.7149595 0.0000000
0.4940406 0.7138858 0.0000000
0.5679161 0.7128131 0.0000000
0.6410778 0.7117515 0.0000000
0.7128103 0.7107116 0.0000000
0.7823977 0.7097036 0.0000000
0.8491246 0.7087378 0.0000000
0.9122750 0.7078244 0.0000000
0.9711333 0.7069737 0.0000000
1.0000000 0.7061958 0.0000000
0.0000000 0.7886521 0.0000000
0.0140829 0.7878676 0.0000000
0.0729286 0.7870106 0.0000000
0.1360681 0.7860918 0.0000000
0.2027862 0.7851216 0.0000000
0.2723676 0.7841105 0.0000000
0.3440970 0.7830691 0.0000000
0.4172591 0.7820077 0.0000000
0.4911384 0.7809368 0.0000000
0.5650194 0.7798668 0.0000000
0.6381866 0.7788080 0.0000000
0.7099245 0.7777708 0.0000000
0.7795172 0.7767654 0.0000000
0.8462490 0.7758021 0.0000000
0.9094042 0.7748911 0.0000000
0.9682668 0.7740426 0.0000000
1.0000000 0.7732668 0.0000000
0.0000000 0.8529344 0.0000000
0.0112822 0.8521519 0.0000000
0.0701322 0.8512970 0.0000000
0.1332762 0.8503805 0.0000000
0.1999991 0.8494126 0.0000000
0.2695855 0.8484041 0.0000000
0.3413201 0.8473652 0.0000000
0.4144874 0.8463065 0.0000000
0.4883720 0.8452383 0.0000000
0.5622584 0.8441709 0.0000000
0.6354309 0.8431148 0.0000000
0.7071738 0.8420801 0.0000000
0.7767716 0.8410772 0.0000000
0.8435082 0.8401163 0.0000000
0.9066679 0.8392076 0.0000000
0.9655348 0.8383612 0.0000000
1.0000000 0.8375873 0.0000000
0.0000000 0.9137776 0.0000000
0.0086465 0.9129968 0.0000000
0.0675005 0.9121440 0.0000000
0.1306489 0.9112296 0.0000000
0.1973763 0.9102641 0.0000000
0.2669675 0.9092579 0.0000000
0.3387069 0.9082215 0.0000000
0.4118792 0.9071652 0.0000000
0.4857689 0.9060995 0.0000000
0.5596603 0.9050347 0.0000000
0.6328377 0.9039810 0.0000000
0.7045856 0.9029488 0.0000000
0.7741881 0.9019483 0.0000000
0.8409292 0.9009896 0.0000000
0.9040933 0.9000831 0.0000000
0.9629642 0.8992387 0.0000000
1.0000000 0.8984666 0.0000000
0.0000000 0.9704908 0.0000000
0.0062031 0.9697117 0.0000000
0.0650608 0.9688608 0.0000000
0.1282132 0.9679484 0.0000000
0.1949449 0.9669849 0.0000000
0.2645404 0.9659810 0.0000000
0.3362844 0.9649468 0.0000000
0.4094614 0.9638929 0.0000000
0.4833557 0.9628296 0.0000000
0.5572518 0.9617671 0.0000000
0.6304339 0.9607157 0.0000000
0.7021864 0.9596858 0.0000000
0.7717932 0.9586875 0.0000000
0.8385386 0.9577310 0.0000000
0.9017067 0.9568264 0.0000000
0.9605813 0.9559839 0.0000000
1.0000000 0.9552135 0.0000000
0.0000000 1.0000000 0.0000000
0.0039786 1.0000000 0.0000000
0.0628398 1.0000000 0.0000000
0.1259958 1.0000000 0.0000000
0.1927314 1.0000000 0.0000000
0.2623309 1.0000000 0.0000000
0.3340791 1.0000000 0.0000000
0.4072603 1.0000000 0.0000000
0.4811589 1.0000000 0.0000000
0.5550593 1.0000000 0.0000000
0.6282457 1.0000000 0.0000000
0.7000023 1.0000000 0.0000000
0.7696132 1.0000000 0.0000000
0.8363625 1.0000000 0.0000000
0.8995342 1.0000000 0.0000000
0.9584123 1.0000000 0.0000000
1.0000000 1.0000000 0.0000000
0.0000000 0.0000000 0.0601925
0.0495444 0.0000000 0.0592539
0.1083385 0.0000000 0.0582268
0.1714225 0.0000000 0.0571236
0.2380820 0.0000000 0.0559565
0.3076023 0.0000000 0.0547378
0.3792687 0.0000000 0.0534798
0.4523665 0.0000000 0.0521951
0.5261810 0.0000000 0.0508961
0.5999972 0.0000000 0.0495954
0.6731002 0.0000000 0.0483055
0.7447750 0.0000000 0.0470391
0.8143066 0.0000000 0.0458091
0.8809798 0.0000000 0.0446282
0.9440796 0.0000000 0.0435094
1.0000000 0.0000000 0.0424654
1.0000000 0.0000000 0.0415093
0.0000000 0.0515197 0.0570310
0.0471240 0.0507132 0.0560892
0.1059215 0.0498321 0.0550587
0.1690092 0.0488873 0.0539519
0.2356726 0.0478898 0.0527809
0.3051969 0.0468502 0.0515581
0.3768675 0.0457793 0.0502961
0.4499696 0.0446880 0.0490071
0.5237883 0.0435868 0.0477038
0.5976088 0.0424865 0.0463987
0.6707160 0.0413978 0.0451046
0.7423950 0.0403311 0.0438341
0.8119307 0.0392972 0.0426000
0.8786078 0.0383065 0.0414153
0.9417112 0.0373696 0.0402927
1.0000000 0.0364970 0.0392454
1.0000000 0.0356991 0.0382861
0.0000000 0.1081379 0.0535634
0.0444905 0.1073330 0.0526182
0.1032917 0.1064538 0.0515840
0.1663835 0.1055111 0.0504731
0.2330511 0.1045156 0.0492979
0.3025798 0.1034782 0.0480707
0.3742550 0.1024097 0.0468041
0.4473617 0.1013206 0.0455105
0.5211851 0.1002218 0.0442025
0.5950102 0.0991239 0.0428927
0.6681221 0.0980374 0.0415939
0.7398057 0.0969731 0.0403189
0.8093458 0.0959413 0.0390804
0.8760271 0.0949528 0.0378914
0.9391345 0.0940179 0.0367649
0.9979527 0.0931471 0.0357137
1.0000000 0.0923509 0.0347511
0.0000000 0.1688930 0.0498289
0.0416788 0.1680900 0.0488800
0.1004841 0.1672128 0.0478418
0.1635802 0.1662722 0.0467266
0.2302523 0.1652790 0.0455468
0.2997858 0.1642440 0.0443149
0.3714658 0.1631779 0.0430434
0.4445775 0.1620914 0.0417448
0.5184060 0.1609951 0.0404318
0.5922361 0.1598996 0.0391170
0.6653530 0.1588157 0.0378132
0.7370415 0.1577538 0.0365333
0.8065863 0.1567244 0.0352901
0.8732722 0.1557381 0.0340965
0.9363839 0.1548054 0.0329657
0.9952061 0.1539366 0.0319105
1.0000000 0.1531423 0.0309442
0.0000000 0.2330981 0.0458671
0.0387236 0.2322970 0.0449143
0.0975331 0.2314220 0.0438718
0.1606337 0.2304836 0.0427521
0.2273107 0.2294929 0.0415675
0.2968492 0.2284604 0.0403306
0.3685344 0.2273968 0.0390539
0.4416513 0.2263129 0.0377501
0.5154851 0.2252193 0.0364317
0.5893206 0.2241265 0.0351116
0.6624428 0.2230452 0.0338026
0.7341364 0.2219858 0.0325175
0.8036862 0.2209590 0.0312692
0.8703769 0.2199751 0.0300709
0.9334932 0.2190446 0.0289355
0.9923196 0.2181780 0.0278761
1.0000000 0.2173856 0.0269060
0.0000000 0.3000658 0.0417181
0.0356589 0.2992668 0.0407612
0.0944728 0.2983939 0.0397144
0.1575782 0.2974580 0.0385899
0.2242601 0.2964697 0.0374003
0.2938038 0.2954398 0.0361582
0.3654944 0.2943789 0.0348761
0.4386169 0.2932978 0.0335667
0.5124562 0.2922069 0.0322429
0.5862972 0.2911169 0.0309172
0.6594249 0.2900383 0.0296027
0.7311239 0.2889817 0.0283122
0.8006789 0.2879575 0.0270588
0.8673746 0.2869761 0.0258554
0.9304956 0.2860480 0.0247153
0.9893265 0.2851835 0.0236515
1.0000000 0.2843932 0.0226773
0.0000000 0.3691085 0.0374227
0.0325180 0.3683115 0.0364617
0.0913365 0.3674409 0.0354103
0.1544467 0.3665074 0.0342809
0.2211338 0.3655217 0.0330862
0.2906829 0.3644945 0.0318386
0.3623791 0.3634365 0.0305510
0.4355072 0.3623581 0.0292360
0.5093522 0.3612701 0.0279064
0.5831990 0.3601830 0.0265750
0.6563323 0.3591072 0.0252548
0.7280368 0.3580534 0.0239588
0.7975973 0.3570318 0.0227000
0.8642981 0.3560530 0.0214915
0.9274240 0.3551274 0.0203464
0.9862594 0.3542652 0.0192781
1.0000000 0.3534769 0.0182997
0.0000000 0.4395382 0.0330224
0.0293337 0.4387433 0.0320572
0.0881568 0.4378750 0.0310011
0.1512720 0.4369440 0.0298667
0.2179644 0.4359610 0.0286667
0.2875190 0.4349365 0.0274137
0.3592208 0.4338813 0.0261204
0.4323547 0.4328058 0.0247996
0.5062056 0.4317207 0.0234642
0.5800582 0.4306365 0.0221270
0.6531973 0.4295636 0.0208010
0.7249075 0.4285126 0.0194993
0.7944734 0.4274938 0.0182350
0.8611795 0.4265176 0.0170212
0.9243104 0.4255945 0.0158712
0.9831504 0.4247346 0.0147982
1.0000000 0.4239485 0.0138156
0.0000000 0.5106664 0.0285594
0.0261380 0.5098737 0.0275898
0.0849658 0.5090078 0.0265291
0.1480860 0.5080793 0.0253897
0.2147837 0.5070989 0.0241843
0.2843439 0.5060772 0.0229258
0.3560514 0.5050248 0.0216268
0.4291911 0.5039523 0.0203002
0.5030479 0.5028701 0.0189588
0.5769064 0.5017889 0.0176158
0.6500513 0.5007189 0.0162840
0.7217672 0.4996707 0.0149765
0.7913386 0.4986547 0.0137067
0.8580501 0.4976812 0.0124876
0.9211860 0.4967606 0.0113325
0.9800307 0.4959031 0.0102549
1.0000000 0.4951190 0.0092679
0.0000000 0.5818046 0.0240765
0.0229621 0.5810140 0.0231027
0.0817946 0.5801504 0.0220372
0.1449198 0.5792245 0.0208928
0.2116229 0.5782467 0.0196821
0.2811885 0.5772278 0.0184181
0.3529018 0.5761783 0.0171133
0.4260473 0.5751087 0.0157809
0.4999100 0.5740295 0.0144337
0.5737743 0.5729511 0.0130847
0.6469251 0.5718841 0.0117471
0.7186467 0.5708388 0.0104339
0.7882237 0.5698256 0.0091585
0.8549405 0.5688547 0.0079341
0.9180815 0.5679366 0.0067740
0.9769309 0.5670814 0.0056917
1.0000000 0.5662995 0.0047004
0.0000000 0.6522636 0.0196175
0.0198364 0.6514751 0.0186395
0.0786736 0.6506139 0.0175694
0.1418038 0.6496904 0.0164200
0.2085121 0.6487153 0.0152040
0.2780833 0.6476991 0.0139345
0.3498022 0.6466524 0.0126241
0.4229535 0.6455857 0.0112859
0.4968220 0.6445094 0.0099328
0.5706922 0.6434340 0.0085780
0.6438487 0.6423699 0.0072346
0.7155760 0.6413274 0.0059158
0.7851585 0.6403169 0.0046349
0.8518806 0.6393486 0.0034052
0.9150265 0.6384330 0.0022402
0.9738805 0.6375802 0.0011531
1.0000000 0.6368004 0.0001577
0.0000000 0.7213539 0.0152269
0.0167908 0.7205675 0.0142447
0.0756325 0.7197085 0.0131700
0.1387676 0.7187875 0.0120157
0.2054811 0.7178150 0.0107947
0.2750576 0.7168015 0.0095197
0.3467821 0.7157576 0.0082038
0.4199391 0.7146937 0.0068599
0.4938132 0.7136202 0.0055011
0.5676892 0.7125477 0.0041406
0.6408513 0.7114864 0.0027915
0.7125842 0.7104467 0.0014672
0.7821721 0.7094388 0.0001809
0.8488993 0.7084732 0.0000000
0.9120501 0.7075600 0.0000000
0.9709087 0.7067095 0.0000000
1.0000000 0.7059318 0.0000000
0.0000000 0.7883856 0.0109499
0.0138541 0.7876013 0.0099636
0.0727002 0.7867445 0.0088845
0.1358401 0.7858258 0.0077255
0.2025586 0.7848558 0.0064994
0.2721404 0.7838449 0.0052192
0.3438702 0.7828037 0.0038979
0.4170327 0.7817426 0.0025485
0.4909124 0.7806719 0.0011842
0.5647939 0.7796021 0.0000000
0.6379615 0.7785436 0.0000000
0.7096998 0.7775065 0.0000000
0.7792929 0.7765013 0.0000000
0.8460251 0.7755382 0.0000000
0.9091807 0.7746274 0.0000000
0.9680437 0.7737790 0.0000000
1.0000000 0.7730034 0.0000000
0.0000000 0.8526686 0.0068322
0.0110547 0.8518862 0.0058421
0.0699051 0.8510315 0.0047588
0.1330495 0.8501152 0.0035952
0.1997728 0.8491475 0.0023643
0.2693596 0.8481392 0.0010791
0.3410946 0.8471005 0.0000000
0.4142623 0.8460420 0.0000000
0.4881474 0.8449740 0.0000000
0.5620341 0.8439069 0.0000000
0.6352071 0.8428510 0.0000000
0.7069505 0.8418165 0.0000000
0.7765486 0.8408138 0.0000000
0.8432856 0.8398531 0.0000000
0.9064457 0.8389445 0.0000000
0.9653130 0.8380983 0.0000000
1.0000000 0.8373246 0.0000000
0.0000000 0.9135124 0.0029205
0.0084203 0.9127318 0.0019266
0.0672747 0.9118791 0.0008393
0.1304234 0.9109649 0.0000000
0.1971512 0.9099996 0.0000000
0.2667428 0.9089936 0.0000000
0.3384826 0.9079574 0.0000000
0.4116554 0.9069014 0.0000000
0.4855455 0.9058359 0.0000000
0.5594373 0.9047713 0.0000000
0.6326152 0.9037178 0.0000000
0.7043635 0.9026858 0.0000000
0.7739663 0.9016855 0.0000000
0.8407079 0.9007271 0.0000000
0.9038723 0.8998206 0.0000000
0.9627436 0.8989764 0.0000000
1.0000000 0.8982046 0.0000000
0.0000000 0.9702262 0.0000000
0.0059780 0.9694473 0.0000000
0.0648361 0.9685965 0.0000000
0.1279889 0.9676843 0.0000000
0.1947209 0.9667210 0.0000000
0.2643169 0.9657173 0.0000000
0.3360613 0.9646833 0.0000000
0.4092387 0.9636296 0.0000000
0.4831335 0.9625665 0.0000000
0.5570300 0.9615042 0.0000000
0.6302126 0.9604531 0.0000000
0.7019654 0.9594234 0.0000000
0.7715727 0.9584253 0.0000000
0.8383185 0.9574689 0.0000000
0.9014869 0.9565645 0.0000000
0.9603619 0.9557222 0.0000000
1.0000000 0.9549520 0.0000000
0.0000000 1.0000000 0.0000000
0.0037546 1.0000000 0.0000000
0.0626161 1.0000000 0.0000000
0.1257726 1.0000000 0.0000000
0.1925085 1.0000000 0.0000000
0.2621085 1.0000000 0.0000000
0.3338571 1.0000000 0.0000000
0.4070387 1.0000000 0.0000000
0.4809378 1.0000000 0.0000000
0.5548386 1.0000000 0.0000000
0.6280254 1.0000000 0.0000000
0.6997824 1.0000000 0.0000000
0.7693937 1.0000000 0.0000000
0.8361434 1.0000000 0.0000000
0.8993155 1.0000000 0.0000000
0.9581939 1.0000000 0.0000000
1.0000000 1.0000000 0.0000000
0.0000000 0.0000000 0.1194259
0.0492768 0.0000000 0.1184868
0.1080712 0.0000000 0.1174594
0.1711557 0.0000000 0.1163558
0.2378156 0.0000000 0.1151882
0.3073364 0.0000000 0.1139691
0.3790033 0.0000000 0.1127107
0.4521015 0.0000000 0.1114255
0.5259164 0.0000000 0.1101261
0.5997331 0.0000000 0.1088248
0.6728366 0.0000000 0.1075345
0.7445119 0.0000000 0.1062677
0.8140439 0.0000000 0.1050372
0.8807176 0.0000000 0.1038559
0.9438177 0.0000000 0.1027366
1.0000000 0.0000000 0.1016923
1.0000000 0.0000000 0.1007358
0.0000000 0.0512203 0.1162632
0.0468575 0.0504139 0.1153211
0.1056554 0.0495330 0.1142902
0.1687436 0.0485884 0.1131829
0.2354074 0.0475911 0.1120115
0.3049321 0.0465517 0.1107883
0.3766032 0.0454811 0.1095258
0.4497057 0.0443900 0.1082363
0.5235249 0.0432891 0.1069326
0.5973459 0.0421890 0.1056270
0.6704536 0.0411005 0.1043324
0.7421330 0.0400341 0.1030615
0.8116691 0.0390004 0.1018270
0.8783467 0.0380099 0.1006418
0.9414505 0.0370732 0.0995188
1.0000000 0.0362007 0.0984711
1.0000000 0.0354030 0.0975115
0.0000000 0.1078391 0.1127943
0.0442253 0.1070344 0.1118488
0.1030269 0.1061553 0.1108142
0.1661191 0.1052128 0.1097029
0.2327871 0.1042176 0.1085272
0.3023163 0.1031804 0.1072996
0.3739919 0.1021121 0.1060325
0.4470991 0.1010233 0.1047384
0.5209230 0.0999247 0.1034300
0.5947486 0.0988270 0.1021198
0.6678610 0.0977408 0.1008205
0.7395450 0.0966767 0.0995450
0.8090855 0.0956452 0.0983061
0.8757673 0.0946568 0.0971166
0.9388751 0.0937221 0.0959897
0.9976937 0.0928515 0.0949382
1.0000000 0.0920555 0.0939752
0.0000000 0.1685949 0.1090584
0.0414150 0.1677920 0.1081092
0.1002207 0.1669150 0.1070706
0.1633171 0.1659746 0.1059550
0.2299897 0.1649817 0.1047748
0.2995236 0.1639469 0.1035424
0.3712041 0.1628810 0.1022705
0.4443163 0.1617947 0.1009714
0.5181452 0.1606986 0.0996579
0.5919759 0.1596034 0.0983427
0.6650932 0.1585197 0.0970384
0.7367821 0.1574580 0.0957580
0.8063274 0.1564289 0.0945144
0.8730137 0.1554428 0.0933204
0.9361259 0.1545103 0.0921891
0.9949484 0.1536417 0.0911336
1.0000000 0.1528475 0.0901670
0.0000000 0.2328007 0.1050952
0.0384613 0.2319998 0.1041420
0.0972712 0.2311249 0.1030992
0.1603722 0.2301868 0.1019790
0.2270495 0.2291962 0.1007940
0.2965885 0.2281639 0.0995567
0.3682741 0.2271006 0.0982796
0.4413916 0.2260170 0.0969752
0.5152258 0.2249236 0.0956564
0.5890618 0.2238310 0.0943358
0.6621844 0.2227499 0.0930263
0.7338785 0.2216908 0.0917408
0.8034287 0.2206642 0.0904921
0.8701199 0.2196805 0.0892933
0.9332365 0.2187503 0.0881575
0.9920633 0.2178838 0.0870978
1.0000000 0.2170916 0.0861273
0.0000000 0.2997692 0.1009447
0.0353980 0.2989703 0.0999875
0.0942123 0.2980976 0.0989402
0.1573181 0.2971618 0.0978154
0.2240005 0.2961738 0.0966253
0.2935446 0.2951441 0.0953828
0.3652357 0.2940835 0.0941002
0.4383586 0.2930026 0.0927904
0.5121984 0.2919119 0.0914661
0.5860399 0.2908222 0.0901399
0.6591680 0.2897438 0.0888249
0.7308675 0.2886874 0.0875340
0.8004230 0.2876634 0.0862801
0.8671191 0.2866822 0.0850763
0.9302405 0.2857543 0.0839358
0.9890717 0.2848901 0.0828716
1.0000000 0.2840999 0.0818971
0.0000000 0.3688126 0.0966478
0.0322587 0.3680158 0.0956864
0.0910776 0.3671454 0.0946346
0.1541882 0.3662121 0.0935048
0.2208757 0.3652266 0.0923097
0.2904253 0.3641996 0.0910617
0.3621219 0.3631418 0.0897736
0.4352505 0.3620637 0.0884581
0.5090960 0.3609759 0.0871281
0.5829432 0.3598890 0.0857962
0.6560770 0.3588135 0.0844756
0.7277820 0.3577599 0.0831791
0.7973429 0.3567385 0.0819198
0.8640442 0.3557600 0.0807108
0.9271705 0.3548345 0.0795654
0.9860062 0.3539725 0.0784967
1.0000000 0.3531844 0.0775180
0.0000000 0.4392431 0.0922459
0.0290760 0.4384484 0.0912803
0.0878995 0.4375803 0.0902238
0.1510151 0.4366495 0.0890891
0.2177079 0.4356666 0.0878886
0.2872630 0.4346424 0.0866352
0.3589652 0.4335874 0.0853414
0.4320996 0.4325122 0.0840202
0.5059509 0.4314273 0.0826843
0.5798040 0.4303433 0.0813466
0.6529435 0.4292707 0.0800202
0.7246542 0.4282199 0.0787180
0.7942205 0.4272013 0.0774532
0.8609271 0.4262254 0.0762390
0.9240584 0.4253024 0.0750886
0.9828988 0.4244428 0.0740153
1.0000000 0.4236568 0.0730323
0.0000000 0.5103721 0.0877812
0.0258818 0.5095796 0.0868114
0.0847100 0.5087138 0.0857502
0.1478307 0.5077855 0.0846104
0.2145288 0.5068054 0.0834047
0.2840894 0.5057839 0.0821457
0.3557974 0.5047317 0.0808462
0.4289376 0.5036594 0.0795191
0.5027948 0.5025775 0.0781773
0.5766537 0.5014965 0.0768338
0.6497991 0.5004268 0.0755015
0.7215155 0.4993788 0.0741936
0.7910874 0.4983630 0.0729233
0.8577993 0.4973897 0.0717038
0.9209356 0.4964693 0.0705483
0.9797807 0.4956120 0.0694703
1.0000000 0.4948281 0.0684830
0.0000000 0.5815111 0.0832968
0.0227075 0.5807207 0.0823226
0.0815404 0.5798573 0.0812568
0.1446661 0.5789315 0.0801120
0.2113695 0.5779540 0.0789009
0.2809357 0.5769353 0.0776363
0.3526493 0.5758860 0.0763312
0.4257954 0.5748166 0.0749983
0.4996585 0.5737377 0.0736506
0.5735233 0.5726596 0.0723011
0.6466745 0.5715928 0.0709630
0.7183966 0.5705477 0.0696494
0.7879741 0.5695347 0.0683736
0.8546913 0.5685640 0.0671487
0.9178327 0.5676461 0.0659882
0.9766824 0.5667911 0.0649055
1.0000000 0.5660094 0.0639139
0.0000000 0.6519709 0.0788363
0.0195834 0.6511826 0.0778579
0.0784210 0.6503215 0.0767874
0.1415516 0.6493982 0.0756376
0.2082604 0.6484233 0.0744212
0.2778320 0.6474074 0.0731512
0.3495513 0.6463609 0.0718403
0.4227031 0.6452944 0.0705016
0.4965721 0.6442184 0.0691481
0.5704427 0.6431432 0.0677929
0.6435997 0.6420793 0.0664490
0.7153275 0.6410370 0.0651297
0.7849104 0.6400268 0.0638484
0.8516329 0.6390588 0.0626183
0.9147793 0.6381433 0.0614528
0.9736337 0.6372907 0.0603654
1.0000000 0.6365111 0.0593696
0.0000000 0.7210619 0.0744441
0.0165393 0.7202757 0.0734615
0.0753814 0.7194169 0.0723865
0.1385170 0.7184961 0.0712318
0.2052309 0.7175238 0.0700103
0.2748079 0.7165105 0.0687349
0.3465328 0.7154668 0.0674185
0.4196902 0.7144032 0.0660741
0.4935649 0.7133300 0.0647149
0.5674413 0.7122577 0.0633539
0.6406039 0.7111966 0.0620044
0.7123372 0.7101571 0.0606796
0.7819256 0.7091495 0.0593928
0.8486532 0.7081841 0.0581575
0.9118044 0.7072711 0.0569872
0.9706634 0.7064207 0.0558952
1.0000000 0.7056432 0.0548953
0.0000000 0.7880944 0.0701655
0.0136042 0.7873102 0.0691789
0.0724507 0.7864536 0.0680995
0.1355910 0.7855352 0.0669400
0.2023099 0.7845654 0.0657135
0.2718921 0.7835547 0.0644329
0.3436224 0.7825137 0.0631111
0.4167853 0.7814528 0.0617613
0.4906655 0.7803824 0.0603965
0.5645475 0.7793129 0.0590299
0.6377156 0.7782545 0.0576749
0.7094543 0.7772177 0.0563447
0.7790479 0.7762128 0.0550528
0.8457805 0.7752498 0.0538125
