assets/luts/kodak/UVSR_Kodak_Ektar_100.cube
TITLE "Kodak Ektar 100 (UVSR)"
LUT_3D_SIZE 17
DOMAIN_MIN 0.0 0.0 0.0
DOMAIN_MAX 1.0 1.0 1.0
0.0000000 0.0000000 0.0000000
0.0617440 0.0000000 0.0000000
0.1270154 0.0000000 0.0000000
0.1953255 0.0000000 0.0000000
0.2661834 0.0000000 0.0000000
0.3390959 0.0000000 0.0000000
0.4135676 0.0000000 0.0000000
0.4891008 0.0000000 0.0000000
0.5651960 0.0000000 0.0000000
0.6413517 0.0000000 0.0000000
0.7170649 0.0000000 0.0000000
0.7918313 0.0000000 0.0000000
0.8651456 0.0000000 0.0000000
0.9365014 0.0000000 0.0000000
1.0000000 0.0000000 0.0000000
1.0000000 0.0000000 0.0000000
1.0000000 0.0000000 0.0000000
0.0000000 0.0573071 0.0000000
0.0554427 0.0554427 0.0000000
0.1207801 0.0534737 0.0000000
0.1891544 0.0514150 0.0000000
0.2600738 0.0492815 0.0000000
0.3330441 0.0470882 0.0000000
0.4075691 0.0448501 0.0000000
0.4831505 0.0425821 0.0000000
0.5592883 0.0402991 0.0000000
0.6354807 0.0380162 0.0000000
0.7112245 0.0357482 0.0000000
0.7860153 0.0335101 0.0000000
0.8593480 0.0313168 0.0000000
0.9307165 0.0291833 0.0000000
0.9996147 0.0271246 0.0000000
1.0000000 0.0251555 0.0000000
1.0000000 0.0232911 0.0000000
0.0000000 0.1178306 0.0000000
0.0485938 0.1159662 0.0000000
0.1139972 0.1139972 0.0000000
0.1824355 0.1119384 0.0000000
0.2534159 0.1098050 0.0000000
0.3264431 0.1076117 0.0000000
0.4010203 0.1053736 0.0000000
0.4766485 0.1031056 0.0000000
0.5528271 0.1008226 0.0000000
0.6290540 0.0985397 0.0000000
0.7048259 0.0962716 0.0000000
0.7796384 0.0940335 0.0000000
0.8529864 0.0918403 0.0000000
0.9243644 0.0897068 0.0000000
0.9932665 0.0876481 0.0000000
1.0000000 0.0856790 0.0000000
1.0000000 0.0838146 0.0000000
0.0000000 0.1811110 0.0000000
0.0412493 0.1792466 0.0000000
0.1067177 0.1772775 0.0000000
0.1752188 0.1752188 0.0000000
0.2462585 0.1730853 0.0000000
0.3193409 0.1708920 0.0000000
0.3939681 0.1686539 0.0000000
0.4696406 0.1663859 0.0000000
0.5458572 0.1641030 0.0000000
0.6221156 0.1618200 0.0000000
0.6979123 0.1595520 0.0000000
0.7727429 0.1573139 0.0000000
0.8461026 0.1551206 0.0000000
0.9174861 0.1529871 0.0000000
0.9863881 0.1509284 0.0000000
1.0000000 0.1489594 0.0000000
1.0000000 0.1470950 0.0000000
0.0000000 0.2466887 0.0000000
0.0334733 0.2448243 0.0000000
0.0990047 0.2428553 0.0000000
0.1675664 0.2407965 0.0000000
0.2386630 0.2386630 0.0000000
0.3117978 0.2364698 0.0000000
0.3864719 0.2342317 0.0000000
0.4621852 0.2319637 0.0000000
0.5384363 0.2296807 0.0000000
0.6147223 0.2273977 0.0000000
0.6905397 0.2251297 0.0000000
0.7653843 0.2228916 0.0000000
0.8387512 0.2206983 0.0000000
0.9101358 0.2185649 0.0000000
0.9790332 0.2165061 0.0000000
1.0000000 0.2145371 0.0000000
1.0000000 0.2126727 0.0000000
0.0000000 0.3141044 0.0000000
0.0253410 0.3122399 0.0000000
0.0909327 0.3102709 0.0000000
0.1595518 0.3082122 0.0000000
0.2307020 0.3060787 0.0000000
0.3038854 0.3038854 0.0000000
0.3786026 0.3016473 0.0000000
0.4543528 0.2993793 0.0000000
0.5306339 0.2970964 0.0000000
0.6069430 0.2948134 0.0000000
0.6827765 0.2925454 0.0000000
0.7576301 0.2903073 0.0000000
0.8309995 0.2881140 0.0000000
0.9023802 0.2859805 0.0000000
0.9712681 0.2839218 0.0000000
1.0000000 0.2819528 0.0000000
1.0000000 0.2800884 0.0000000
0.0000000 0.3828984 0.0000000
0.0169370 0.3810340 0.0000000
0.0825854 0.3790650 0.0000000
0.1512582 0.3770063 0.0000000
0.2224579 0.3748728 0.0000000
0.2956857 0.3726795 0.0000000
0.3704414 0.3704414 0.0000000
0.4462236 0.3681734 0.0000000
0.5225299 0.3658904 0.0000000
0.5988571 0.3636075 0.0000000
0.6747014 0.3613395 0.0000000
0.7495589 0.3591014 0.0000000
0.8229253 0.3569081 0.0000000
0.8942970 0.3547746 0.0000000
0.9631702 0.3527159 0.0000000
1.0000000 0.3507468 0.0000000
1.0000000 0.3488824 0.0000000
0.0000000 0.4526115 0.0000000
0.0083535 0.4507471 0.0000000
0.0740545 0.4487780 0.0000000
0.1427765 0.4467193 0.0000000
0.2140210 0.4445858 0.0000000
0.2872883 0.4423926 0.0000000
0.3620774 0.4401544 0.0000000
0.4378864 0.4378864 0.0000000
0.5142125 0.4356035 0.0000000
0.5905523 0.4333205 0.0000000
0.6664020 0.4310525 0.0000000
0.7412577 0.4288144 0.0000000
0.8146158 0.4266211 0.0000000
0.8859729 0.4244877 0.0000000
0.9548261 0.4224289 0.0000000
1.0000000 0.4204599 0.0000000
1.0000000 0.4185955 0.0000000
0.0000000 0.5227840 0.0000000
0.0000000 0.5209196 0.0000000
0.0654365 0.5189506 0.0000000
0.1342028 0.5168918 0.0000000
0.2054870 0.5147584 0.0000000
0.2787885 0.5125651 0.0000000
0.3536056 0.5103270 0.0000000
0.4294358 0.5080590 0.0000000
0.5057760 0.5057760 0.0000000
0.5821226 0.5034930 0.0000000
0.6579719 0.5012250 0.0000000
0.7328203 0.4989869 0.0000000
0.8061644 0.4967937 0.0000000
0.8775013 0.4946602 0.0000000
0.9463292 0.4926014 0.0000000
1.0000000 0.4906324 0.0000000
1.0000000 0.4887680 0.0000000
0.0000000 0.5929565 0.0000000
0.0000000 0.5910921 0.0000000
0.0568305 0.5891231 0.0000000
0.1256358 0.5870643 0.0000000
0.1969543 0.5849309 0.0000000
0.2702843 0.5827376 0.0000000
0.3451237 0.5804995 0.0000000
0.4209694 0.5782315 0.0000000
0.4973179 0.5759485 0.0000000
0.5736656 0.5736656 0.0000000
0.6495087 0.5713976 0.0000000
0.7243440 0.5691594 0.0000000
0.7976684 0.5669662 0.0000000
0.8689799 0.5648327 0.0000000
0.9377771 0.5627740 0.0000000
1.0000000 0.5608049 0.0000000
1.0000000 0.5589405 0.0000000
0.0000000 0.6626696 0.0000000
0.0000000 0.6608052 0.0000000
0.0483352 0.6588361 0.0000000
0.1171742 0.6567774 0.0000000
0.1885212 0.6546439 0.0000000
0.2618742 0.6524506 0.0000000
0.3367300 0.6502125 0.0000000
0.4125853 0.6479445 0.0000000
0.4889363 0.6456616 0.0000000
0.5652793 0.6433786 0.0000000
0.6411106 0.6411106 0.0000000
0.7159272 0.6388725 0.0000000
0.7892266 0.6366792 0.0000000
0.8605074 0.6345457 0.0000000
0.9292690 0.6324870 0.0000000
0.9950121 0.6305180 0.0000000
1.0000000 0.6286536 0.0000000
0.0000000 0.7314636 0.0000000
0.0000000 0.7295992 0.0000000
0.0400464 0.7276302 0.0000000
0.1089134 0.7255715 0.0000000
0.1802835 0.7234380 0.0000000
0.2536536 0.7212447 0.0000000
0.3285202 0.7190066 0.0000000
0.4043794 0.7167386 0.0000000
0.4807272 0.7144556 0.0000000
0.5570599 0.7121727 0.0000000
0.6328739 0.7099047 0.0000000
0.7076666 0.7076666 0.0000000
0.7809359 0.7054733 0.0000000
0.8521811 0.7033398 0.0000000
0.9209024 0.7012811 0.0000000
0.9866017 0.6993121 0.0000000
1.0000000 0.6974476 0.0000000
0.0000000 0.7988793 0.0000000
0.0000000 0.7970149 0.0000000
0.0320539 0.7950459 0.0000000
0.1009436 0.7929871 0.0000000
0.1723312 0.7908536 0.0000000
0.2457129 0.7886604 0.0000000
0.3205847 0.7864223 0.0000000
0.3964423 0.7841543 0.0000000
0.4727816 0.7818713 0.0000000
0.5490987 0.7795883 0.0000000
0.6248904 0.7773203 0.0000000
0.6996543 0.7750822 0.0000000
0.7728890 0.7728890 0.0000000
0.8440942 0.7707555 0.0000000
0.9127712 0.7686967 0.0000000
0.9784228 0.7667277 0.0000000
1.0000000 0.7648633 0.0000000
0.0000000 0.8644570 0.0000000
0.0000000 0.8625926 0.0000000
0.0244396 0.8606236 0.0000000
0.0933467 0.8585649 0.0000000
0.1647464 0.8564314 0.0000000
0.2381345 0.8542381 0.0000000
0.3130063 0.8520000 0.0000000
0.3888573 0.8497320 0.0000000
0.4651831 0.8474490 0.0000000
0.5414800 0.8451661 0.0000000
0.6172449 0.8428981 0.0000000
0.6919757 0.8406600 0.0000000
0.7651716 0.8384667 0.0000000
0.8363332 0.8363332 0.0000000
0.9049625 0.8342745 0.0000000
0.9705632 0.8323054 0.0000000
1.0000000 0.8304410 0.0000000
0.0000000 0.9277374 0.0000000
0.0000000 0.9258730 0.0000000
0.0172752 0.9239039 0.0000000
0.0861947 0.9218452 0.0000000
0.1576017 0.9197117 0.0000000
0.2309912 0.9175185 0.0000000
0.3058583 0.9152804 0.0000000
0.3816981 0.9130123 0.0000000
0.4580061 0.9107294 0.0000000
0.5342787 0.9084464 0.0000000
0.6100129 0.9061784 0.0000000
0.6847071 0.9039403 0.0000000
0.7578610 0.9017470 0.0000000
0.8289760 0.8996136 0.0000000
0.8975548 0.8975548 0.0000000
0.9631023 0.8955858 0.0000000
1.0000000 0.8937214 0.0000000
0.0000000 0.9882609 0.0000000
0.0000000 0.9863965 0.0000000
0.0106206 0.9844274 0.0000000
0.0795480 0.9823687 0.0000000
0.1509578 0.9802352 0.0000000
0.2243445 0.9780419 0.0000000
0.2992027 0.9758038 0.0000000
0.3750274 0.9735358 0.0000000
0.4513140 0.9712529 0.0000000
0.5275588 0.9689699 0.0000000
0.6032593 0.9667019 0.0000000
0.6779141 0.9644638 0.0000000
0.7510237 0.9622705 0.0000000
0.8220899 0.9601370 0.0000000
0.8906165 0.9580783 0.0000000
0.9561093 0.9561093 0.0000000
1.0000000 0.9542449 0.0000000
0.0000000 1.0000000 0.0000000
0.0000000 1.0000000 0.0000000
0.0045232 1.0000000 0.0000000
0.0734545 1.0000000 0.0000000
0.1448632 1.0000000 0.0000000
0.2182434 1.0000000 0.0000000
0.2930893 1.0000000 0.0000000
0.3688957 1.0000000 0.0000000
0.4451580 1.0000000 0.0000000
0.5213726 1.0000000 0.0000000
0.5970372 1.0000000 0.0000000
0.6716509 1.0000000 0.0000000
0.7447145 1.0000000 0.0000000
0.8157308 1.0000000 0.0000000
0.8842044 1.0000000 0.0000000
0.9496419 1.0000000 0.0000000
1.0000000 1.0000000 0.0000000
0.0000000 0.0000000 0.0629540
0.0611206 0.0000000 0.0611128
0.1264019 0.0000000 0.0591677
0.1947217 0.0000000 0.0571334
0.2655891 0.0000000 0.0550244
0.3385107 0.0000000 0.0528557
0.4129910 0.0000000 0.0506417
0.4885322 0.0000000 0.0483974
0.5646348 0.0000000 0.0461375
0.6407972 0.0000000 0.0438768
0.7165163 0.0000000 0.0416300
0.7912879 0.0000000 0.0394121
0.8646066 0.0000000 0.0372378
0.9359661 0.0000000 0.0351221
1.0000000 0.0000000 0.0330798
1.0000000 0.0000000 0.0311258
1.0000000 0.0000000 0.0292751
0.0000000 0.0566740 0.0566740
0.0548096 0.0548096 0.0548096
0.1201562 0.0528405 0.0528405
0.1885396 0.0507818 0.0507818
0.2594678 0.0486483 0.0486483
0.3324465 0.0464551 0.0464551
0.4069795 0.0442169 0.0442169
0.4825683 0.0419489 0.0419489
0.5587128 0.0396660 0.0396660
0.6349112 0.0373830 0.0373830
0.7106602 0.0351150 0.0351150
0.7854556 0.0328769 0.0328769
0.8587920 0.0306836 0.0306836
0.9301636 0.0285501 0.0285501
0.9990641 0.0264914 0.0264914
1.0000000 0.0245224 0.0245224
1.0000000 0.0226580 0.0226580
0.0000000 0.1171975 0.0498837
0.0479520 0.1153331 0.0479988
0.1133640 0.1133640 0.0460087
0.1818108 0.1113053 0.0439287
0.2527993 0.1091718 0.0417739
0.3258343 0.1069785 0.0395595
0.4004187 0.1047404 0.0373007
0.4760536 0.1024724 0.0350125
0.5522382 0.1001895 0.0327102
0.6284704 0.0979065 0.0304087
0.7042468 0.0956385 0.0281231
0.7790632 0.0934004 0.0258686
0.8524143 0.0912071 0.0236600
0.9237946 0.0890736 0.0215124
0.9926984 0.0870149 0.0194408
1.0000000 0.0850459 0.0174601
1.0000000 0.0831815 0.0155852
0.0000000 0.1804778 0.0426342
0.0406004 0.1786134 0.0407323
0.1060767 0.1766444 0.0387249
0.1745856 0.1745856 0.0366275
0.2456328 0.1724522 0.0344555
0.3187223 0.1702589 0.0322243
0.3933560 0.1680208 0.0299491
0.4690343 0.1657528 0.0276453
0.5452562 0.1634698 0.0253281
0.6215191 0.1611868 0.0230127
0.6973196 0.1589188 0.0207142
0.7721533 0.1566807 0.0184478
0.8455154 0.1544875 0.0162284
0.9169005 0.1523540 0.0140711
0.9858036 0.1502952 0.0119909
1.0000000 0.1483262 0.0100027
1.0000000 0.1464618 0.0081214
0.0000000 0.2460555 0.0349865
0.0328190 0.2441911 0.0330718
0.0983577 0.2422221 0.0310515
0.1669265 0.2401634 0.0289414
0.2380299 0.2380299 0.0267570
0.3111709 0.2358366 0.0245139
0.3858508 0.2335985 0.0222276
0.4615692 0.2313305 0.0199134
0.5378247 0.2290475 0.0175867
0.6141145 0.2267646 0.0152627
0.6899350 0.2244966 0.0129566
0.7647818 0.2222585 0.0106836
0.8381504 0.2200652 0.0084587
0.9095359 0.2179317 0.0062968
0.9784337 0.2158730 0.0042130
1.0000000 0.2139039 0.0022220
1.0000000 0.2120395 0.0003387
0.0000000 0.3134712 0.0270105
0.0246833 0.3116068 0.0250876
0.0902816 0.3096377 0.0230594
0.1589071 0.3075790 0.0209418
0.2300633 0.3054455 0.0187506
0.3032523 0.3032523 0.0165013
0.3779744 0.3010142 0.0142095
0.4537289 0.2987461 0.0118908
0.5300137 0.2964632 0.0095605
0.6063258 0.2941802 0.0072339
0.6821615 0.2919122 0.0049262
0.7570166 0.2896741 0.0026525
0.8303869 0.2874808 0.0004278
0.9017678 0.2853474 0.0000000
0.9706553 0.2832886 0.0000000
1.0000000 0.2813196 0.0000000
1.0000000 0.2794552 0.0000000
0.0000000 0.3822653 0.0187835
0.0162782 0.3804009 0.0168576
0.0819325 0.3784318 0.0148270
0.1506109 0.3763731 0.0127077
0.2218158 0.3742396 0.0105155
0.2950484 0.3720464 0.0082661
0.3698082 0.3698082 0.0059751
0.4455940 0.3675402 0.0036582
0.5219031 0.3652573 0.0013308
0.5982324 0.3629743 0.0000000
0.6740782 0.3607063 0.0000000
0.7489364 0.3584682 0.0000000
0.8223029 0.3562749 0.0000000
0.8936740 0.3541415 0.0000000
0.9625461 0.3520827 0.0000000
1.0000000 0.3501137 0.0000000
1.0000000 0.3482493 0.0000000
0.0000000 0.4519783 0.0103893
0.0076958 0.4501139 0.0084658
0.0734020 0.4481449 0.0064385
0.1421289 0.4460861 0.0043234
0.2133778 0.4439527 0.0021364
0.2866491 0.4417594 0.0000000
0.3614416 0.4395213 0.0000000
0.4372533 0.4372533 0.0000000
0.5135814 0.4349703 0.0000000
0.5899225 0.4326874 0.0000000
0.6657728 0.4304194 0.0000000
0.7406284 0.4281812 0.0000000
0.8139858 0.4259880 0.0000000
0.8853415 0.4238545 0.0000000
0.9541929 0.4217958 0.0000000
1.0000000 0.4198267 0.0000000
1.0000000 0.4179623 0.0000000
0.0000000 0.5221508 0.0019153
0.0000000 0.5202864 0.0000000
0.0647868 0.5183174 0.0000000
0.1335572 0.5162587 0.0000000
0.2048451 0.5141252 0.0000000
0.2781497 0.5119319 0.0000000
0.3529693 0.5096938 0.0000000
0.4288014 0.5074258 0.0000000
0.5051428 0.5051428 0.0000000
0.5814900 0.5028599 0.0000000
0.6573391 0.5005919 0.0000000
0.7321865 0.4983538 0.0000000
0.8055291 0.4961605 0.0000000
0.8768639 0.4940270 0.0000000
0.9456892 0.4919683 0.0000000
1.0000000 0.4899992 0.0000000
1.0000000 0.4881348 0.0000000
0.0000000 0.5923234 0.0000000
0.0000000 0.5904590 0.0000000
0.0561859 0.5884899 0.0000000
0.1249946 0.5864312 0.0000000
0.1963160 0.5842977 0.0000000
0.2696484 0.5821044 0.0000000
0.3444895 0.5798663 0.0000000
0.4203362 0.5775983 0.0000000
0.4966851 0.5753154 0.0000000
0.5730324 0.5730324 0.0000000
0.6488745 0.5707644 0.0000000
0.7237081 0.5685263 0.0000000
0.7970302 0.5663330 0.0000000
0.8683388 0.5641995 0.0000000
0.9371326 0.5621408 0.0000000
1.0000000 0.5601718 0.0000000
1.0000000 0.5583074 0.0000000
0.0000000 0.6620364 0.0000000
0.0000000 0.6601720 0.0000000
0.0476981 0.6582030 0.0000000
0.1165397 0.6561442 0.0000000
0.1878889 0.6540108 0.0000000
0.2612434 0.6518175 0.0000000
0.3361001 0.6495794 0.0000000
0.4119557 0.6473114 0.0000000
0.4883062 0.6450284 0.0000000
0.5646480 0.6427454 0.0000000
0.6404774 0.6404774 0.0000000
0.7152915 0.6382393 0.0000000
0.7885878 0.6360461 0.0000000
0.8598649 0.6339126 0.0000000
0.9286224 0.6318538 0.0000000
0.9943611 0.6298848 0.0000000
1.0000000 0.6280204 0.0000000
0.0000000 0.7308305 0.0000000
0.0000000 0.7289661 0.0000000
0.0394189 0.7269970 0.0000000
0.1082878 0.7249383 0.0000000
0.1796593 0.7228048 0.0000000
0.2530302 0.7206116 0.0000000
0.3278969 0.7183735 0.0000000
0.4037555 0.7161054 0.0000000
0.4801020 0.7138225 0.0000000
0.5564327 0.7115395 0.0000000
0.6322441 0.7092715 0.0000000
0.7070334 0.7070334 0.0000000
0.7802988 0.7048401 0.0000000
0.8515396 0.7027067 0.0000000
0.9202561 0.7006479 0.0000000
0.9859502 0.6986789 0.0000000
1.0000000 0.6968145 0.0000000
0.0000000 0.7982461 0.0000000
0.0000000 0.7963817 0.0000000
0.0314381 0.7944127 0.0000000
0.1003289 0.7923540 0.0000000
0.1717171 0.7902205 0.0000000
0.2450988 0.7880272 0.0000000
0.3199700 0.7857891 0.0000000
0.3958262 0.7835211 0.0000000
0.4721634 0.7812381 0.0000000
0.5484778 0.7789552 0.0000000
0.6242660 0.7766872 0.0000000
0.6990258 0.7744491 0.0000000
0.7722558 0.7722558 0.0000000
0.8434559 0.7701223 0.0000000
0.9121273 0.7680636 0.0000000
0.9777730 0.7660945 0.0000000
1.0000000 0.7642301 0.0000000
0.0000000 0.8638239 0.0000000
0.0000000 0.8619595 0.0000000
0.0238372 0.8599904 0.0000000
0.0927448 0.8579317 0.0000000
0.1641444 0.8557982 0.0000000
0.2375317 0.8536050 0.0000000
0.3124021 0.8513668 0.0000000
0.3882509 0.8490988 0.0000000
0.4645739 0.8468159 0.0000000
0.5408672 0.8445329 0.0000000
0.6166279 0.8422649 0.0000000
0.6913539 0.8400268 0.0000000
0.7645444 0.8378335 0.0000000
0.8357001 0.8357001 0.0000000
0.9043231 0.8336413 0.0000000
0.9699172 0.8316723 0.0000000
1.0000000 0.8298079 0.0000000
0.0000000 0.9271042 0.0000000
0.0000000 0.9252398 0.0000000
0.0166877 0.9232708 0.0000000
0.0856070 0.9212121 0.0000000
0.1570132 0.9190786 0.0000000
0.2304012 0.9168853 0.0000000
0.3052662 0.9146472 0.0000000
0.3811031 0.9123792 0.0000000
0.4574075 0.9100962 0.0000000
0.5336757 0.9078133 0.0000000
0.6094050 0.9055453 0.0000000
0.6840936 0.9033071 0.0000000
0.7572414 0.9011139 0.0000000
0.8283498 0.8989804 0.0000000
0.8969217 0.8969217 0.0000000
0.9624620 0.8949526 0.0000000
1.0000000 0.8930882 0.0000000
0.0000000 0.9876277 0.0000000
0.0000000 0.9857633 0.0000000
0.0100492 0.9837943 0.0000000
0.0789757 0.9817355 0.0000000
0.1503840 0.9796021 0.0000000
0.2237686 0.9774088 0.0000000
0.2986239 0.9751707 0.0000000
0.3744450 0.9729027 0.0000000
0.4507273 0.9706197 0.0000000
0.5269671 0.9683367 0.0000000
0.6026619 0.9660687 0.0000000
0.6773105 0.9638306 0.0000000
0.7504132 0.9616374 0.0000000
0.8214721 0.9595039 0.0000000
0.8899911 0.9574452 0.0000000
0.9554761 0.9554761 0.0000000
1.0000000 0.9536117 0.0000000
0.0000000 1.0000000 0.0000000
0.0000000 1.0000000 0.0000000
0.0039687 1.0000000 0.0000000
0.0728984 1.0000000 0.0000000
0.1443050 1.0000000 0.0000000
0.2176824 1.0000000 0.0000000
0.2925248 1.0000000 0.0000000
0.3683270 1.0000000 0.0000000
0.4445842 1.0000000 0.0000000
0.5207931 1.0000000 0.0000000
0.5964513 1.0000000 0.0000000
0.6710581 1.0000000 0.0000000
0.7441142 1.0000000 0.0000000
0.8151227 1.0000000 0.0000000
0.8835880 1.0000000 0.0000000
0.9490172 1.0000000 0.0000000
1.0000000 1.0000000 0.0000000
0.0000000 0.0000000 0.1294585
0.0604622 0.0000000 0.1276414
0.1257537 0.0000000 0.1257212
0.1940837 0.0000000 0.1237122
0.2649610 0.0000000 0.1216287
0.3378921 0.0000000 0.1194853
0.4123814 0.0000000 0.1172965
0.4879310 0.0000000 0.1150767
0.5640413 0.0000000 0.1128406
0.6402106 0.0000000 0.1106029
0.7159359 0.0000000 0.1083780
0.7907129 0.0000000 0.1061809
0.8640361 0.0000000 0.1040262
0.9353995 0.0000000 0.1019287
1.0000000 0.0000000 0.0999033
1.0000000 0.0000000 0.0979649
1.0000000 0.0000000 0.0961283
0.0000000 0.0560053 0.1232496
0.0541409 0.0541409 0.1214076
0.1194971 0.0521718 0.1194616
0.1878901 0.0501131 0.1174262
0.2588275 0.0479796 0.1153162
0.3318151 0.0457864 0.1131462
0.4063563 0.0435482 0.1109310
0.4819527 0.0412802 0.1086854
0.5581042 0.0389973 0.1064241
0.6343089 0.0367143 0.1041620
0.7100634 0.0344463 0.1019138
0.7848634 0.0322082 0.0996943
0.8582037 0.0300149 0.0975186
0.9295784 0.0278815 0.0954014
0.9984813 0.0258227 0.0933576
1.0000000 0.0238537 0.0914022
1.0000000 0.0219893 0.0895501
0.0000000 0.1165288 0.1165288
0.0472743 0.1146644 0.1146644
0.1126953 0.1126953 0.1126953
0.1811510 0.1106366 0.1106366
0.2521480 0.1085031 0.1085031
0.3251911 0.1063098 0.1063098
0.3997830 0.1040717 0.1040717
0.4754248 0.1018037 0.1018037
0.5516156 0.0995208 0.0995208
0.6278533 0.0972378 0.0972378
0.7036344 0.0949698 0.0949698
0.7784547 0.0927317 0.0927317
0.8518090 0.0905384 0.0905384
0.9231917 0.0884049 0.0884049
0.9920972 0.0863462 0.0863462
1.0000000 0.0843772 0.0843772
1.0000000 0.0825128 0.0825128
0.0000000 0.1798091 0.1093456
0.0399152 0.1779447 0.1074622
0.1053999 0.1759757 0.1054738
0.1739169 0.1739169 0.1033956
0.2449719 0.1717835 0.1012427
0.3180687 0.1695902 0.0990303
0.3927091 0.1673521 0.0967735
0.4683936 0.1650841 0.0944874
0.5446209 0.1628011 0.0921872
0.6208885 0.1605181 0.0898880
0.6966929 0.1582501 0.0876046
0.7715298 0.1560120 0.0853523
0.8448943 0.1538188 0.0831460
0.9162811 0.1516853 0.0810006
0.9851851 0.1496265 0.0789311
1.0000000 0.1476575 0.0769525
1.0000000 0.1457931 0.0750796
0.0000000 0.2453868 0.1017599
0.0321283 0.2435224 0.0998616
0.0976746 0.2415534 0.0978582
0.1662508 0.2394947 0.0957650
0.2373612 0.2373612 0.0935974
0.3105087 0.2351679 0.0913708
0.3851946 0.2329298 0.0891004
0.4609184 0.2306618 0.0868015
0.5371785 0.2283788 0.0844893
0.6134721 0.2260959 0.0821790
0.6892957 0.2238279 0.0798856
0.7641449 0.2215898 0.0776243
0.8375151 0.2193965 0.0754100
0.9089015 0.2172630 0.0732577
0.9777995 0.2152043 0.0711824
1.0000000 0.2132352 0.0691989
1.0000000 0.2113708 0.0673221
0.0000000 0.3128025 0.0938403
0.0239892 0.3109381 0.0919318
0.0895944 0.3089691 0.0899183
0.1582265 0.3069103 0.0878154
0.2293889 0.3047768 0.0856385
0.3025836 0.3025836 0.0834032
0.3773109 0.3003455 0.0811249
0.4530698 0.2980775 0.0788190
0.5293584 0.2957945 0.0765006
0.6056735 0.2935115 0.0741851
0.6815115 0.2912435 0.0718876
0.7563681 0.2890054 0.0696231
0.8297391 0.2868121 0.0674067
0.9011202 0.2846787 0.0652532
0.9700072 0.2826199 0.0631774
1.0000000 0.2806509 0.0611943
1.0000000 0.2787865 0.0593185
0.0000000 0.3815966 0.0856634
0.0155829 0.3797322 0.0837499
0.0812434 0.3777631 0.0817317
0.1499276 0.3757044 0.0796246
0.2211380 0.3735709 0.0774444
0.2943754 0.3713777 0.0752065
0.3691395 0.3691395 0.0729265
0.4449289 0.3668715 0.0706198
0.5212409 0.3645886 0.0683017
0.5975724 0.3623056 0.0659875
0.6734196 0.3600376 0.0636922
0.7482785 0.3577995 0.0614308
0.8216450 0.3556062 0.0592184
0.8930154 0.3534728 0.0570696
0.9618862 0.3514140 0.0549993
1.0000000 0.3494450 0.0530221
1.0000000 0.3475806 0.0511527
0.0000000 0.4513096 0.0773122
0.0070018 0.4494452 0.0753989
0.0727134 0.4474762 0.0733818
0.1414453 0.4454174 0.0712766
0.2126989 0.4432840 0.0690991
0.2859742 0.4410907 0.0668650
0.3607701 0.4388526 0.0645899
0.4365846 0.4365846 0.0622891
0.5129147 0.4343016 0.0599779
0.5892571 0.4320187 0.0576716
0.6651079 0.4297507 0.0553852
0.7399634 0.4275125 0.0531336
0.8133199 0.4253193 0.0509317
0.8846742 0.4231858 0.0487940
0.9535234 0.4211271 0.0467353
1.0000000 0.4191580 0.0447699
1.0000000 0.4172936 0.0429123
0.0000000 0.5214821 0.0688737
0.0000000 0.5196177 0.0669662
0.0641012 0.5176487 0.0649560
0.1328759 0.5155900 0.0628588
0.2041675 0.5134565 0.0606906
0.2774754 0.5112632 0.0584668
0.3522976 0.5090251 0.0562032
0.4281316 0.5067571 0.0539151
0.5044741 0.5044741 0.0516178
0.5808217 0.5021912 0.0493263
0.6566704 0.4999232 0.0470556
0.7315169 0.4976851 0.0448204
0.8048577 0.4954918 0.0426356
0.8761902 0.4933583 0.0405155
0.9450126 0.4912996 0.0384745
1.0000000 0.4893305 0.0365269
1.0000000 0.4874661 0.0346867
0.0000000 0.5916547 0.0604372
0.0000000 0.5897903 0.0585412
0.0555058 0.5878212 0.0565437
0.1243180 0.5857625 0.0544607
0.1956424 0.5836290 0.0523080
0.2689771 0.5814357 0.0501012
0.3438200 0.5791976 0.0478558
0.4196677 0.5769296 0.0455872
0.4960168 0.5746467 0.0433105
0.5723637 0.5723637 0.0410406
0.6482046 0.5700957 0.0387924
0.7230363 0.5678576 0.0365804
0.7963558 0.5656643 0.0344192
0.8676613 0.5635308 0.0323230
0.9364515 0.5614721 0.0303059
1.0000000 0.5595031 0.0283819
1.0000000 0.5576387 0.0265649
0.0000000 0.6613677 0.0520920
0.0000000 0.6595033 0.0502128
0.0470260 0.6575343 0.0482339
0.1158703 0.6554755 0.0461711
0.1872216 0.6533421 0.0440402
0.2605777 0.6511488 0.0418567
0.3354353 0.6489107 0.0396360
0.4112910 0.6466427 0.0373934
0.4876409 0.6443597 0.0351439
0.5639813 0.6420767 0.0329023
0.6398087 0.6398087 0.0306831
0.7146201 0.6375706 0.0285008
0.7879130 0.6353774 0.0263696
0.8591861 0.6332439 0.0243035
0.9279392 0.6311851 0.0223162
0.9936730 0.6292161 0.0204216
1.0000000 0.6273517 0.0186330
0.0000000 0.7301618 0.0439250
0.0000000 0.7282974 0.0420679
0.0387571 0.7263283 0.0401129
0.1076280 0.7242696 0.0380760
0.1790008 0.7221361 0.0359727
0.2523723 0.7199429 0.0338186
0.3272391 0.7177048 0.0316288
0.4030970 0.7154368 0.0294185
0.4794421 0.7131538 0.0272025
0.5557705 0.7108708 0.0249953
0.6315790 0.7086028 0.0228114
0.7063647 0.7063647 0.0206648
0.7796259 0.7041714 0.0185695
0.8508619 0.7020380 0.0165392
0.9195732 0.6999792 0.0145874
0.9852617 0.6980102 0.0127274
1.0000000 0.6961458 0.0109723
0.0000000 0.7975774 0.0360189
0.0000000 0.7957130 0.0341885
0.0307887 0.7937440 0.0322626
0.0996807 0.7916853 0.0302567
0.1710694 0.7895518 0.0281865
0.2444511 0.7873585 0.0260672
0.3193214 0.7851204 0.0239140
0.3951761 0.7828524 0.0217416
0.4715110 0.7805694 0.0195647
0.5478223 0.7782865 0.0173977
0.6236068 0.7760185 0.0152546
0.6983622 0.7737804 0.0131493
0.7715871 0.7715871 0.0110954
0.8427816 0.7694536 0.0091061
