assets/luts/kodak/UVSR_Kodak_Ektar_100.cube
TITLE "Kodak Ektar 100 (UVSR)"
LUT_3D_SIZE 5
DOMAIN_MIN 0.0 0.0 0.0
DOMAIN_MAX 1.0 1.0 1.0
0.0000000 0.0000000 0.0000000
0.2661834 0.0000000 0.0000000
0.5651960 0.0000000 0.0000000
0.8651456 0.0000000 0.0000000
1.0000000 0.0000000 0.0000000
0.0000000 0.2466887 0.0000000
0.2386630 0.2386630 0.0000000
0.5384363 0.2296807 0.0000000
0.8387512 0.2206983 0.0000000
1.0000000 0.2126727 0.0000000
0.0000000 0.5227840 0.0000000
0.2054870 0.5147584 0.0000000
0.5057760 0.5057760 0.0000000
0.8061644 0.4967937 0.0000000
1.0000000 0.4887680 0.0000000
0.0000000 0.7988793 0.0000000
0.1723312 0.7908536 0.0000000
0.4727816 0.7818713 0.0000000
0.7728890 0.7728890 0.0000000
1.0000000 0.7648633 0.0000000
0.0000000 1.0000000 0.0000000
0.1448632 1.0000000 0.0000000
0.4451580 1.0000000 0.0000000
0.7447145 1.0000000 0.0000000
1.0000000 1.0000000 0.0000000
0.0000000 0.0000000 0.2711086
0.2636225 0.0000000 0.2634852
0.5627749 0.0000000 0.2549009
0.8628175 0.0000000 0.2462613
1.0000000 0.0000000 0.2384953
0.0000000 0.2439631 0.2439631
0.2359375 0.2359375 0.2359375
0.5358011 0.2269551 0.2269551
0.8361595 0.2179728 0.2179728
1.0000000 0.2099471 0.2099471
0.0000000 0.5200585 0.2114495
0.2027265 0.5120328 0.2033252
0.5030505 0.5030505 0.1942910
0.8034269 0.4940681 0.1853186
1.0000000 0.4860425 0.1773540
0.0000000 0.7961537 0.1787068
0.1696934 0.7881281 0.1708553
0.4701234 0.7791457 0.1621849
0.7701634 0.7701634 0.1536381
1.0000000 0.7621377 0.1461061
0.0000000 1.0000000 0.1509691
0.1424684 1.0000000 0.1436756
0.4426933 1.0000000 0.1356819
0.7421330 1.0000000 0.1278670
1.0000000 1.0000000 0.1210357
0.0000000 0.0000000 0.5748698
0.2607487 0.0000000 0.5676612
0.5600492 0.0000000 0.5594826
0.8601874 0.0000000 0.5511869
1.0000000 0.0000000 0.5436759
0.0000000 0.2409127 0.5488218
0.2328870 0.2328870 0.5410617
0.5328433 0.2239047 0.5323181
0.8332420 0.2149224 0.5235127
1.0000000 0.2068967 0.5155929
0.0000000 0.5170080 0.5170080
0.1996453 0.5089824 0.5089824
0.5000000 0.5000000 0.5000000
0.8003547 0.4910177 0.4910177
1.0000000 0.4829920 0.4829920
0.0000000 0.7931033 0.4844071
0.1667580 0.7850776 0.4764873
0.4671567 0.7760953 0.4676819
0.7671130 0.7671130 0.4589383
1.0000000 0.7590873 0.4511782
0.0000000 1.0000000 0.4563241
0.1398126 1.0000000 0.4488131
0.4399508 1.0000000 0.4405174
0.7392513 1.0000000 0.4323388
1.0000000 1.0000000 0.4251302
0.0000000 0.0000000 0.8789643
0.2578670 0.0000000 0.8721330
0.5573067 0.0000000 0.8643181
0.8575316 0.0000000 0.8563244
1.0000000 0.0000000 0.8490309
0.0000000 0.2378622 0.8538939
0.2298366 0.2298366 0.8463619
0.5298766 0.2208543 0.8378151
0.8303066 0.2118719 0.8291447
1.0000000 0.2038463 0.8212932
0.0000000 0.5139575 0.8226460
0.1965731 0.5059319 0.8146814
0.4969496 0.4969496 0.8057090
0.7972735 0.4879672 0.7966748
1.0000000 0.4799415 0.7885505
0.0000000 0.7900528 0.7900528
0.1638405 0.7820272 0.7820272
0.4641989 0.7730449 0.7730449
0.7640625 0.7640625 0.7640625
1.0000000 0.7560368 0.7560368
0.0000000 1.0000000 0.7615047
0.1371825 1.0000000 0.7537387
0.4372251 1.0000000 0.7450991
0.7363775 1.0000000 0.7365148
1.0000000 1.0000000 0.7288914
0.0000000 0.0000000 1.0000000
0.2552855 0.0000000 1.0000000
0.5548420 0.0000000 1.0000000
0.8551368 0.0000000 1.0000000
1.0000000 0.0000000 1.0000000
0.0000000 0.2351367 1.0000000
0.2271111 0.2271111 1.0000000
0.5272184 0.2181287 1.0000000
0.8276688 0.2091464 1.0000000
1.0000000 0.2011207 1.0000000
0.0000000 0.5112320 1.0000000
0.1938356 0.5032064 1.0000000
0.4942240 0.4942240 1.0000000
0.7945130 0.4852417 1.0000000
1.0000000 0.4772160 1.0000000
0.0000000 0.7873273 1.0000000
0.1612488 0.7793016 1.0000000
0.4615637 0.7703193 1.0000000
0.7613370 0.7613370 1.0000000
1.0000000 0.7533113 1.0000000
0.0000000 1.0000000 1.0000000
0.1348544 1.0000000 1.0000000
0.4348040 1.0000000 1.0000000
0.7338166 1.0000000 1.0000000
1.0000000 1.0000000 1.0000000
