assets/luts/kodak/UVSR_Kodak_Portra_400.cube
TITLE "Kodak Portra 400 (UVSR)"
LUT_3D_SIZE 9
DOMAIN_MIN 0.0 0.0 0.0
DOMAIN_MAX 1.0 1.0 1.0
0.0000000 0.0000000 0.0000000
0.1239283 0.0000000 0.0000000
0.2528947 0.0000000 0.0000000
0.3851876 0.0000000 0.0000000
0.5190995 0.0000000 0.0000000
0.6529271 0.0000000 0.0000000
0.7849712 0.0000000 0.0000000
0.9135369 0.0000000 0.0000000
1.0000000 0.0000000 0.0000000
0.0013838 0.1216949 0.0000000
0.1250698 0.1211336 0.0000000
0.2537840 0.1205274 0.0000000
0.3858181 0.1198820 0.0000000
0.5194678 0.1192042 0.0000000
0.6530332 0.1185024 0.0000000
0.7848184 0.1177859 0.0000000
0.9131319 0.1170652 0.0000000
1.0000000 0.1163520 0.0000000
0.0019587 0.2481648 0.0000000
0.1253926 0.2475315 0.0000000
0.2538442 0.2468502 0.0000000
0.3856087 0.2461278 0.0000000
0.5189854 0.2453720 0.0000000
0.6522777 0.2445922 0.0000000
0.7837934 0.2437986 0.0000000
0.9118443 0.2430029 0.0000000
1.0000000 0.2422177 0.0000000
0.0016301 0.3777140 0.0000000
0.1248051 0.3770067 0.0000000
0.2529871 0.3762484 0.0000000
0.3844750 0.3754469 0.0000000
0.5175714 0.3746111 0.0000000
0.6505835 0.3737512 0.0000000
0.7818225 0.3728786 0.0000000
0.9096039 0.3720059 0.0000000
1.0000000 0.3711467 0.0000000
0.0003484 0.5086596 0.0000000
0.1232613 0.5078774 0.0000000
0.2511703 0.5070411 0.0000000
0.3823779 0.5061595 0.0000000
0.5151905 0.5052426 0.0000000
0.6479188 0.5043017 0.0000000
0.7788776 0.5033490 0.0000000
0.9063859 0.5023982 0.0000000
1.0000000 0.5014642 0.0000000
0.0000000 0.6393323 0.0000000
0.1207626 0.6384753 0.0000000
0.2483986 0.6375610 0.0000000
0.3793260 0.6365993 0.0000000
0.5118547 0.6356014 0.0000000
0.6442992 0.6345793 0.0000000
0.7749777 0.6335465 0.0000000
0.9022131 0.6325178 0.0000000
1.0000000 0.6315088 0.0000000
0.0000000 0.7680769 0.0000000
0.1173589 0.7671459 0.0000000
0.2447254 0.7661546 0.0000000
0.3753761 0.7651139 0.0000000
0.5076246 0.7640358 0.0000000
0.6397888 0.7629337 0.0000000
0.7701907 0.7618219 0.0000000
0.8971565 0.7607161 0.0000000
1.0000000 0.7596331 0.0000000
0.0000000 0.8932514 0.0000000
0.1131478 0.8922483 0.0000000
0.2402516 0.8911820 0.0000000
0.3706328 0.8900643 0.0000000
0.5026083 0.8889082 0.0000000
0.6344995 0.8877281 0.0000000
0.7646318 0.8865393 0.0000000
0.8913350 0.8853585 0.0000000
1.0000000 0.8842035 0.0000000
0.0000000 1.0000000 0.0000000
0.1082719 1.0000000 0.0000000
0.2351236 1.0000000 0.0000000
0.3652459 1.0000000 0.0000000
0.4969592 1.0000000 0.0000000
0.6285882 1.0000000 0.0000000
0.7584616 1.0000000 0.0000000
0.8849127 1.0000000 0.0000000
1.0000000 1.0000000 0.0000000
0.0001767 0.0000000 0.1228232
0.1240805 0.0000000 0.1210619
0.2530214 0.0000000 0.1192771
0.3852882 0.0000000 0.1174973
0.5191737 0.0000000 0.1157486
0.6529747 0.0000000 0.1140540
0.7849927 0.0000000 0.1124342
0.9135330 0.0000000 0.1109070
1.0000000 0.0000000 0.1094875
0.0014782 0.1215066 0.1170821
0.1251398 0.1209384 0.1154765
0.2538285 0.1203249 0.1138539
0.3858365 0.1196719 0.1122405
0.5194597 0.1189867 0.1106603
0.6529986 0.1182773 0.1091343
0.7847577 0.1175533 0.1076810
0.9130458 0.1168253 0.1063158
1.0000000 0.1161052 0.1050521
0.0019675 0.2479520 0.1116608
0.1253769 0.2473118 0.1102174
0.2538030 0.2466232 0.1087635
0.3855414 0.2458933 0.1073234
0.5188916 0.2451300 0.1059187
0.6521575 0.2443426 0.1045683
0.7836470 0.2435416 0.1032882
0.9116725 0.2427386 0.1020919
1.0000000 0.2419464 0.1009903
0.0015509 0.3774761 0.1066869
0.1247015 0.3767619 0.1054098
0.2528581 0.3759963 0.1041293
0.3843198 0.3751873 0.1028671
0.5173898 0.3743440 0.1016425
0.6503754 0.3734765 0.1004722
0.7815883 0.3725964 0.0993700
0.9093442 0.3717164 0.0983470
1.0000000 0.3708503 0.0974117
0.0001803 0.5083962 0.1022589
0.1230686 0.5076071 0.1011504
0.2509522 0.5067635 0.1000453
0.3821337 0.5058745 0.0989633
0.5149198 0.5049500 0.0979212
0.6476216 0.5040015 0.0969333
0.7785542 0.5030413 0.0960112
0.9060372 0.5020833 0.0951637
1.0000000 0.5011423 0.0943971
0.0000000 0.6390436 0.0984447
0.1204809 0.6381795 0.0975047
0.2480914 0.6372580 0.0965752
0.3789927 0.6362889 0.0956733
0.5114950 0.6352833 0.0948137
0.6439130 0.6342537 0.0940083
0.7745654 0.6332134 0.0932664
0.9017753 0.6321774 0.0925944
1.0000000 0.6311614 0.0919962
0.0000000 0.7677630 0.0952811
0.1169893 0.7668250 0.0945076
0.2443303 0.7658264 0.0937514
0.3749549 0.7647783 0.0930273
0.5071770 0.7636927 0.0923478
0.6393147 0.7625829 0.0917226
0.7696904 0.7614637 0.0911585
0.8966308 0.7603506 0.0906598
1.0000000 0.7592607 0.0902281
0.0000000 0.8929131 0.0927745
0.1126925 0.8919030 0.0921631
0.2397709 0.8908294 0.0915756
0.3701259 0.8897042 0.0910249
0.5020750 0.8885406 0.0905209
0.6339397 0.8873529 0.0900712
0.7640459 0.8861566 0.0896804
0.8907237 0.8849685 0.0893505
1.0000000 0.8838065 0.0890809
0.0000000 1.0000000 0.0909018
0.1077344 1.0000000 0.0904461
0.2345606 1.0000000 0.0900208
0.3646568 1.0000000 0.0896364
0.4963437 1.0000000 0.0893010
0.6279462 1.0000000 0.0890198
0.7577935 1.0000000 0.0887954
0.8842190 1.0000000 0.0886277
1.0000000 1.0000000 0.0885138
0.0003518 0.0000000 0.2507210
0.1242302 0.0000000 0.2489761
0.2531446 0.0000000 0.2472084
0.3853842 0.0000000 0.2454461
0.5192421 0.0000000 0.2437150
0.6530156 0.0000000 0.2420382
0.7850063 0.0000000 0.2404359
0.9135201 0.0000000 0.2389257
1.0000000 0.0000000 0.2375226
0.0015677 0.1213080 0.2450350
0.1252038 0.1207325 0.2434458
0.2538660 0.1201114 0.2418402
0.3858468 0.1194507 0.2402444
0.5194425 0.1187576 0.2386819
0.6529538 0.1180403 0.2371736
0.7846857 0.1173085 0.2357377
0.9129472 0.1165730 0.2343896
1.0000000 0.1158456 0.2331422
0.0019678 0.2477280 0.2396711
0.1253517 0.2470804 0.2382440
0.2537513 0.2463843 0.2368072
0.3854625 0.2456466 0.2353846
0.5187852 0.2448754 0.2339976
0.6520235 0.2440802 0.2326649
0.7834858 0.2432714 0.2314023
0.9114848 0.2424608 0.2302230
1.0000000 0.2416613 0.2291377
0.0014597 0.3772259 0.2347560
0.1245848 0.3765044 0.2334953
0.2527149 0.3757312 0.2322318
0.3841494 0.3749145 0.2309871
0.5171918 0.3740633 0.2297802
0.6501499 0.3731879 0.2286276
0.7813355 0.3723001 0.2275429
0.9090650 0.3714125 0.2265369
1.0000000 0.3705391 0.2256181
0.0000000 0.5081195 0.2303876
0.1228592 0.5073231 0.2292954
0.2507162 0.5064720 0.2282074
0.3818705 0.5055752 0.2271429
0.5146291 0.5046428 0.2261185
0.6473033 0.5036864 0.2251484
0.7782088 0.5027185 0.2242438
0.9056652 0.5017529 0.2234133
1.0000000 0.5008046 0.2226630
0.0000000 0.6387404 0.2266330
0.1201787 0.6378691 0.2257094
0.2477628 0.6369399 0.2247969
0.3786368 0.6359630 0.2239125
0.5111116 0.6349496 0.2230706
0.6435020 0.6339121 0.2222829
0.7741272 0.6328641 0.2215585
0.9013106 0.6318205 0.2209035
1.0000000 0.6307972 0.2203218
0.0000000 0.7674337 0.2235283
0.1165956 0.7664884 0.2227711
0.2439101 0.7654822 0.2220319
0.3745075 0.7644263 0.2213254
0.5067020 0.7633328 0.2206636
0.6388122 0.7622152 0.2200561
0.7691607 0.7610882 0.2195095
0.8960746 0.7599676 0.2190278
1.0000000 0.7588704 0.2186125
0.0000000 0.8925582 0.2210790
0.1122097 0.8915409 0.2204839
0.2392615 0.8904597 0.2199135
0.3695894 0.8893268 0.2193803
0.5015109 0.8881553 0.2188940
0.6333480 0.8869597 0.2184620
0.7634270 0.8857556 0.2180887
0.8900782 0.8845600 0.2177759
1.0000000 0.8833907 0.2175227
0.0000000 1.0000000 0.2192613
0.1071659 1.0000000 0.2188220
0.2339656 1.0000000 0.2184137
0.3640345 1.0000000 0.2180468
0.4956939 1.0000000 0.2177292
0.6272688 1.0000000 0.2174657
0.7570889 1.0000000 0.2172588
0.8834880 1.0000000 0.2171081
1.0000000 1.0000000 0.2170106
0.0005222 0.0000000 0.3820044
0.1243744 0.0000000 0.3802763
0.2532616 0.0000000 0.3785260
0.3854733 0.0000000 0.3767817
0.5193029 0.0000000 0.3750688
0.6530481 0.0000000 0.3734102
0.7850109 0.0000000 0.3718259
0.9134975 0.0000000 0.3703332
1.0000000 0.0000000 0.3689469
0.0016501 0.1211015 0.3763749
0.1252602 0.1205186 0.3748025
0.2538952 0.1198897 0.3732144
0.3858480 0.1192210 0.3716365
0.5194154 0.1185198 0.3700922
0.6528984 0.1177944 0.3686021
0.7846024 0.1170547 0.3671842
0.9128367 0.1163113 0.3658536
1.0000000 0.1155765 0.3646230
0.0019587 0.2474953 0.3710698
0.1253165 0.2468403 0.3696595
0.2536889 0.2461364 0.3682402
0.3853722 0.2453907 0.3668356
0.5186666 0.2446115 0.3654668
0.6518766 0.2438081 0.3641522
0.7833110 0.2429913 0.3629076
0.9112828 0.2421730 0.3617458
1.0000000 0.2413661 0.3606773
0.0013567 0.3769664 0.3662151
0.1244556 0.3762374 0.3649712
0.2525585 0.3754565 0.3637252
0.3839651 0.3746318 0.3624985
0.5169792 0.3737725 0.3613098
0.6499090 0.3728890 0.3601754
0.7810667 0.3719932 0.3591086
0.9087690 0.3710978 0.3581201
1.0000000 0.3702169 0.3572181
0.0000000 0.5078328 0.3619079
0.1226349 0.5070290 0.3608326
0.2504647 0.5061701 0.3597620
0.3815911 0.5052653 0.3587154
0.5143214 0.5043248 0.3577093
0.6469673 0.5033603 0.3567573
0.7778448 0.5023844 0.3558707
0.9052740 0.5014111 0.3550577
1.0000000 0.5004553 0.3543242
0.0000000 0.6384265 0.3582145
0.1198593 0.6375477 0.3573077
0.2474161 0.6366108 0.3564127
0.3782622 0.6356259 0.3555462
0.5107087 0.6346044 0.3547225
0.6430708 0.6335588 0.3539531
0.7736680 0.6325029 0.3532466
0.9008242 0.6314515 0.3526091
1.0000000 0.6304208 0.3520442
0.0000000 0.7670929 0.3551702
0.1161822 0.7661402 0.3544298
0.2434695 0.7651263 0.3537081
0.3740389 0.7640623 0.3530195
0.5062052 0.7629608 0.3523759
0.6382870 0.7618351 0.3517866
0.7686076 0.7607001 0.3512580
0.8954943 0.7595717 0.3507938
1.0000000 0.7584670 0.3503953
0.0000000 0.8921914 0.3527797
0.1117047 0.8911666 0.3522015
0.2387293 0.8900776 0.3516486
0.3690292 0.8889367 0.3511333
0.5009225 0.8877571 0.3506652
0.6327313 0.8865534 0.3502514
0.7627824 0.8853414 0.3498960
0.8894064 0.8841379 0.3496007
1.0000000 0.8829612 0.3493643
0.0000000 1.0000000 0.3510186
0.1065730 1.0000000 0.3505960
0.2333455 1.0000000 0.3502053
0.3633865 1.0000000 0.3498564
0.4950175 1.0000000 0.3495569
0.6265642 1.0000000 0.3493116
0.7563564 1.0000000 0.3491227
0.8827282 1.0000000 0.3489894
1.0000000 1.0000000 0.3489087
0.0006851 0.0000000 0.5149838
0.1245109 0.0000000 0.5132727
0.2533705 0.0000000 0.5115402
0.3855539 0.0000000 0.5098140
0.5193548 0.0000000 0.5081196
0.6530714 0.0000000 0.5064794
0.7850059 0.0000000 0.5049132
0.9134650 0.0000000 0.5034382
1.0000000 0.0000000 0.5020690
0.0017240 0.1208896 0.5094116
0.1253076 0.1202991 0.5078562
0.2539150 0.1196623 0.5062858
0.3858395 0.1189856 0.5047261
0.5193783 0.1182762 0.5032002
0.6528327 0.1175426 0.5017285
0.7845083 0.1167948 0.5003288
0.9127151 0.1160436 0.4990159
1.0000000 0.1153011 0.4978023
0.0019399 0.2472569 0.5041661
0.1252712 0.2465943 0.5027728
0.2536161 0.2458826 0.5013712
0.3852710 0.2451288 0.4999848
0.5185368 0.2443414 0.4986344
0.6517181 0.2435298 0.4973382
0.7831242 0.2427050 0.4961118
0.9110684 0.2418787 0.4949677
1.0000000 0.2410642 0.4939163
0.0012427 0.3767008 0.4993726
0.1243152 0.3759642 0.4981457
0.2523905 0.3751755 0.4969174
0.3837687 0.3743426 0.4957088
0.5167542 0.3734751 0.4945386
0.6496554 0.3725835 0.4934226
0.7807848 0.3716796 0.4923740
0.9084595 0.3707764 0.4914032
1.0000000 0.3698879 0.4905182
0.0000000 0.5075397 0.4951273
0.1223980 0.5067283 0.4940690
0.2502003 0.5058615 0.4930162
0.3812983 0.5049486 0.4919878
0.5140000 0.5040000 0.4910000
0.6466173 0.5030273 0.4900665
0.7774665 0.5020433 0.4891980
0.9048681 0.5010621 0.4884028
1.0000000 0.5000987 0.4876863
0.0000000 0.6381058 0.4914959
0.1195260 0.6372195 0.4906061
0.2470553 0.6362747 0.4897288
0.3778731 0.6352817 0.4888805
0.5102909 0.6342520 0.4880752
0.6426244 0.6331982 0.4873242
0.7731933 0.6321342 0.4866359
0.9003220 0.6310749 0.4860162
1.0000000 0.6300367 0.4854682
0.0000000 0.7667451 0.4885127
0.1157538 0.7657848 0.4877894
0.2430135 0.7647630 0.4870854
0.3735546 0.7636910 0.4864150
0.5056922 0.7625812 0.4857898
0.6377454 0.7614473 0.4852189
0.7680377 0.7603042 0.4847085
0.8948968 0.7591680 0.4842620
1.0000000 0.7580557 0.4838805
0.0000000 0.8918170 0.4861819
0.1111835 0.8907846 0.4856206
0.2381806 0.8896878 0.4850855
0.3684522 0.8885388 0.4845883
0.5003168 0.8873510 0.4841387
0.6320970 0.8861391 0.4837433
0.7621198 0.8849190 0.4834061
0.8887162 0.8837077 0.4831285
1.0000000 0.8825234 0.4829091
0.0000000 1.0000000 0.4844780
0.1059628 1.0000000 0.4840725
0.2327077 1.0000000 0.4836994
0.3627205 1.0000000 0.4833687
0.4943228 1.0000000 0.4830876
0.6258408 1.0000000 0.4828608
0.7556047 1.0000000 0.4826900
0.8819490 1.0000000 0.4825745
1.0000000 1.0000000 0.4825108
0.0008383 0.0000000 0.6479695
0.1246376 0.0000000 0.6462754
0.2534697 0.0000000 0.6445606
0.3856248 0.0000000 0.6428526
0.5193971 0.0000000 0.6411766
0.6530850 0.0000000 0.6395548
0.7849912 0.0000000 0.6380069
0.9134227 0.0000000 0.6365496
1.0000000 0.0000000 0.6351973
0.0017882 0.1206749 0.6424545
0.1253453 0.1200768 0.6409161
0.2539251 0.1194322 0.6393634
0.3858214 0.1187474 0.6378219
0.5193315 0.1180298 0.6363144
0.6527572 0.1172880 0.6348612
0.7844045 0.1165321 0.6334796
0.9125838 0.1157730 0.6321845
1.0000000 0.1150230 0.6309879
0.0019113 0.2470157 0.6372686
0.1252162 0.2463456 0.6358923
0.2535335 0.2456259 0.6345085
0.3851601 0.2448641 0.6331402
0.5183972 0.2440685 0.6318082
0.6515499 0.2432487 0.6305305
0.7829277 0.2424158 0.6293223
0.9108444 0.2415817 0.6281959
1.0000000 0.2407596 0.6271615
0.0011189 0.3764324 0.6325363
0.1241650 0.3756883 0.6313264
0.2522127 0.3748916 0.6301158
0.3835627 0.3740507 0.6289254
0.5165195 0.3731751 0.6277736
0.6493920 0.3722753 0.6266761
0.7804932 0.3713633 0.6256456
0.9081403 0.3704521 0.6246926
1.0000000 0.3695561 0.6238246
0.0000000 0.5072438 0.6283530
0.1221514 0.5064248 0.6273117
0.2499261 0.5055501 0.6262766
0.3809959 0.5046291 0.6252663
0.5136689 0.5036724 0.6242970
0.6462575 0.5026915 0.6233819
0.7770784 0.5016994 0.6225316
0.9044525 0.5007103 0.6217541
1.0000000 0.4997394 0.6210546
0.0000000 0.6377824 0.6247835
0.1191830 0.6368884 0.6239107
0.2466847 0.6359358 0.6230512
0.3774742 0.6349347 0.6222211
0.5098634 0.6338969 0.6214342
0.6421682 0.6328349 0.6207016
0.7727089 0.6317628 0.6200315
0.8998099 0.6306956 0.6194294
1.0000000 0.6296498 0.6188985
0.0000000 0.7663944 0.6218616
0.1153156 0.7654265 0.6211552
0.2425477 0.7643969 0.6204690
0.3730606 0.7633168 0.6198167
0.5051695 0.7621988 0.6192100
0.6371941 0.7610568 0.6186575
0.7674581 0.7599056 0.6181653
0.8942896 0.7587615 0.6177365
1.0000000 0.7576417 0.6173720
0.0000000 0.8914398 0.6195903
0.1106527 0.8903999 0.6190461
0.2376222 0.8892952 0.6185286
0.3678655 0.8881381 0.6180497
0.4997014 0.8869422 0.6176185
0.6314530 0.8857221 0.6172415
0.7614474 0.8844939 0.6169225
0.8880163 0.8832747 0.6166626
1.0000000 0.8820829 0.6164602
0.0000000 1.0000000 0.6179436
0.1053429 1.0000000 0.6175551
0.2320602 1.0000000 0.6171998
0.3620447 1.0000000 0.6168873
0.4936184 1.0000000 0.6166246
0.6251078 1.0000000 0.6164162
0.7548434 1.0000000 0.6162636
0.8811601 1.0000000 0.6161658
1.0000000 1.0000000 0.6161192
0.0009800 0.0000000 0.7792713
0.1247532 0.0000000 0.7775940
0.2535580 0.0000000 0.7758967
0.3856852 0.0000000 0.7742067
0.5194292 0.0000000 0.7725489
0.6530888 0.0000000 0.7709453
0.7849671 0.0000000 0.7694153
0.9133714 0.0000000 0.7679755
1.0000000 0.0000000 0.7666400
0.0018420 0.1204602 0.7738128
0.1253729 0.1198546 0.7722913
0.2539256 0.1192023 0.7707561
0.3857939 0.1185094 0.7692325
0.5192757 0.1177837 0.7677432
0.6526731 0.1170339 0.7663082
0.7842926 0.1162700 0.7649446
0.9124446 0.1155032 0.7636669
1.0000000 0.1147457 0.7624871
0.0018736 0.2467749 0.7686858
0.1251523 0.2460973 0.7673263
0.2534424 0.2453698 0.7659599
0.3850411 0.2446000 0.7646096
0.5182499 0.2437963 0.7632959
0.6513743 0.2429685 0.7620363
0.7827242 0.2421276 0.7608460
0.9106136 0.2412857 0.7597372
1.0000000 0.2404562 0.7587195
0.0009872 0.3761647 0.7640138
0.1240071 0.3754131 0.7628208
0.2520276 0.3746087 0.7616277
0.3833497 0.3737598 0.7604553
0.5162783 0.3728761 0.7593216
0.6491224 0.3719682 0.7582423
0.7801957 0.3710482 0.7572298
0.9078155 0.3701293 0.7562943
1.0000000 0.3692258 0.7554430
0.0000000 0.5069489 0.7598917
0.1218984 0.5061224 0.7588672
0.2496459 0.5052400 0.7578496
0.3806877 0.5043110 0.7568574
0.5133325 0.5033462 0.7559062
0.6458928 0.5023572 0.7550093
0.7766858 0.5013572 0.7541770
0.9040327 0.5003603 0.7534169
1.0000000 0.4993819 0.7527343
0.0000000 0.6374603 0.7563834
0.1188348 0.6365589 0.7555275
0.2463093 0.6355985 0.7546854
0.3770709 0.6345894 0.7538733
0.5094318 0.6335435 0.7531046
0.6417083 0.6324734 0.7523901
0.7722211 0.6313933 0.7517380
0.8992949 0.6303184 0.7511535
1.0000000 0.6292651 0.7506393
0.0000000 0.7660455 0.7535219
0.1148735 0.7650702 0.7528324
0.2420784 0.7640327 0.7521636
0.3725633 0.7629446 0.7515293
0.5046440 0.7618186 0.7509408
0.6366402 0.7606685 0.7504065
0.7668763 0.7595093 0.7499322
0.8936806 0.7583574 0.7495209
1.0000000 0.7572301 0.7491732
0.0000000 0.8910648 0.7513095
0.1101190 0.8900174 0.7507821
0.2370613 0.8889049 0.7502821
0.3672767 0.8877398 0.7498211
0.4990843 0.8865358 0.7494081
0.6308076 0.8853076 0.7490493
0.7607741 0.8840715 0.7487483
0.8873158 0.8828445 0.7485059
1.0000000 0.8816452 0.7483203
0.0000000 1.0000000 0.7497193
0.1047213 1.0000000 0.7493476
0.2314114 1.0000000 0.7490098
0.3613680 1.0000000 0.7487152
0.4929134 1.0000000 0.7484707
0.6243745 1.0000000 0.7482805
0.7540821 1.0000000 0.7481459
0.8803716 1.0000000 0.7480656
1.0000000 1.0000000 0.7480357
0.0011089 0.0000000 0.9071989
0.1248566 0.0000000 0.9055380
0.2536350 0.0000000 0.9038577
0.3857349 0.0000000 0.9021852
0.5194514 0.0000000 0.9005451
0.6530834 0.0000000 0.8989592
0.7849345 0.0000000 0.8974466
0.9133123 0.0000000 0.8960239
1.0000000 0.0000000 0.8947048
0.0018852 0.1202484 0.9017955
0.1253907 0.1196356 0.9002902
0.2539169 0.1189756 0.8987721
0.3857580 0.1182750 0.8972660
0.5192122 0.1175415 0.8957944
0.6525821 0.1167838 0.8943771
0.7841743 0.1160121 0.8930310
0.9122998 0.1152377 0.8917704
1.0000000 0.1144729 0.8906070
0.0018276 0.2465376 0.8967257
0.1250809 0.2458527 0.8953826
0.2533445 0.2451177 0.8940333
0.3849160 0.2443401 0.8927005
0.5180973 0.2435286 0.8914044
0.6511941 0.2426929 0.8901626
0.7825168 0.2418442 0.8889898
0.9103797 0.2409947 0.8878980
1.0000000 0.2401579 0.8868967
0.0008498 0.3759013 0.8921126
0.1238442 0.3751424 0.8909360
0.2518382 0.3743304 0.8897599
0.3831331 0.3734738 0.8886050
0.5160341 0.3725821 0.8874891
0.6488507 0.3716664 0.8864274
0.7798967 0.3707386 0.8854324
0.9074901 0.3698122 0.8845139
1.0000000 0.3689014 0.8836791
0.0000000 0.5066590 0.8880501
0.1216428 0.5058252 0.8870420
0.2493638 0.5049352 0.8860415
0.3803784 0.5039985 0.8850667
0.5129955 0.5030258 0.8841332
0.6455283 0.5020289 0.8832540
0.7762941 0.5010211 0.8824392
0.9036145 0.5000166 0.8816962
1.0000000 0.4990310 0.8810299
0.0000000 0.6371439 0.8846014
0.1184865 0.6362352 0.8837619
0.2459345 0.6352672 0.8829368
0.3766689 0.6342504 0.8821422
0.5090022 0.6331966 0.8813912
0.6412511 0.6321187 0.8806945
0.7717367 0.6310308 0.8800598
0.8987840 0.6299483 0.8794923
1.0000000 0.6288877 0.8789946
0.0000000 0.7657029 0.8817988
0.1144336 0.7647203 0.8811256
0.2416120 0.7636753 0.8804739
0.3720697 0.7625795 0.8798571
0.5041228 0.7614456 0.8792863
0.6360915 0.7602876 0.8787697
0.7663004 0.7591206 0.8783129
0.8930782 0.7579611 0.8779187
1.0000000 0.7568266 0.8775873
0.0000000 0.8906967 0.8796437
0.1095899 0.8896421 0.8791326
0.2365057 0.8885220 0.8786497
0.3666939 0.8873491 0.8782062
0.4984740 0.8861372 0.8778109
0.6301697 0.8849012 0.8774698
0.7601090 0.8836573 0.8771863
0.8866242 0.8824228 0.8769609
1.0000000 0.8812162 0.8767917
0.0000000 1.0000000 0.8781086
0.1041066 1.0000000 0.8777533
0.2307702 1.0000000 0.8774325
0.3606995 1.0000000 0.8771554
0.4922174 1.0000000 0.8769286
0.6236509 1.0000000 0.8767561
0.7533314 1.0000000 0.8766390
0.8795943 1.0000000 0.8765757
1.0000000 1.0000000 0.8765622
0.0012243 0.0000000 1.0000000
0.1249475 0.0000000 1.0000000
0.2537004 0.0000000 1.0000000
0.3857742 0.0000000 1.0000000
0.5194642 0.0000000 1.0000000
0.6530698 0.0000000 1.0000000
0.7848948 0.0000000 1.0000000
0.9132470 0.0000000 1.0000000
1.0000000 0.0000000 1.0000000
0.0019183 0.1200426 1.0000000
0.1253994 0.1194228 1.0000000
0.2539001 0.1187556 1.0000000
0.3857150 0.1180475 1.0000000
0.5191428 0.1173064 1.0000000
0.6524862 0.1165411 1.0000000
0.7840523 0.1157620 1.0000000
0.9121524 0.1149803 1.0000000
1.0000000 0.1142086 1.0000000
0.0017751 0.2463073 1.0000000
0.1250039 0.2456155 1.0000000
0.2532420 0.2448732 1.0000000
0.3847874 0.2440881 1.0000000
0.5179422 0.2432690 1.0000000
0.6510126 0.2424257 1.0000000
0.7823091 0.2415696 1.0000000
0.9101466 0.2407128 1.0000000
1.0000000 0.2398691 1.0000000
0.0007093 0.3756459 1.0000000
0.1236793 0.3748801 1.0000000
0.2516478 0.3740608 1.0000000
0.3829166 0.3731967 1.0000000
0.5157911 0.3722975 1.0000000
0.6485812 0.3713741 1.0000000
0.7796011 0.3704389 1.0000000
0.9071690 0.3695052 1.0000000
1.0000000 0.3685874 1.0000000
0.0000000 0.5063782 1.0000000
0.1213888 0.5055374 1.0000000
0.2490843 0.5046401 1.0000000
0.3800728 0.5036959 1.0000000
0.5126635 0.5027156 1.0000000
0.6451698 0.5017112 1.0000000
0.7759095 0.5006960 1.0000000
0.9032044 0.4996842 1.0000000
1.0000000 0.4986916 1.0000000
0.0000000 0.6368376 1.0000000
0.1181435 0.6359220 1.0000000
0.2455660 0.6349467 1.0000000
0.3762743 0.6339224 1.0000000
0.5085811 0.6328610 1.0000000
0.6408036 0.6317755 1.0000000
0.7712630 0.6306802 1.0000000
0.8982849 0.6295904 1.0000000
1.0000000 0.6285229 1.0000000
0.0000000 0.7653715 1.0000000
0.1140027 0.7643819 1.0000000
0.2411556 0.7633296 1.0000000
0.3715872 0.7622263 1.0000000
0.5036138 0.7610849 1.0000000
0.6355561 0.7599193 1.0000000
0.7657388 0.7587449 1.0000000
0.8924912 0.7575781 1.0000000
1.0000000 0.7564366 1.0000000
0.0000000 0.8903409 1.0000000
0.1090733 0.8892792 1.0000000
0.2359637 0.8881519 1.0000000
0.3661257 0.8869716 1.0000000
0.4978793 0.8857521 1.0000000
0.6295486 0.8845085 1.0000000
0.7594618 0.8832571 1.0000000
0.8859515 0.8820153 1.0000000
1.0000000 0.8808017 1.0000000
0.0000000 1.0000000 1.0000000
0.1035078 1.0000000 1.0000000
0.2301459 1.0000000 1.0000000
0.3600491 1.0000000 1.0000000
0.4915405 1.0000000 1.0000000
0.6229475 1.0000000 1.0000000
0.7526019 1.0000000 1.0000000
0.8788394 1.0000000 0.9999978
1.0000000 1.0000000 1.0000000
